; generated by PrusaSlicer 2.7.2+win64 on 2024-04-02 at 03:44:09 UTC

; 

; external perimeters extrusion width = 0.45mm
; perimeters extrusion width = 0.45mm
; infill extrusion width = 0.45mm
; solid infill extrusion width = 0.45mm
; top infill extrusion width = 0.40mm
; support material extrusion width = 0.35mm
; first layer extrusion width = 0.42mm

;TYPE:Custom
M107
M191 S50     ; set chamber temperature and wait for it to be reached
;M109 S120   ; set temp and wait for it to be reached
M104 S150    ; Start heating the extruder.
M140 S70 ; heat bed
M190 S70 ; wait for the bed to heat up
G28          ; home all axes

G29 ; Z-Probe the bed (requires Z-Probe!) - auto bed level

M109 S215 ; Heat up the extruder

G1 Y288 Z0.3 F9000  ; move forward off front of bed
G1 X10 Z10          ; move left to clear heater
G1 Z0.4 F300        ; position nozzle 
G92 E0              ; zero extruder
G1 E25 F225         ; purge nozzle
G92 E0              ; zero extruder

G1 Y265 Z0.2 E1.0 F600 ; slow wipe
G1 Y260 Z0.25          ; lift
G92 E0 
G1 E-1.0
G21 ; set units to millimeters
G90 ; use absolute coordinates
M82 ; use absolute distances for extrusion
G92 E0
; Filament gcode
M107
;LAYER_CHANGE
;Z:0.35
;HEIGHT:0.35
G1 E-2 F2400
G1 Z.35 F7800
G1 X114.944 Y119.025
G1 E0 F2400
;TYPE:Skirt/Brim
;WIDTH:0.42
G1 F1800
G1 X117.544 Y116.691 E.17535
G1 X120.361 Y114.622 E.35076
G1 X123.367 Y112.841 E.52611
G1 X126.533 Y111.362 E.70148
G1 X129.829 Y110.201 E.87685
G1 X133.222 Y109.368 E1.05219
G1 X136.682 Y108.872 E1.22761
G1 X140.211 Y108.718 E1.40488
G1 X143.662 Y108.906 E1.57833
G1 X147.116 Y109.435 E1.75369
G1 X150.501 Y110.301 E1.92904
G1 X153.786 Y111.494 E2.10444
G1 X156.937 Y113.003 E2.27977
G1 X159.926 Y114.814 E2.45516
G1 X162.723 Y116.909 E2.63054
G1 X165.3 Y119.269 E2.80591
G1 X167.634 Y121.869 E2.98126
G1 X169.703 Y124.686 E3.15667
G1 X171.484 Y127.692 E3.33202
G1 X172.963 Y130.858 E3.50739
G1 X174.124 Y134.154 E3.68276
G1 X174.957 Y137.548 E3.85815
G1 X175.453 Y141.007 E4.03352
G1 X175.608 Y144.498 E4.20889
G1 X175.419 Y147.987 E4.38425
G1 X174.89 Y151.441 E4.55961
G1 X174.024 Y154.826 E4.73496
G1 X172.831 Y158.111 E4.91036
G1 X171.322 Y161.262 E5.08569
G1 X169.511 Y164.251 E5.26108
G1 X167.415 Y167.048 E5.43649
G1 X165.056 Y169.625 E5.61182
G1 X162.456 Y171.959 E5.78717
G1 X159.639 Y174.027 E5.96255
G1 X156.633 Y175.809 E6.13792
G1 X153.467 Y177.288 E6.31329
G1 X150.171 Y178.449 E6.48866
G1 X146.777 Y179.282 E6.66405
G1 X143.318 Y179.778 E6.83942
G1 X139.827 Y179.932 E7.01479
G1 X136.338 Y179.744 E7.19014
G1 X132.884 Y179.215 E7.3655
G1 X129.498 Y178.349 E7.5409
G1 X126.214 Y177.156 E7.71625
G1 X123.062 Y175.647 E7.89163
G1 X120.074 Y173.836 E8.06698
G1 X117.277 Y171.74 E8.24239
G1 X114.7 Y169.381 E8.41772
G1 X112.366 Y166.781 E8.59307
G1 X110.298 Y163.964 E8.76845
G1 X108.516 Y160.958 E8.94382
G1 X107.037 Y157.792 E9.11919
G1 X105.876 Y154.496 E9.29456
G1 X105.043 Y151.102 E9.46995
G1 X104.547 Y147.643 E9.64532
G1 X104.392 Y144.152 E9.82069
G1 X104.581 Y140.663 E9.99605
G1 X105.11 Y137.209 E10.17141
G1 X105.976 Y133.823 E10.34681
G1 X107.169 Y130.539 E10.52216
G1 X108.678 Y127.388 E10.69749
G1 X110.489 Y124.399 E10.87288
G1 X112.584 Y121.603 E11.04822
G1 X114.903 Y119.069 E11.22061
G1 X115.157 Y119.301 F7800
G1 F1800
G1 X115.181 Y119.275 E11.22239
G1 X117.756 Y116.962 E11.3961
G1 X120.546 Y114.914 E11.56979
G1 X123.522 Y113.149 E11.74343
G1 X126.657 Y111.684 E11.91709
G1 X129.921 Y110.533 E12.09078
G1 X133.281 Y109.708 E12.26441
G1 X136.707 Y109.216 E12.43811
G1 X140.203 Y109.063 E12.61373
G1 X143.62 Y109.248 E12.78547
G1 X147.04 Y109.772 E12.95911
G1 X150.393 Y110.628 E13.13278
G1 X153.646 Y111.809 E13.30646
G1 X156.767 Y113.303 E13.48011
G1 X159.727 Y115.096 E13.65379
G1 X162.497 Y117.171 E13.82748
G1 X165.051 Y119.507 E14.00118
G1 X167.363 Y122.081 E14.17482
G1 X169.411 Y124.871 E14.34851
G1 X171.176 Y127.847 E14.52215
G1 X172.641 Y130.982 E14.69581
G1 X173.792 Y134.246 E14.8695
G1 X174.617 Y137.607 E15.04318
G1 X175.109 Y141.032 E15.21683
G1 X175.263 Y144.489 E15.39049
G1 X175.077 Y147.945 E15.56418
G1 X174.553 Y151.365 E15.73782
G1 X173.697 Y154.718 E15.91149
G1 X172.516 Y157.971 E16.08517
G1 X171.022 Y161.092 E16.25882
G1 X169.229 Y164.052 E16.4325
G1 X167.154 Y166.822 E16.60619
G1 X164.818 Y169.376 E16.77989
G1 X162.244 Y171.688 E16.95353
G1 X159.454 Y173.736 E17.12722
G1 X156.478 Y175.501 E17.30086
G1 X153.343 Y176.966 E17.47452
G1 X150.079 Y178.117 E17.64821
G1 X146.718 Y178.942 E17.82189
G1 X143.293 Y179.434 E17.99554
G1 X139.836 Y179.588 E18.1692
G1 X136.38 Y179.402 E18.34289
G1 X132.96 Y178.878 E18.51653
G1 X129.607 Y178.022 E18.6902
G1 X126.354 Y176.841 E18.86388
G1 X123.232 Y175.347 E19.03758
G1 X120.273 Y173.554 E19.21122
G1 X117.503 Y171.479 E19.38491
G1 X114.949 Y169.143 E19.55861
G1 X112.637 Y166.569 E19.73225
G1 X110.589 Y163.779 E19.90594
G1 X108.824 Y160.803 E20.07958
G1 X107.359 Y157.668 E20.25324
G1 X106.208 Y154.404 E20.42693
G1 X105.383 Y151.044 E20.60056
G1 X104.891 Y147.618 E20.77426
G1 X104.737 Y144.161 E20.94792
G1 X104.923 Y140.705 E21.12161
G1 X105.447 Y137.285 E21.29525
G1 X106.303 Y133.932 E21.46892
G1 X107.484 Y130.679 E21.6426
G1 X108.978 Y127.558 E21.81625
G1 X110.771 Y124.598 E21.98993
G1 X112.845 Y121.828 E22.16359
G1 X115.116 Y119.346 E22.33242
G1 X115.116 Y119.346 F7800
G1 X115.37 Y119.578
G1 F1800
G1 X115.419 Y119.524 E22.33608
G1 X117.968 Y117.234 E22.50805
G1 X120.73 Y115.205 E22.68005
G1 X123.677 Y113.457 E22.85201
G1 X126.781 Y112.005 E23.02399
G1 X130.013 Y110.865 E23.19599
G1 X133.34 Y110.048 E23.36792
G1 X136.732 Y109.56 E23.5399
G1 X140.194 Y109.408 E23.71381
G1 X143.577 Y109.59 E23.88383
G1 X146.964 Y110.108 E24.05579
G1 X150.285 Y110.956 E24.22781
G1 X153.506 Y112.125 E24.39978
G1 X156.597 Y113.603 E24.57173
G1 X159.529 Y115.378 E24.74374
G1 X162.272 Y117.432 E24.91572
G1 X164.801 Y119.744 E25.08768
G1 X167.091 Y122.294 E25.25968
G1 X169.12 Y125.055 E25.43164
G1 X170.868 Y128.002 E25.6036
G1 X172.32 Y131.106 E25.77558
G1 X173.46 Y134.338 E25.94758
G1 X174.277 Y137.665 E26.11951
G1 X174.765 Y141.057 E26.29149
G1 X174.918 Y144.481 E26.4635
G1 X174.735 Y147.902 E26.63543
G1 X174.217 Y151.29 E26.80744
G1 X173.369 Y154.61 E26.97941
G1 X172.2 Y157.831 E27.15138
G1 X170.722 Y160.922 E27.32333
G1 X168.947 Y163.854 E27.49534
G1 X166.893 Y166.597 E27.66732
G1 X164.581 Y169.126 E27.83928
G1 X162.031 Y171.416 E28.01128
G1 X159.27 Y173.445 E28.18324
G1 X156.323 Y175.193 E28.3552
G1 X153.219 Y176.645 E28.52718
G1 X149.987 Y177.785 E28.69918
G1 X146.659 Y178.602 E28.87116
G1 X143.268 Y179.09 E29.04309
G1 X139.844 Y179.243 E29.2151
G1 X136.422 Y179.06 E29.38708
G1 X133.035 Y178.542 E29.55904
G1 X129.715 Y177.694 E29.73101
G1 X126.494 Y176.525 E29.90298
G1 X123.402 Y175.046 E30.07499
G1 X120.471 Y173.272 E30.24693
G1 X117.728 Y171.218 E30.41891
G1 X115.199 Y168.906 E30.59087
G1 X112.909 Y166.356 E30.76287
G1 X110.88 Y163.595 E30.93483
G1 X109.132 Y160.648 E31.10679
G1 X107.68 Y157.544 E31.27877
G1 X106.54 Y154.312 E31.45077
G1 X105.723 Y150.985 E31.6227
G1 X105.235 Y147.593 E31.79468
G1 X105.082 Y144.169 E31.96669
G1 X105.265 Y140.748 E32.13862
G1 X105.783 Y137.36 E32.31063
G1 X106.631 Y134.04 E32.4826
G1 X107.8 Y130.819 E32.65457
G1 X109.278 Y127.728 E32.82652
G1 X111.053 Y124.796 E32.99853
G1 X113.107 Y122.053 E33.17051
G1 X115.33 Y119.622 E33.33583
G1 E31.33583 F2400
G92 E0
G1 X115.33 Y119.622 F7800
G1 X113.517 Y152.359
G1 E2 F2400
;TYPE:Perimeter
;WIDTH:0.42
G1 F1800
G1 X113.154 Y151.049 E2.06822
G1 X112.857 Y149.724 E2.13637
G1 X112.625 Y148.386 E2.20452
G1 X112.458 Y147.038 E2.27269
G1 X112.358 Y145.683 E2.34088
G1 X112.325 Y144.325 E2.40905
G1 X112.358 Y142.967 E2.47722
G1 X112.458 Y141.612 E2.54541
G1 X112.625 Y140.264 E2.61358
G1 X112.857 Y138.926 E2.68173
G1 X113.154 Y137.6 E2.74993
G1 X113.517 Y136.291 E2.8181
G1 X113.943 Y135.002 E2.88623
G1 X114.432 Y133.734 E2.95443
G1 X114.982 Y132.492 E3.0226
G1 X115.593 Y131.279 E3.09076
G1 X116.262 Y130.097 E3.15892
G1 X116.989 Y128.95 E3.22707
G1 X117.771 Y127.839 E3.29525
G1 X118.607 Y126.768 E3.36344
G1 X119.494 Y125.74 E3.43158
G1 X120.431 Y124.756 E3.49977
G1 X121.415 Y123.819 E3.56796
G1 X122.443 Y122.932 E3.6361
G1 X123.514 Y122.096 E3.70429
G1 X124.625 Y121.314 E3.77247
G1 X125.772 Y120.587 E3.84062
G1 X126.954 Y119.918 E3.90878
G1 X128.167 Y119.307 E3.97694
G1 X129.409 Y118.757 E4.04511
G1 X130.677 Y118.268 E4.11331
G1 X131.966 Y117.842 E4.18144
G1 X133.276 Y117.479 E4.24966
G1 X134.601 Y117.182 E4.31781
G1 X135.939 Y116.95 E4.38596
G1 X137.287 Y116.783 E4.45413
G1 X138.641 Y116.683 E4.52227
G1 X140.038 Y116.651 E4.5924
G1 X141.358 Y116.683 E4.65866
G1 X142.713 Y116.783 E4.72685
G1 X144.061 Y116.95 E4.79502
G1 X145.399 Y117.182 E4.86317
G1 X146.724 Y117.479 E4.93132
G1 X148.034 Y117.842 E4.99954
G1 X149.323 Y118.268 E5.06767
G1 X150.591 Y118.757 E5.13587
G1 X151.833 Y119.307 E5.20404
G1 X153.046 Y119.918 E5.2722
G1 X154.228 Y120.587 E5.34036
G1 X155.375 Y121.314 E5.40851
G1 X156.486 Y122.096 E5.47669
G1 X157.557 Y122.932 E5.54488
G1 X158.585 Y123.819 E5.61302
G1 X159.569 Y124.756 E5.68121
G1 X160.506 Y125.74 E5.7494
G1 X161.393 Y126.768 E5.81754
G1 X162.229 Y127.839 E5.88573
G1 X163.011 Y128.95 E5.95391
G1 X163.738 Y130.097 E6.02206
G1 X164.407 Y131.279 E6.09022
G1 X165.018 Y132.492 E6.15838
G1 X165.568 Y133.734 E6.22655
G1 X166.057 Y135.002 E6.29475
G1 X166.483 Y136.291 E6.36288
G1 X166.846 Y137.6 E6.43105
G1 X167.143 Y138.926 E6.49925
G1 X167.375 Y140.264 E6.5674
G1 X167.542 Y141.612 E6.63557
G1 X167.642 Y142.967 E6.70376
G1 X167.668 Y144.604 E6.78592
G1 X167.642 Y145.683 E6.84009
G1 X167.542 Y147.038 E6.90828
G1 X167.375 Y148.386 E6.97645
G1 X167.143 Y149.724 E7.0446
G1 X166.846 Y151.049 E7.11275
G1 X166.483 Y152.359 E7.18097
G1 X166.057 Y153.648 E7.2491
G1 X165.568 Y154.916 E7.3173
G1 X165.018 Y156.158 E7.38547
G1 X164.407 Y157.371 E7.45363
G1 X163.738 Y158.553 E7.52179
G1 X163.011 Y159.7 E7.58994
G1 X162.229 Y160.811 E7.65812
G1 X161.393 Y161.882 E7.72631
G1 X160.506 Y162.91 E7.79445
G1 X159.569 Y163.894 E7.86264
G1 X158.585 Y164.831 E7.93083
G1 X157.557 Y165.718 E7.99897
G1 X156.486 Y166.554 E8.06716
G1 X155.375 Y167.336 E8.13534
G1 X154.228 Y168.063 E8.20349
G1 X153.046 Y168.732 E8.27165
G1 X151.833 Y169.343 E8.33981
G1 X150.591 Y169.893 E8.40798
G1 X149.323 Y170.382 E8.47618
G1 X148.034 Y170.808 E8.54431
G1 X146.724 Y171.171 E8.61253
G1 X145.399 Y171.468 E8.68068
G1 X144.061 Y171.7 E8.74883
G1 X142.713 Y171.867 E8.817
G1 X141.358 Y171.967 E8.88519
G1 X140 Y172 E8.95336
G1 X138.642 Y171.967 E9.02153
G1 X137.287 Y171.867 E9.08972
G1 X135.939 Y171.7 E9.15789
G1 X134.601 Y171.468 E9.22604
G1 X133.276 Y171.171 E9.29419
G1 X131.966 Y170.808 E9.36241
G1 X130.677 Y170.382 E9.43054
G1 X129.409 Y169.893 E9.49874
G1 X128.167 Y169.343 E9.56691
G1 X126.954 Y168.732 E9.63507
G1 X125.772 Y168.063 E9.70323
G1 X124.625 Y167.336 E9.77138
G1 X123.514 Y166.554 E9.83956
G1 X122.443 Y165.718 E9.90775
G1 X121.415 Y164.831 E9.97589
G1 X120.431 Y163.894 E10.04408
G1 X119.494 Y162.91 E10.11227
G1 X118.607 Y161.882 E10.18041
G1 X117.771 Y160.811 E10.2486
G1 X116.989 Y159.7 E10.31678
G1 X116.262 Y158.553 E10.38493
G1 X115.593 Y157.371 E10.45309
G1 X114.982 Y156.158 E10.52125
G1 X114.432 Y154.916 E10.58942
G1 X113.943 Y153.648 E10.65762
G1 X113.536 Y152.416 E10.72274
G1 X113.536 Y152.416 F7800
G1 X113.187 Y152.459
G1 F1800
G1 X112.82 Y151.133 E10.79179
G1 X112.518 Y149.791 E10.86082
G1 X112.283 Y148.436 E10.92984
G1 X112.115 Y147.071 E10.99886
G1 X112.014 Y145.7 E11.06785
G1 X111.98 Y144.325 E11.13688
G1 X112.014 Y142.95 E11.20591
G1 X112.115 Y141.579 E11.2749
G1 X112.283 Y140.214 E11.34392
G1 X112.518 Y138.859 E11.41294
G1 X112.82 Y137.517 E11.48197
G1 X113.187 Y136.191 E11.55102
G1 X113.618 Y134.885 E11.62004
G1 X114.113 Y133.602 E11.68905
G1 X114.67 Y132.345 E11.75805
G1 X115.289 Y131.116 E11.82711
G1 X115.966 Y129.92 E11.89608
G1 X116.702 Y128.758 E11.96511
G1 X117.494 Y127.634 E12.03412
G1 X118.34 Y126.549 E12.10317
G1 X119.239 Y125.508 E12.1722
G1 X120.187 Y124.512 E12.24121
G1 X121.183 Y123.564 E12.31022
G1 X122.224 Y122.665 E12.37925
G1 X123.309 Y121.819 E12.4483
G1 X124.433 Y121.027 E12.51731
G1 X125.595 Y120.291 E12.58634
G1 X126.791 Y119.614 E12.65531
G1 X128.02 Y118.995 E12.72437
G1 X129.277 Y118.438 E12.79337
G1 X130.56 Y117.943 E12.86238
G1 X131.866 Y117.512 E12.9314
G1 X133.192 Y117.145 E13.00045
G1 X134.534 Y116.843 E13.06948
G1 X135.889 Y116.608 E13.1385
G1 X137.254 Y116.44 E13.20752
G1 X138.625 Y116.339 E13.27651
G1 X140.038 Y116.306 E13.34744
G1 X141.375 Y116.339 E13.41456
G1 X142.746 Y116.44 E13.48355
G1 X144.111 Y116.608 E13.55257
G1 X145.466 Y116.843 E13.62159
G1 X146.808 Y117.145 E13.69062
G1 X148.134 Y117.512 E13.75967
G1 X149.44 Y117.943 E13.82869
G1 X150.723 Y118.438 E13.8977
G1 X151.98 Y118.995 E13.9667
G1 X153.208 Y119.614 E14.03572
G1 X154.405 Y120.291 E14.10473
G1 X155.567 Y121.027 E14.17376
G1 X156.691 Y121.819 E14.24277
G1 X157.776 Y122.665 E14.31182
G1 X158.817 Y123.564 E14.38085
G1 X159.813 Y124.512 E14.44986
G1 X160.761 Y125.508 E14.51887
G1 X161.66 Y126.549 E14.5879
G1 X162.506 Y127.634 E14.65695
G1 X163.298 Y128.758 E14.72596
G1 X164.034 Y129.92 E14.79499
G1 X164.711 Y131.116 E14.86396
G1 X165.33 Y132.345 E14.93302
G1 X165.887 Y133.602 E15.00202
G1 X166.382 Y134.885 E15.07103
G1 X166.813 Y136.191 E15.14005
G1 X167.18 Y137.517 E15.2091
G1 X167.482 Y138.859 E15.27813
G1 X167.717 Y140.214 E15.34715
G1 X167.885 Y141.579 E15.41617
G1 X167.986 Y142.95 E15.48516
G1 X168.013 Y144.613 E15.56863
G1 X167.986 Y145.7 E15.6232
G1 X167.885 Y147.071 E15.69219
G1 X167.717 Y148.436 E15.76121
G1 X167.482 Y149.791 E15.83023
G1 X167.18 Y151.133 E15.89926
G1 X166.813 Y152.459 E15.96831
G1 X166.382 Y153.765 E16.03733
G1 X165.887 Y155.048 E16.10634
G1 X165.33 Y156.305 E16.17534
G1 X164.711 Y157.533 E16.24436
G1 X164.034 Y158.73 E16.31337
G1 X163.298 Y159.892 E16.3824
G1 X162.506 Y161.016 E16.45141
G1 X161.66 Y162.101 E16.52046
G1 X160.761 Y163.142 E16.58949
G1 X159.813 Y164.138 E16.6585
G1 X158.817 Y165.086 E16.72751
G1 X157.776 Y165.985 E16.79654
G1 X156.691 Y166.831 E16.86559
G1 X155.567 Y167.623 E16.9346
G1 X154.405 Y168.358 E17.0036
G1 X153.209 Y169.036 E17.0726
G1 X151.98 Y169.655 E17.14166
G1 X150.723 Y170.212 E17.21066
G1 X149.44 Y170.707 E17.27967
G1 X148.134 Y171.138 E17.34869
G1 X146.808 Y171.505 E17.41774
G1 X145.466 Y171.806 E17.48676
G1 X144.111 Y172.042 E17.55579
G1 X142.746 Y172.21 E17.62481
G1 X141.375 Y172.311 E17.6938
G1 X140 Y172.345 E17.76283
G1 X138.625 Y172.311 E17.83186
G1 X137.254 Y172.21 E17.90085
G1 X135.889 Y172.042 E17.96987
G1 X134.534 Y171.806 E18.0389
G1 X133.192 Y171.505 E18.10792
G1 X131.866 Y171.138 E18.17697
G1 X130.56 Y170.707 E18.24599
G1 X129.277 Y170.212 E18.315
G1 X128.02 Y169.655 E18.384
G1 X126.792 Y169.036 E18.45302
G1 X125.595 Y168.358 E18.52206
G1 X124.433 Y167.623 E18.59106
G1 X123.309 Y166.831 E18.66007
G1 X122.224 Y165.985 E18.72912
G1 X121.183 Y165.086 E18.79815
G1 X120.187 Y164.138 E18.86716
G1 X119.239 Y163.142 E18.93617
G1 X118.34 Y162.101 E19.0052
G1 X117.494 Y161.016 E19.07425
G1 X116.702 Y159.892 E19.14326
G1 X115.966 Y158.73 E19.21229
G1 X115.289 Y157.533 E19.2813
G1 X114.67 Y156.305 E19.35032
G1 X114.113 Y155.048 E19.41932
G1 X113.618 Y153.765 E19.48833
G1 X113.205 Y152.516 E19.55435
G1 X113.205 Y152.516 F7800
G1 X112.856 Y152.559
;TYPE:External perimeter
G1 F1800
G1 X112.485 Y151.217 E19.62423
G1 X112.18 Y149.859 E19.69408
G1 X111.942 Y148.487 E19.76396
G1 X111.772 Y147.105 E19.83384
G1 X111.669 Y145.717 E19.90369
G1 X111.635 Y144.325 E19.97357
G1 X111.669 Y142.933 E20.04345
G1 X111.772 Y141.545 E20.1133
G1 X111.942 Y140.163 E20.18318
G1 X112.18 Y138.791 E20.25306
G1 X112.485 Y137.433 E20.32291
G1 X112.856 Y136.091 E20.39279
G1 X113.293 Y134.769 E20.46267
G1 X113.794 Y133.47 E20.53254
G1 X114.358 Y132.197 E20.60242
G1 X114.984 Y130.954 E20.67227
G1 X115.671 Y129.742 E20.74219
G1 X116.415 Y128.566 E20.81203
G1 X117.217 Y127.428 E20.8819
G1 X118.074 Y126.33 E20.9518
G1 X118.983 Y125.276 E21.02165
G1 X119.943 Y124.268 E21.09151
G1 X120.951 Y123.308 E21.16137
