; generated by PrusaSlicer 2.7.2+win64 on 2024-03-31 at 03:07:13 UTC

; 

; external perimeters extrusion width = 0.45mm
; perimeters extrusion width = 0.45mm
; infill extrusion width = 0.45mm
; solid infill extrusion width = 0.45mm
; top infill extrusion width = 0.40mm
; support material extrusion width = 0.35mm
; first layer extrusion width = 0.42mm

; external perimeters extrusion width = 0.45mm
; perimeters extrusion width = 0.45mm
; infill extrusion width = 0.45mm
; solid infill extrusion width = 0.45mm
; top infill extrusion width = 0.40mm
; support material extrusion width = 0.35mm
; first layer extrusion width = 0.42mm

;TYPE:Custom
M107
M191 S50     ; set chamber temperature and wait for it to be reached
;M109 S120   ; set temp and wait for it to be reached
M104 S150    ; Start heating the extruder.
M140 S70 ; heat bed
M190 S70 ; wait for the bed to heat up
G28          ; home all axes

G29 ; Z-Probe the bed (requires Z-Probe!) - auto bed level

M109 S215 ; Heat up the extruder

G1 Y288 Z0.3 F9000  ; move forward off front of bed
G1 X10 Z10          ; move left to clear heater
G1 Z0.4 F300        ; position nozzle 
G92 E0              ; zero extruder
G1 E25 F225         ; purge nozzle
G92 E0              ; zero extruder

G1 Y265 Z0.2 E1.0 F600 ; slow wipe
G1 Y260 Z0.25          ; lift
G92 E0 
G1 E-1.0
G21 ; set units to millimeters
G90 ; use absolute coordinates
M82 ; use absolute distances for extrusion
G92 E0
; Filament gcode
M107
;LAYER_CHANGE
;Z:0.35
;HEIGHT:0.35
G1 E-2 F2400
G1 Z.35 F7800
G1 X114.678 Y98.929
G1 E0 F2400
;TYPE:Skirt/Brim
;WIDTH:0.42
G1 F1800
G1 X116.671 Y96.619 E.15311
G1 X118.988 Y94.437 E.31284
G1 X121.507 Y92.492 E.47256
G1 X122.836 Y91.614 E.5525
G1 X125.092 Y90.329 E.6828
G1 X127.335 Y89.581 E.80146
G1 X128.92 Y89.517 E.88107
G1 X155.064 Y91.424 E2.19662
G1 X157.359 Y91.989 E2.31524
G1 X158.736 Y92.784 E2.39504
G1 X159.758 Y93.541 E2.45887
G1 X162.425 Y95.84 E2.63558
G1 X164.373 Y97.886 E2.77736
G1 X165.597 Y99.377 E2.87417
G1 X166.556 Y100.687 E2.95565
G1 X168.046 Y103.042 E3.09551
G1 X169.626 Y106.18 E3.27183
G1 X170.224 Y107.648 E3.35138
G1 X171.11 Y110.329 E3.49309
G1 X171.906 Y113.933 E3.67832
G1 X172.205 Y116.351 E3.80059
G1 X172.321 Y118.94 E3.93065
G1 X172.321 Y176.512 E6.81995
G1 X172.037 Y180.186 E7.00488
G1 X171.821 Y181.583 E7.07582
G1 X171.31 Y183.907 E7.19524
G1 X170.254 Y187.274 E7.37233
G1 X168.938 Y190.372 E7.54125
G1 X167.153 Y193.428 E7.71886
G1 X166.043 Y195.022 E7.81634
G1 X163.762 Y197.821 E7.99755
G1 X161.514 Y199.993 E8.15442
G1 X160.037 Y201.242 E8.25149
G1 X158.769 Y202.193 E8.33103
G1 X156.661 Y203.262 E8.44965
G1 X155.095 Y203.558 E8.52963
G1 X128.924 Y205.482 E9.84659
G1 X126.571 Y205.257 E9.96522
G1 X125.092 Y204.671 E10.04506
G1 X123.905 Y204.027 E10.11283
G1 X121.508 Y202.508 E10.25525
G1 X119.952 Y201.354 E10.35247
G1 X117.803 Y199.501 E10.49488
G1 X116.671 Y198.381 E10.5748
G1 X114.367 Y195.71 E10.75183
G1 X113.425 Y194.426 E10.83175
G1 X111.907 Y192.029 E10.97414
G1 X110.32 Y188.878 E11.1512
G1 X109.191 Y185.902 E11.31094
G1 X108.434 Y183.167 E11.45336
G1 X108.115 Y181.607 E11.53327
G1 X107.83 Y179.691 E11.63048
G1 X107.613 Y176.516 E11.79019
G1 X107.613 Y118.484 E14.70258
G1 X107.83 Y115.309 E14.86229
G1 X108.434 Y111.833 E15.03935
G1 X109.299 Y108.77 E15.19908
G1 X109.843 Y107.274 E15.27897
G1 X110.993 Y104.68 E15.42137
G1 X112.548 Y101.902 E15.58114
G1 X114.366 Y99.29 E15.74085
G1 X114.639 Y98.975 E15.76177
G1 X114.639 Y98.975 F7800
G1 X114.886 Y99.19
G1 F1800
G1 X116.915 Y96.863 E15.91671
G1 X119.207 Y94.703 E16.07477
G1 X121.699 Y92.779 E16.23277
G1 X123.013 Y91.91 E16.31183
G1 X125.255 Y90.634 E16.44129
G1 X127.444 Y89.914 E16.55694
G1 X128.895 Y89.861 E16.62981
G1 X155.039 Y91.768 E17.94536
G1 X157.274 Y92.329 E18.06101
G1 X158.53 Y93.062 E18.13399
G1 X159.553 Y93.818 E18.19783
G1 X162.182 Y96.084 E18.37201
G1 X164.117 Y98.117 E18.51286
G1 X165.32 Y99.583 E18.60803
G1 X166.269 Y100.879 E18.68864
G1 X167.75 Y103.219 E18.82762
G1 X169.307 Y106.312 E19.0014
G1 X169.9 Y107.764 E19.08011
G1 X170.78 Y110.429 E19.22096
G1 X171.565 Y113.984 E19.40367
G1 X171.862 Y116.384 E19.52503
G1 X171.976 Y118.94 E19.65343
G1 X171.976 Y176.512 E22.54273
G1 X171.696 Y180.135 E22.7251
G1 X171.383 Y182.02 E22.821
G1 X170.868 Y184.254 E22.93606
G1 X169.928 Y187.16 E23.08934
G1 X168.623 Y190.232 E23.25685
G1 X166.859 Y193.248 E23.4322
G1 X165.682 Y194.927 E23.5351
G1 X163.517 Y197.577 E23.70683
G1 X161.29 Y199.731 E23.86232
G1 X159.818 Y200.975 E23.95904
G1 X158.564 Y201.916 E24.03772
G1 X156.504 Y202.949 E24.15337
G1 X155.069 Y203.214 E24.2266
G1 X128.899 Y205.138 E25.54351
G1 X126.606 Y204.909 E25.65916
G1 X125.255 Y204.366 E25.73223
G1 X124.083 Y203.731 E25.79913
G1 X121.699 Y202.222 E25.94073
G1 X120.17 Y201.088 E26.03627
G1 X118.034 Y199.245 E26.17785
G1 X116.915 Y198.137 E26.25688
G1 X114.644 Y195.505 E26.43134
G1 X113.712 Y194.235 E26.5104
G1 X112.202 Y191.851 E26.65202
G1 X110.772 Y189.046 E26.81003
G1 X109.521 Y185.802 E26.98452
G1 X109.071 Y184.293 E27.06355
G1 X108.453 Y181.54 E27.20515
G1 X108.174 Y179.657 E27.30068
G1 X107.958 Y176.516 E27.45869
G1 X107.958 Y118.484 E30.37108
G1 X108.214 Y115.017 E30.54555
G1 X108.453 Y113.46 E30.6246
G1 X109.071 Y110.708 E30.76615
G1 X110.044 Y107.712 E30.92424
G1 X111.305 Y104.827 E31.08225
G1 X112.843 Y102.079 E31.24029
G1 X114.846 Y99.237 E31.41478
G1 X114.846 Y99.237 F7800
G1 X115.112 Y99.455
G1 F1800
G1 X117.159 Y97.107 E31.57111
G1 X119.425 Y94.97 E31.72743
G1 X121.891 Y93.065 E31.88382
G1 X123.19 Y92.206 E31.96198
G1 X125.418 Y90.938 E32.09063
G1 X127.553 Y90.247 E32.20325
G1 X128.87 Y90.205 E32.26938
G1 X155.014 Y92.112 E33.58493
G1 X158.077 Y93.164 E33.74746
G1 X159.6 Y94.291 E33.84254
G1 X161.712 Y96.114 E33.98256
G1 X163.029 Y97.43 E34.076
G1 X164.065 Y98.585 E34.15387
G1 X165.782 Y100.784 E34.29389
G1 X167.608 Y103.667 E34.46516
G1 X168.862 Y106.159 E34.60517
G1 X169.463 Y107.589 E34.68302
G1 X170.533 Y110.829 E34.85426
G1 X171.224 Y114.034 E35.0188
G1 X171.519 Y116.418 E35.13936
G1 X171.631 Y118.94 E35.26605
G1 X171.631 Y176.512 E38.15535
G1 X171.355 Y180.084 E38.33515
G1 X171.044 Y181.952 E38.43019
G1 X170.533 Y184.171 E38.54447
G1 X169.602 Y187.047 E38.69618
G1 X168.308 Y190.091 E38.86218
G1 X167.253 Y191.939 E38.96897
G1 X165.913 Y194.033 E39.09373
G1 X163.684 Y196.88 E39.27519
G1 X161.938 Y198.672 E39.40075
G1 X159.6 Y200.709 E39.55637
G1 X158.077 Y201.836 E39.65145
G1 X155.014 Y202.888 E39.81398
G1 X128.87 Y204.795 E41.12953
G1 X126.638 Y204.559 E41.24217
G1 X125.418 Y204.062 E41.30828
G1 X124.26 Y203.435 E41.37437
G1 X121.891 Y201.935 E41.51509
G1 X120.389 Y200.821 E41.60894
G1 X118.266 Y198.99 E41.74964
G1 X117.159 Y197.893 E41.82785
G1 X114.921 Y195.299 E41.99979
G1 X113.999 Y194.043 E42.07798
G1 X112.498 Y191.674 E42.21873
G1 X110.958 Y188.614 E42.39065
G1 X109.851 Y185.702 E42.54699
G1 X109.103 Y182.999 E42.68774
G1 X108.791 Y181.473 E42.76591
G1 X108.517 Y179.624 E42.85972
G1 X108.303 Y176.516 E43.01607
G1 X108.303 Y118.484 E45.92846
G1 X108.555 Y115.068 E46.10036
G1 X108.798 Y113.495 E46.18024
G1 X109.406 Y110.791 E46.31933
G1 X110.368 Y107.829 E46.47562
G1 X111.617 Y104.975 E46.63197
G1 X113.139 Y102.257 E46.78831
G1 X115.078 Y99.505 E46.95726
G1 E44.95726 F2400
G92 E0
G1 X115.078 Y99.505 F7800
G1 X154.552 Y155.757
G1 E2 F2400
;TYPE:Support material interface
;WIDTH:0.35
G1 F1800
G1 X154.552 Y155.225 E2.02128
G1 X155.575 Y155.981 E2.07216
G1 X157.452 Y157.6 E2.17131
G1 X159.161 Y159.395 E2.27045
G1 X159.947 Y160.353 E2.32002
G1 X161.404 Y162.428 E2.42144
G1 E.42144 F2400
G92 E0
G1 X161.404 Y162.428 F7800
G1 X163.347 Y166.19
G1 E2 F2400
G1 F1800
G1 X162.597 Y164.536 E2.07264
G1 X161.888 Y163.235 E2.13191
G1 X154.552 Y155.9 E2.54687
G1 X154.552 Y157.718 E2.61959
G1 X163.576 Y166.742 E3.13006
G1 X164.448 Y169.432 E3.24317
G1 X154.552 Y159.536 E3.80297
G1 X154.552 Y161.354 E3.87569
G1 X164.948 Y171.75 E4.46378
G1 X165.205 Y173.825 E4.54741
G1 X154.552 Y163.172 E5.15003
G1 X154.552 Y164.991 E5.22279
G1 X165.286 Y175.724 E5.82997
G1 X165.238 Y177.494 E5.9008
G1 X154.552 Y166.809 E6.50526
G1 X154.552 Y168.627 E6.57798
G1 X165.079 Y179.153 E7.17345
G1 X164.822 Y180.714 E7.23673
G1 X154.552 Y170.445 E7.81766
G1 X154.552 Y172.263 E7.89038
G1 X164.487 Y182.198 E8.45239
G1 X164.081 Y183.61 E8.51116
G1 X154.552 Y174.081 E9.0502
G1 X154.552 Y175.899 E9.12292
G1 X163.611 Y184.958 E9.63537
G1 X163.078 Y186.244 E9.69105
G1 X154.552 Y177.718 E10.17335
G1 X154.552 Y179.536 E10.24607
G1 X162.517 Y187.5 E10.69661
G1 X161.835 Y188.637 E10.74964
G1 X154.552 Y181.354 E11.16163
G1 X154.552 Y183.172 E11.23435
G1 X161.147 Y189.766 E11.60739
G1 X160.393 Y190.831 E11.65959
G1 X154.552 Y184.99 E11.99001
G1 X154.552 Y186.808 E12.06273
G1 X159.599 Y191.855 E12.34823
G1 X158.78 Y192.854 E12.3999
G1 X154.552 Y188.626 E12.63907
G1 X154.552 Y190.445 E12.71183
G1 X157.872 Y193.764 E12.89961
G1 X156.939 Y194.649 E12.95105
G1 X154.552 Y192.263 E13.08605
G1 X154.552 Y194.081 E13.15877
G1 X155.959 Y195.488 E13.23836
G1 X154.933 Y196.28 E13.2902
G1 X154.552 Y195.899 E13.31175
G1 X154.552 Y196.56 E13.33819
G1 X154.818 Y196.365 E13.35138
G1 E11.35138 F2400
G92 E0
G1 X154.818 Y196.365 F7800
G1 X127.509 Y196.936
G1 E2 F2400
;TYPE:Perimeter
;WIDTH:0.42
G1 F1800
G1 X126.934 Y196.591 E2.03365
G1 X125.934 Y195.923 E2.094
G1 X124.968 Y195.207 E2.15434
G1 X124.038 Y194.444 E2.21471
G1 X123.147 Y193.636 E2.27507
G1 X122.297 Y192.786 E2.3354
G1 X121.489 Y191.895 E2.39576
G1 X120.726 Y190.966 E2.45609
G1 X120.01 Y190 E2.51643
G1 X119.342 Y189 E2.57678
G1 X118.723 Y187.968 E2.63717
G1 X118.157 Y186.908 E2.69748
G1 X117.642 Y185.821 E2.75784
G1 X117.182 Y184.71 E2.81819
G1 X116.777 Y183.578 E2.87853
G1 X116.428 Y182.427 E2.93889
G1 X116.136 Y181.26 E2.99926
G1 X115.901 Y180.081 E3.05959
G1 X115.725 Y178.891 E3.11996
G1 X115.607 Y177.695 E3.18027
G1 X115.548 Y176.494 E3.24062
G1 X115.549 Y175.257 E3.3027
G1 X115.607 Y174.09 E3.36134
G1 X115.725 Y172.893 E3.4217
G1 X115.901 Y171.704 E3.48202
G1 X116.136 Y170.524 E3.5424
G1 X116.428 Y169.358 E3.60272
G1 X116.787 Y168.178 E3.66462
G1 X117.182 Y167.075 E3.72342
G1 X117.642 Y165.964 E3.78377
G1 X118.156 Y164.877 E3.84411
G1 X118.723 Y163.816 E3.90448
G1 X119.342 Y162.785 E3.96483
G1 X120.01 Y161.785 E4.02518
G1 X120.726 Y160.819 E4.08552
G1 X121.489 Y159.89 E4.14585
G1 X122.297 Y158.999 E4.20621
G1 X123.147 Y158.148 E4.26657
G1 X124.038 Y157.341 E4.3269
G1 X124.968 Y156.578 E4.38727
G1 X125.934 Y155.862 E4.44761
G1 X126.934 Y155.194 E4.50796
G1 X127.509 Y154.849 E4.54161
G1 X127.509 Y196.876 E6.65077
G1 X127.509 Y196.876 F7800
G1 X127.853 Y197.541
G1 F1800
G1 X126.749 Y196.883 E6.71527
G1 X125.735 Y196.205 E6.77649
G1 X124.756 Y195.479 E6.83766
G1 X123.813 Y194.705 E6.89889
G1 X122.909 Y193.886 E6.96011
G1 X122.047 Y193.024 E7.02129
G1 X121.228 Y192.12 E7.08251
G1 X120.454 Y191.178 E7.1437
G1 X119.728 Y190.198 E7.20491
G1 X119.05 Y189.184 E7.26613
G1 X118.423 Y188.138 E7.32733
G1 X117.848 Y187.063 E7.38851
G1 X117.327 Y185.961 E7.44968
G1 X116.86 Y184.834 E7.5109
G1 X116.449 Y183.686 E7.57209
G1 X116.095 Y182.519 E7.63329
G1 X115.799 Y181.336 E7.69449
G1 X115.561 Y180.14 E7.75569
G1 X115.382 Y178.934 E7.81688
G1 X115.263 Y177.72 E7.8781
G1 X115.203 Y176.502 E7.9393
G1 X115.204 Y175.249 E8.00218
G1 X115.263 Y174.065 E8.06167
G1 X115.382 Y172.851 E8.12289
G1 X115.561 Y171.645 E8.18408
G1 X115.799 Y170.449 E8.24528
G1 X116.095 Y169.266 E8.30648
G1 X116.46 Y168.07 E8.36924
G1 X116.86 Y166.951 E8.42888
G1 X117.327 Y165.824 E8.4901
G1 X117.848 Y164.722 E8.55127
G1 X118.423 Y163.646 E8.6125
G1 X119.05 Y162.6 E8.6737
G1 X119.728 Y161.586 E8.73492
G1 X120.454 Y160.607 E8.79609
G1 X121.228 Y159.664 E8.85732
G1 X122.047 Y158.761 E8.9185
G1 X122.909 Y157.898 E8.97971
G1 X123.813 Y157.08 E9.04089
G1 X124.756 Y156.306 E9.10212
G1 X125.735 Y155.58 E9.16329
G1 X126.749 Y154.902 E9.22451
G1 X127.853 Y154.244 E9.28901
G1 X127.853 Y154.309 E9.29227
G1 X127.853 Y197.481 E11.45889
G1 X127.853 Y197.481 F7800
G1 X128.198 Y198.116
;TYPE:External perimeter
G1 F1800
G1 X127.625 Y197.81 E11.49149
G1 X126.565 Y197.174 E11.55353
G1 X125.537 Y196.487 E11.61558
G1 X124.543 Y195.751 E11.67765
G1 X123.588 Y194.966 E11.73969
G1 X122.671 Y194.136 E11.80176
G1 X121.797 Y193.262 E11.86379
G1 X120.967 Y192.346 E11.92583
G1 X120.182 Y191.39 E11.98791
G1 X119.446 Y190.397 E12.04994
G1 X118.759 Y189.369 E12.11199
G1 X118.123 Y188.308 E12.17407
G1 X117.54 Y187.218 E12.23611
G1 X117.012 Y186.1 E12.29816
G1 X116.538 Y184.958 E12.36021
G1 X116.122 Y183.794 E12.42224
G1 X115.763 Y182.611 E12.48428
G1 X115.462 Y181.412 E12.54632
G1 X115.221 Y180.199 E12.60839
G1 X115.04 Y178.976 E12.67044
G1 X114.919 Y177.745 E12.73252
G1 X114.858 Y176.511 E12.79452
G1 X114.86 Y175.24 E12.85831
G1 X114.919 Y174.039 E12.91866
G1 X115.04 Y172.809 E12.98069
G1 X115.221 Y171.586 E13.04274
G1 X115.462 Y170.373 E13.10481
G1 X115.763 Y169.174 E13.16685
G1 X116.132 Y167.962 E13.23043
G1 X116.538 Y166.827 E13.29093
G1 X117.011 Y165.684 E13.35301
G1 X117.54 Y164.567 E13.41504
G1 X118.123 Y163.476 E13.47712
G1 X118.759 Y162.416 E13.53916
G1 X119.446 Y161.388 E13.60121
G1 X120.182 Y160.395 E13.66324
G1 X120.967 Y159.439 E13.72532
G1 X121.797 Y158.523 E13.78736
G1 X122.671 Y157.649 E13.84939
G1 X123.587 Y156.818 E13.91146
G1 X124.543 Y156.034 E13.97351
G1 X125.536 Y155.297 E14.03557
G1 X126.565 Y154.611 E14.09764
G1 X127.625 Y153.975 E14.15968
G1 X128.198 Y153.669 E14.19228
G1 X128.198 Y154.309 E14.2244
G1 X128.198 Y198.056 E16.41988
G1 X127.823 Y197.919 F7800
G1 E14.41988 F2400
G92 E0
G1 X126.974 Y155.291 F7800
G1 E2 F2400
;TYPE:Solid infill
;WIDTH:0.422881
G1 F1800
G1 X127.25 Y155.567 E2.01975
G1 X127.25 Y156.058 E2.0446
G1 X126.791 Y155.6 E2.07741
G1 X126.496 Y155.797 E2.09536
G1 X127.25 Y156.55 E2.14929
G1 X127.25 Y157.042 E2.17419
G1 X126.202 Y155.994 E2.24919
G1 X125.914 Y156.198 E2.26705
G1 X127.25 Y157.534 E2.36266
G1 X127.25 Y158.026 E2.38756
G1 X125.632 Y156.408 E2.50335
G1 X125.349 Y156.617 E2.52115
G1 X127.25 Y158.517 E2.65716
G1 X127.25 Y159.009 E2.68206
G1 X125.07 Y156.829 E2.83807
G1 X124.8 Y157.051 E2.85576
G1 X127.25 Y159.501 E3.0311
G1 X127.25 Y159.993 E3.056
G1 X124.529 Y157.272 E3.25073
G1 X124.259 Y157.494 E3.26842
G1 X127.25 Y160.485 E3.48248
G1 X127.25 Y160.977 E3.50738
G1 X123.999 Y157.726 E3.74004
G1 X123.741 Y157.959 E3.75763
G1 X127.25 Y161.468 E4.00876
G1 X127.25 Y161.96 E4.03366
G1 X123.483 Y158.193 E4.30325
G1 X123.23 Y158.432 E4.32086
G1 X127.25 Y162.452 E4.60856
G1 X127.25 Y162.944 E4.63346
G1 X122.984 Y158.678 E4.93876
G1 X122.738 Y158.924 E4.95637
G1 X127.25 Y163.436 E5.27928
G1 X127.25 Y163.927 E5.30413
G1 X122.492 Y159.169 E5.64464
G1 X122.258 Y159.427 E5.66227
G1 X127.25 Y164.419 E6.01953
G1 X127.25 Y164.911 E6.04443
G1 X122.024 Y159.685 E6.41844
G1 X121.79 Y159.943 E6.43607
G1 X127.25 Y165.403 E6.82682
G1 X127.25 Y165.895 E6.85172
G1 X121.563 Y160.208 E7.25872
G1 X121.341 Y160.478 E7.27641
G1 X127.25 Y166.387 E7.6993
G1 X127.25 Y166.878 E7.72415
G1 X121.119 Y160.748 E8.16289
G1 X120.899 Y161.02 E8.18059
G1 X127.25 Y167.37 E8.63507
G1 X127.25 Y167.862 E8.65997
G1 X120.69 Y161.302 E9.12945
G1 X120.481 Y161.585 E9.14725
G1 X127.25 Y168.354 E9.63168
G1 X127.25 Y168.846 E9.65658
G1 X120.271 Y161.867 E10.15604
G1 X120.071 Y162.159 E10.17395
G1 X127.25 Y169.338 E10.68773
G1 X127.25 Y169.829 E10.71258
G1 X119.874 Y162.454 E11.24042
G1 X119.677 Y162.748 E11.25833
G1 X127.25 Y170.321 E11.8003
G1 X127.25 Y170.813 E11.8252
G1 X119.485 Y163.048 E12.38091
G1 X119.301 Y163.356 E12.39907
G1 X127.25 Y171.305 E12.96795
G1 X127.25 Y171.797 E12.99285
G1 X119.117 Y163.663 E13.57494
G1 X118.934 Y163.972 E13.59311
G1 X127.25 Y172.288 E14.18826
G1 X127.25 Y172.78 E14.21316
G1 X118.762 Y164.293 E14.82058
G1 X118.591 Y164.613 E14.83894
G1 X127.25 Y173.272 E15.45863
G1 X127.25 Y173.764 E15.48353
G1 X118.42 Y164.934 E16.11546
G1 X118.259 Y165.265 E16.13409
G1 X127.25 Y174.256 E16.77754
G1 X127.25 Y174.748 E16.80244
G1 X118.101 Y165.599 E17.4572
G1 X117.943 Y165.933 E17.4759
G1 X127.25 Y175.239 E18.14193
G1 X127.25 Y175.731 E18.16683
