; generated by PrusaSlicer 2.7.2+win64 on 2024-03-31 at 02:58:42 UTC

; 

; external perimeters extrusion width = 0.45mm
; perimeters extrusion width = 0.45mm
; infill extrusion width = 0.45mm
; solid infill extrusion width = 0.45mm
; top infill extrusion width = 0.40mm
; support material extrusion width = 0.35mm
; first layer extrusion width = 0.42mm

; external perimeters extrusion width = 0.45mm
; perimeters extrusion width = 0.45mm
; infill extrusion width = 0.45mm
; solid infill extrusion width = 0.45mm
; top infill extrusion width = 0.40mm
; support material extrusion width = 0.35mm
; first layer extrusion width = 0.42mm

;TYPE:Custom
M107
M191 S50     ; set chamber temperature and wait for it to be reached
;M109 S120   ; set temp and wait for it to be reached
M104 S150    ; Start heating the extruder.
M140 S70 ; heat bed
M190 S70 ; wait for the bed to heat up
G28          ; home all axes

G29 ; Z-Probe the bed (requires Z-Probe!) - auto bed level

M109 S215 ; Heat up the extruder

G1 Y288 Z0.3 F9000  ; move forward off front of bed
G1 X10 Z10          ; move left to clear heater
G1 Z0.4 F300        ; position nozzle 
G92 E0              ; zero extruder
G1 E25 F225         ; purge nozzle
G92 E0              ; zero extruder

G1 Y265 Z0.2 E1.0 F600 ; slow wipe
G1 Y260 Z0.25          ; lift
G92 E0 
G1 E-1.0
G21 ; set units to millimeters
G90 ; use absolute coordinates
M82 ; use absolute distances for extrusion
G92 E0
; Filament gcode
M107
;LAYER_CHANGE
;Z:0.35
;HEIGHT:0.35
G1 E-2 F2400
G1 Z.35 F7800
G1 X93.436 Y120.777
G1 E0 F2400
;TYPE:Skirt/Brim
;WIDTH:0.42
G1 F1800
G1 X96.157 Y119.125 E.15975
G1 X99.346 Y117.615 E.33683
G1 X102.349 Y116.558 E.4966
G1 X103.886 Y116.141 E.57652
G1 X106.669 Y115.587 E.71893
G1 X109.836 Y115.258 E.87872
G1 X168.573 Y115.21 E3.82649
G1 X171.408 Y115.35 E3.96894
G1 X173.331 Y115.587 E4.06618
G1 X176.114 Y116.141 E4.20859
G1 X177.982 Y116.658 E4.30586
G1 X180.654 Y117.615 E4.4483
G1 X182.425 Y118.401 E4.54554
G1 X184.928 Y119.74 E4.688
G1 X186.603 Y120.805 E4.78761
G1 X187.759 Y121.826 E4.86501
G1 X195.555 Y130.413 E5.44707
G1 X196.468 Y131.676 E5.52528
G1 X197.517 Y133.67 E5.63835
G1 X198.861 Y136.917 E5.81471
G1 X199.609 Y139.392 E5.94447
G1 X200.205 Y142.082 E6.08274
G1 X200.509 Y144.036 E6.18198
G1 X200.682 Y147.123 E6.33715
G1 X200.642 Y149.384 E6.45064
G1 X200.352 Y152.517 E6.60854
G1 X199.76 Y155.305 E6.75158
G1 X199.162 Y157.424 E6.86208
G1 X198.167 Y160.124 E7.00649
G1 X196.96 Y162.679 E7.1483
G1 X195.345 Y165.407 E7.3074
G1 X193.581 Y167.823 E7.45753
G1 X192.444 Y169.156 E7.54546
G1 X189.914 Y171.595 E7.72182
G1 X187.736 Y173.383 E7.86324
G1 X186.16 Y174.494 E7.96001
G1 X183.744 Y175.943 E8.10139
G1 X180.6 Y177.433 E8.276
G1 X177.91 Y178.385 E8.4192
G1 X176.398 Y178.812 E8.49805
G1 X172.959 Y179.497 E8.67403
G1 X169.809 Y179.791 E8.8328
G1 X111.6 Y179.823 E11.75407
G1 X109.846 Y179.774 E11.84213
G1 X106.962 Y179.487 E11.98758
G1 X103.602 Y178.812 E12.15957
G1 X102.09 Y178.385 E12.23842
G1 X99.431 Y177.446 E12.37994
G1 X96.561 Y176.106 E12.5389
G1 X93.552 Y174.302 E12.71497
G1 X91.023 Y172.403 E12.87369
G1 X89.075 Y170.711 E13.00318
G1 X87.619 Y169.229 E13.10744
G1 X85.56 Y166.708 E13.27079
G1 X84.655 Y165.407 E13.35033
G1 X83.203 Y162.983 E13.49214
G1 X81.481 Y159.232 E13.69928
G1 X80.75 Y157.157 E13.80969
G1 X80.273 Y155.409 E13.90062
G1 X79.791 Y153.109 E14.01856
G1 X79.483 Y150.952 E14.12791
G1 X79.31 Y147.799 E14.28638
G1 X79.406 Y145.245 E14.41465
G1 X79.754 Y142.082 E14.57435
G1 X80.65 Y138.426 E14.76326
G1 X81.494 Y135.973 E14.89345
G1 X82.262 Y134.158 E14.99236
G1 X83.532 Y131.676 E15.13228
G1 X84.445 Y130.413 E15.21049
G1 X92.241 Y121.826 E15.79255
G1 X93.391 Y120.817 E15.86933
G1 X93.391 Y120.817 F7800
G1 X93.617 Y121.074
G1 F1800
G1 X93.634 Y121.059 E15.87047
G1 X96.327 Y119.425 E16.02855
G1 X99.167 Y118.063 E16.18662
G1 X102.441 Y116.89 E16.36116
G1 X103.961 Y116.478 E16.4402
G1 X106.728 Y115.927 E16.58179
G1 X109.861 Y115.602 E16.73987
G1 X168.564 Y115.555 E19.68593
G1 X171.382 Y115.694 E19.82753
G1 X173.272 Y115.927 E19.9231
G1 X176.039 Y116.478 E20.06469
G1 X177.873 Y116.986 E20.1602
G1 X180.53 Y117.937 E20.30183
G1 X182.27 Y118.709 E20.39736
G1 X184.758 Y120.04 E20.53897
G1 X186.405 Y121.087 E20.63691
G1 X187.503 Y122.058 E20.71047
G1 X195.299 Y130.645 E21.29253
G1 X196.168 Y131.846 E21.36693
G1 X197.209 Y133.825 E21.47915
G1 X198.533 Y137.025 E21.65295
G1 X199.272 Y139.468 E21.78104
G1 X199.866 Y142.141 E21.91846
G1 X200.165 Y144.061 E22.01598
G1 X200.337 Y147.131 E22.17029
G1 X200.299 Y149.358 E22.28207
G1 X200.014 Y152.448 E22.4378
G1 X199.423 Y155.231 E22.58058
G1 X198.834 Y157.315 E22.68926
G1 X197.852 Y159.984 E22.83198
G1 X196.651 Y162.524 E22.97298
G1 X195.054 Y165.223 E23.13037
G1 X193.309 Y167.611 E23.2788
G1 X192.186 Y168.926 E23.36558
G1 X189.688 Y171.333 E23.53967
G1 X187.524 Y173.112 E23.68026
G1 X185.976 Y174.202 E23.77527
G1 X183.574 Y175.643 E23.91585
G1 X180.475 Y177.111 E24.08794
G1 X177.802 Y178.058 E24.23026
G1 X176.306 Y178.48 E24.30827
G1 X172.916 Y179.155 E24.48174
G1 X169.8 Y179.446 E24.6388
G1 X111.6 Y179.478 E27.55962
G1 X109.871 Y179.43 E27.64642
G1 X107.005 Y179.145 E27.79096
G1 X103.694 Y178.48 E27.96044
G1 X102.197 Y178.058 E28.0385
G1 X99.555 Y177.124 E28.17913
G1 X96.716 Y175.798 E28.33638
G1 X93.751 Y174.02 E28.50988
G1 X91.248 Y172.142 E28.66692
G1 X89.313 Y170.461 E28.79556
G1 X87.877 Y169 E28.89837
G1 X85.842 Y166.51 E29.05976
G1 X84.946 Y165.223 E29.13846
G1 X83.503 Y162.813 E29.27943
G1 X81.802 Y159.106 E29.48412
G1 X81.078 Y157.049 E29.59356
G1 X80.61 Y155.339 E29.68253
G1 X80.128 Y153.038 E29.80051
G1 X79.825 Y150.91 E29.90838
G1 X79.655 Y147.79 E30.06519
G1 X79.749 Y145.28 E30.19124
G1 X80.097 Y142.124 E30.35059
G1 X80.982 Y138.518 E30.53693
G1 X81.816 Y136.097 E30.66544
G1 X82.572 Y134.308 E30.76291
G1 X83.832 Y131.846 E30.90171
G1 X84.701 Y130.645 E30.97611
G1 X92.497 Y122.058 E31.55817
G1 X93.572 Y121.114 E31.62997
G1 X93.572 Y121.114 F7800
G1 X93.798 Y121.372
G1 F1800
G1 X93.833 Y121.341 E31.63232
G1 X96.497 Y119.725 E31.78869
G1 X99.595 Y118.259 E31.96069
G1 X102.533 Y117.223 E32.11703
G1 X104.037 Y116.814 E32.19525
G1 X106.787 Y116.267 E32.33596
G1 X109.887 Y115.946 E32.49237
G1 X168.556 Y115.9 E35.43673
G1 X171.357 Y116.038 E35.57747
G1 X173.213 Y116.267 E35.67132
G1 X175.963 Y116.814 E35.81203
G1 X177.765 Y117.313 E35.90587
G1 X180.405 Y118.259 E36.04661
G1 X182.114 Y119.017 E36.14044
G1 X184.588 Y120.34 E36.28124
G1 X186.206 Y121.369 E36.37747
G1 X187.248 Y122.29 E36.44726
G1 X195.044 Y130.877 E37.02932
G1 X195.868 Y132.016 E37.09987
G1 X196.901 Y133.98 E37.21124
G1 X198.206 Y137.134 E37.38254
G1 X198.936 Y139.544 E37.50891
G1 X199.526 Y142.2 E37.64545
G1 X199.821 Y144.086 E37.74125
G1 X199.992 Y147.14 E37.89476
G1 X199.955 Y149.333 E38.00483
G1 X199.676 Y152.379 E38.15834
G1 X199.086 Y155.158 E38.30092
G1 X198.507 Y157.207 E38.40778
G1 X197.536 Y159.844 E38.54881
G1 X196.197 Y162.643 E38.70453
G1 X194.762 Y165.038 E38.84465
G1 X193.037 Y167.399 E38.9914
G1 X191.929 Y168.697 E39.07705
G1 X189.463 Y171.072 E39.24887
G1 X187.311 Y172.84 E39.38864
G1 X185.791 Y173.911 E39.48196
G1 X183.404 Y175.343 E39.62166
G1 X180.35 Y176.79 E39.79126
G1 X177.694 Y177.73 E39.93266
G1 X176.214 Y178.148 E40.00984
G1 X172.874 Y178.813 E40.18075
G1 X169.792 Y179.101 E40.3361
G1 X111.6 Y179.133 E43.25652
G1 X109.897 Y179.086 E43.34202
G1 X107.048 Y178.803 E43.4857
G1 X103.786 Y178.148 E43.65267
G1 X102.305 Y177.73 E43.7299
G1 X99.679 Y176.802 E43.86968
G1 X96.871 Y175.49 E44.02523
G1 X93.95 Y173.738 E44.19617
G1 X91.473 Y171.881 E44.35154
G1 X89.551 Y170.211 E44.47932
G1 X88.135 Y168.772 E44.58064
G1 X86.124 Y166.312 E44.7401
G1 X85.238 Y165.038 E44.81798
G1 X83.803 Y162.643 E44.9581
G1 X82.122 Y158.979 E45.16041
G1 X81.405 Y156.941 E45.26883
G1 X80.948 Y155.268 E45.35587
G1 X80.466 Y152.968 E45.47381
G1 X80.167 Y150.868 E45.58026
G1 X80 Y147.782 E45.73536
G1 X80.092 Y145.314 E45.8593
G1 X80.439 Y142.166 E46.01824
G1 X81.315 Y138.61 E46.20204
G1 X82.138 Y136.221 E46.32885
G1 X82.883 Y134.458 E46.4249
G1 X84.132 Y132.016 E46.56255
G1 X84.956 Y130.877 E46.6331
G1 X92.752 Y122.29 E47.21516
G1 X93.753 Y121.411 E47.28202
G1 E45.28202 F2400
G92 E0
G1 X93.753 Y121.411 F7800
G1 X128.446 Y165.561
G1 E2 F2400
;TYPE:Support material
G1 F1800
G1 X129.26 Y165.561 E2.04085
G1 X127.58 Y167.078 E2.15445
G1 X125.595 Y168.552 E2.27853
G1 X123.474 Y169.824 E2.40265
G1 X121.24 Y170.882 E2.5267
G1 X118.912 Y171.703 E2.65059
G1 X116.514 Y172.304 E2.77466
G1 X114.069 Y172.667 E2.89871
G1 X111.6 Y172.788 E3.02277
G1 X109.131 Y172.667 E3.14683
G1 X106.686 Y172.304 E3.27088
G1 X104.288 Y171.703 E3.39495
G1 X101.963 Y170.883 E3.51868
G1 X99.726 Y169.824 E3.64289
G1 X97.605 Y168.552 E3.76701
G1 X95.62 Y167.078 E3.89109
G1 X93.887 Y165.561 E4.00668
G1 X128.394 Y165.561 E5.73845
G1 X128.394 Y165.561 F7800
G1 X127.12 Y167.241
G1 F1800
G1 X127.12 Y165.872 E5.80715
G1 X125.396 Y165.872 E5.89367
G1 X125.396 Y168.311 E6.01607
G1 X123.671 Y169.355 E6.11726
G1 X123.671 Y165.872 E6.29206
G1 X121.947 Y165.872 E6.37858
G1 X121.947 Y170.228 E6.59719
G1 X120.222 Y170.942 E6.69088
G1 X120.222 Y165.872 E6.94532
G1 X118.498 Y165.872 E7.03184
G1 X118.498 Y171.496 E7.31409
G1 X116.773 Y171.928 E7.40333
G1 X116.773 Y165.872 E7.70726
G1 X115.049 Y165.872 E7.79378
G1 X115.049 Y172.233 E8.11301
G1 X113.324 Y172.411 E8.20004
G1 X113.324 Y165.872 E8.52821
G1 X111.6 Y165.872 E8.61473
G1 X111.6 Y172.478 E8.94626
G1 X110.379 Y172.448 E9.00756
G1 X109.876 Y172.411 E9.03287
G1 X109.876 Y165.872 E9.36104
G1 X108.151 Y165.872 E9.44761
G1 X108.151 Y172.233 E9.76684
G1 X106.427 Y171.928 E9.8547
G1 X106.427 Y165.872 E10.15863
G1 X104.702 Y165.872 E10.2452
G1 X104.702 Y171.496 E10.52745
G1 X102.978 Y170.942 E10.61833
G1 X102.978 Y165.872 E10.87277
G1 X101.253 Y165.872 E10.95934
G1 X101.253 Y170.228 E11.17795
G1 X99.529 Y169.355 E11.27493
G1 X99.529 Y165.872 E11.44973
G1 X97.804 Y165.872 E11.5363
G1 X97.804 Y168.311 E11.6587
G1 X96.08 Y167.044 E11.76607
G1 X96.08 Y165.716 E11.83272
G1 X96.08 Y165.716 F7800
G1 X94.621 Y165.208
;TYPE:Support material interface
;WIDTH:0.35
G1 F1800
G1 X93.497 Y165.208 E11.87768
G1 X92.076 Y163.638 E11.96238
G1 X91.313 Y162.66 E12.012
G1 X90.12 Y160.887 E12.09748
G1 X90.12 Y160.887 F7800
G1 X89.311 Y159.489
G1 F1800
G1 X89.654 Y160.098 E12.12544
G1 X94.764 Y165.208 E12.41451
G1 X96.582 Y165.208 E12.48723
G1 X88.025 Y156.651 E12.97129
G1 X87.158 Y153.966 E13.08415
G1 X98.4 Y165.208 E13.72009
G1 X100.218 Y165.208 E13.79281
G1 X86.676 Y151.666 E14.55886
G1 X86.428 Y149.6 E14.64209
G1 X102.036 Y165.208 E15.52501
G1 X103.854 Y165.208 E15.59773
G1 X86.345 Y147.698 E16.58822
G1 X86.406 Y145.942 E16.6585
G1 X105.672 Y165.208 E17.74835
G1 X107.491 Y165.208 E17.82111
G1 X86.57 Y144.288 E19.00455
G1 X86.818 Y142.717 E19.06817
G1 X109.309 Y165.208 E20.34045
G1 X111.127 Y165.208 E20.41317
G1 X87.168 Y141.249 E21.7685
G1 X87.581 Y139.844 E21.82708
G1 X112.945 Y165.208 E23.26188
G1 X114.763 Y165.208 E23.3346
G1 X88.058 Y138.503 E24.84526
G1 X88.595 Y137.222 E24.90082
G1 X116.581 Y165.208 E26.48395
G1 X118.399 Y165.208 E26.55667
G1 X108.217 Y155.026 E27.13265
G1 X107.054 Y154.376 E27.18594
G1 X105.86 Y153.395 E27.24775
G1 X104.844 Y152.164 E27.3116
G1 X104.197 Y151.006 E27.36466
G1 X89.187 Y135.996 E28.21375
G1 X89.654 Y135.141 E28.25272
G1 X90.008 Y135.141 E28.26688
G1 E26.26688 F2400
G92 E0
G1 X90.008 Y135.141 F7800
G1 X110.007 Y135.141
G1 E2 F2400
G1 F1800
G1 X108.332 Y135.141 E2.067
G1 X112.763 Y139.572 E2.31766
G1 X111.973 Y139.497 E2.3494
G1 X110.893 Y139.521 E2.39261
G1 X106.514 Y135.141 E2.64035
G1 X104.696 Y135.141 E2.71307
G1 X109.359 Y139.805 E2.97688
G1 X108.044 Y140.308 E3.0332
G1 X102.878 Y135.141 E3.32546
G1 X101.06 Y135.141 E3.39818
G1 X106.902 Y140.984 E3.72868
G1 X105.91 Y141.81 E3.78031
G1 X99.241 Y135.141 E4.15757
G1 X97.423 Y135.141 E4.23029
G1 X105.057 Y142.775 E4.66213
G1 X104.361 Y143.897 E4.71494
G1 X95.605 Y135.141 E5.21025
G1 X93.787 Y135.141 E5.28297
G1 X103.831 Y145.186 E5.85117
G1 X103.513 Y146.686 E5.9125
G1 X91.969 Y135.141 E6.56556
G1 X90.151 Y135.141 E6.63828
G1 X103.504 Y148.495 E7.39367
G1 X103.697 Y149.579 E7.43771
G1 X103.969 Y150.455 E7.4744
G1 E5.4744 F2400
G92 E0
G1 X103.969 Y150.455 F7800
G1 X108.768 Y155.254
G1 E2 F2400
G1 F1800
G1 X109.647 Y155.526 E2.0368
G1 X110.725 Y155.716 E2.08058
G1 X120.218 Y165.208 E2.61756
G1 X122.036 Y165.208 E2.69028
G1 X112.536 Y155.708 E3.22768
G1 X114.035 Y155.39 E3.28897
G1 X123.854 Y165.208 E3.84439
G1 X125.672 Y165.208 E3.91711
G1 X115.324 Y154.86 E4.50248
G1 X116.446 Y154.164 E4.55529
G1 X127.49 Y165.208 E5.18003
G1 X129.308 Y165.208 E5.25275
G1 X117.416 Y153.316 E5.92546
G1 X118.243 Y152.325 E5.97709
G1 X130.393 Y164.475 E6.6644
G1 X131.234 Y163.498 E6.71596
G1 X118.919 Y151.183 E7.4126
G1 X119.424 Y149.869 E7.46891
G1 X132.022 Y162.468 E8.18159
G1 X132.762 Y161.39 E8.23389
G1 X119.711 Y148.338 E8.97219
G1 X119.735 Y147.253 E9.0156
G1 X119.66 Y146.47 E9.04706
G1 X133.453 Y160.263 E9.82731
G1 X134.093 Y159.084 E9.88097
G1 X118.768 Y143.759 E10.74788
G1 X118.156 Y142.793 E10.79362
G1 X117.464 Y141.975 E10.83648
G1 X116.472 Y141.108 E10.88918
G1 X115.486 Y140.477 E10.936
G1 X110.15 Y135.141 E11.23785
G1 X111.968 Y135.141 E11.31057
G1 X134.679 Y157.852 E12.5953
G1 X135.212 Y156.567 E12.65095
G1 X113.787 Y135.141 E13.86296
G1 X115.605 Y135.141 E13.93568
G1 X135.682 Y155.218 E15.07141
G1 X136.087 Y153.805 E15.13021
G1 X117.423 Y135.141 E16.18601
G1 X119.241 Y135.141 E16.25873
G1 X136.412 Y152.313 E17.2301
G1 X136.686 Y150.768 E17.29286
G1 X121.059 Y135.141 E18.17686
G1 X122.877 Y135.141 E18.24958
G1 X136.811 Y149.076 E19.03783
G1 X136.849 Y147.295 E19.10909
G1 X124.695 Y135.141 E19.79662
G1 X126.514 Y135.141 E19.86938
G1 X136.754 Y145.382 E20.44867
G1 X136.693 Y144.546 E20.4822
G1 X136.474 Y143.284 E20.53343
G1 X128.332 Y135.141 E20.99404
G1 X130.15 Y135.141 E21.06676
G1 X135.946 Y140.937 E21.39463
G1 X135.025 Y138.198 E21.51022
G1 X131.968 Y135.141 E21.68315
G1 X133.546 Y135.141 E21.74627
G1 X134.792 Y137.642 E21.85804
G1 E19.85804 F2400
G92 E0
G1 X134.792 Y137.642 F7800
G1 X122.388 Y125.655
G1 E2 F2400
;TYPE:Perimeter
;WIDTH:0.42
G1 F1800
G1 X100.812 Y125.655 E3.08281
G1 X101.125 Y125.497 E3.10041
G1 X102.225 Y125.009 E3.1608
G1 X103.346 Y124.576 E3.22111
G1 X104.488 Y124.199 E3.28146
G1 X105.647 Y123.878 E3.34182
G1 X106.82 Y123.614 E3.40216
G1 X108.005 Y123.408 E3.46252
G1 X109.199 Y123.261 E3.52289
G1 X110.397 Y123.172 E3.58318
G1 X111.634 Y123.144 E3.64528
G1 X112.802 Y123.172 E3.70391
G1 X114.001 Y123.261 E3.76425
G1 X115.195 Y123.408 E3.82462
G1 X116.38 Y123.614 E3.88498
G1 X117.553 Y123.878 E3.94532
G1 X118.712 Y124.199 E4.00568
G1 X119.854 Y124.576 E4.06603
G1 X120.976 Y125.009 E4.12639
G1 X122.073 Y125.496 E4.18663
G1 X122.334 Y125.628 E4.20131
G1 X122.334 Y125.628 F7800
G1 X123.78 Y126
G1 F1800
G1 X99.42 Y126 E5.42384
G1 X99.888 Y125.734 E5.45086
G1 X100.978 Y125.185 E5.51211
G1 X102.092 Y124.691 E5.57327
G1 X103.23 Y124.251 E5.6345
G1 X104.388 Y123.869 E5.6957
G1 X105.563 Y123.543 E5.7569
G1 X106.753 Y123.276 E5.81811
G1 X107.955 Y123.067 E5.87934
G1 X109.165 Y122.918 E5.94052
G1 X110.381 Y122.828 E6.00171
G1 X111.634 Y122.799 E6.06461
G1 X112.819 Y122.828 E6.1241
G1 X114.035 Y122.918 E6.18529
G1 X115.245 Y123.067 E6.24647
G1 X116.447 Y123.276 E6.3077
G1 X117.637 Y123.543 E6.36891
G1 X118.812 Y123.869 E6.43011
G1 X119.97 Y124.251 E6.49131
G1 X121.108 Y124.691 E6.55254
G1 X122.222 Y125.185 E6.6137
G1 X123.312 Y125.734 E6.67495
G1 X123.728 Y125.97 E6.69895
G1 X125.029 Y126.344 F7800
;TYPE:External perimeter
G1 F1800
G1 X98.171 Y126.344 E8.04684
G1 X98.65 Y126.04 E8.07531
G1 X99.726 Y125.43 E8.13738
G1 X100.83 Y124.873 E8.19944
G1 X101.96 Y124.372 E8.26147
G1 X103.114 Y123.927 E8.32354
G1 X104.288 Y123.538 E8.38561
G1 X105.479 Y123.208 E8.44763
G1 X106.686 Y122.937 E8.50971
G1 X107.904 Y122.726 E8.57175
G1 X109.131 Y122.574 E8.6338
G1 X110.364 Y122.483 E8.69585
G1 X111.634 Y122.454 E8.7596
G1 X112.836 Y122.483 E8.81994
G1 X114.069 Y122.574 E8.88199
