; generated by PrusaSlicer 2.7.2+win64 on 2024-04-01 at 21:51:22 UTC

; 

; external perimeters extrusion width = 0.45mm
; perimeters extrusion width = 0.45mm
; infill extrusion width = 0.45mm
; solid infill extrusion width = 0.45mm
; top infill extrusion width = 0.40mm
; support material extrusion width = 0.35mm
; first layer extrusion width = 0.42mm

;TYPE:Custom
M107
M191 S50     ; set chamber temperature and wait for it to be reached
;M109 S120   ; set temp and wait for it to be reached
M104 S150    ; Start heating the extruder.
M140 S70 ; heat bed
M190 S70 ; wait for the bed to heat up
G28          ; home all axes

G29 ; Z-Probe the bed (requires Z-Probe!) - auto bed level

M109 S215 ; Heat up the extruder

G1 Y288 Z0.3 F9000  ; move forward off front of bed
G1 X10 Z10          ; move left to clear heater
G1 Z0.4 F300        ; position nozzle 
G92 E0              ; zero extruder
G1 E25 F225         ; purge nozzle
G92 E0              ; zero extruder

G1 Y265 Z0.2 E1.0 F600 ; slow wipe
G1 Y260 Z0.25          ; lift
G92 E0 
G1 E-1.0
G21 ; set units to millimeters
G90 ; use absolute coordinates
M82 ; use absolute distances for extrusion
G92 E0
; Filament gcode
M107
;LAYER_CHANGE
;Z:0.35
;HEIGHT:0.35
G1 E-2 F2400
G1 Z.35 F7800
G1 X120.365 Y124.985
G1 E0 F2400
;TYPE:Skirt/Brim
;WIDTH:0.42
G1 F1800
G1 X122.123 Y123.733 E.10831
G1 X124.862 Y122.11 E.26809
G1 X127.428 Y120.896 E.41055
G1 X130.419 Y119.807 E.5703
G1 X133.503 Y119.017 E.73007
G1 X135.411 Y118.685 E.82726
G1 X138.236 Y118.407 E.96972
G1 X141.419 Y118.39 E1.12946
G1 X144.589 Y118.685 E1.28924
G1 X146.497 Y119.017 E1.38643
G1 X149.25 Y119.707 E1.52887
G1 X152.253 Y120.764 E1.68864
G1 X155.138 Y122.11 E1.84841
G1 X157.877 Y123.733 E2.00819
G1 X159.635 Y124.985 E2.1165
G1 X160.871 Y126.227 E2.20444
G1 X168.696 Y136.351 E2.8466
G1 X169.644 Y137.988 E2.94154
G1 X170.345 Y139.741 E3.03629
G1 X170.95 Y141.574 E3.13316
G1 X171.808 Y145.26 E3.32309
G1 X172.17 Y148.04 E3.46378
G1 X172.29 Y150.603 E3.59255
G1 X172.259 Y152.188 E3.67211
G1 X171.966 Y155.344 E3.83118
G1 X171.355 Y158.483 E3.99167
G1 X170.717 Y160.704 E4.10764
G1 X169.898 Y162.967 E4.22842
G1 X169.426 Y164.048 E4.28762
G1 X167.97 Y166.898 E4.44823
G1 X166.168 Y169.685 E4.61479
G1 X164.114 Y172.236 E4.77916
G1 X161.827 Y174.561 E4.94283
G1 X159.375 Y176.598 E5.10281
G1 X156.507 Y178.56 E5.2772
G1 X153.651 Y180.031 E5.43843
G1 X150.462 Y181.336 E5.61135
G1 X147.9 Y182.072 E5.74513
G1 X146.131 Y182.462 E5.83604
G1 X144.162 Y182.775 E5.9361
G1 X141.875 Y182.987 E6.05137
G1 X138.588 Y183.019 E6.21634
G1 X135.061 Y182.66 E6.39426
G1 X132.84 Y182.283 E6.50732
G1 X131.856 Y182.038 E6.55821
G1 X128.744 Y181.019 E6.72255
G1 X126.349 Y180.031 E6.85257
G1 X123.521 Y178.536 E7.01311
G1 X120.902 Y176.804 E7.17069
G1 X118.442 Y174.806 E7.32974
G1 X116.189 Y172.576 E7.48883
G1 X113.961 Y169.869 E7.66478
G1 X112.074 Y166.966 E7.83854
G1 X110.736 Y164.42 E7.98288
G1 X109.655 Y161.809 E8.1247
G1 X108.788 Y159.036 E8.27051
G1 X108.024 Y155.333 E8.46026
G1 X107.801 Y153.087 E8.57353
G1 X107.71 Y150.948 E8.68097
G1 X107.741 Y149.363 E8.76053
G1 X108.034 Y146.217 E8.9191
G1 X108.708 Y142.835 E9.09217
G1 X109.345 Y140.66 E9.20591
G1 X110.438 Y137.803 E9.35943
G1 X111.304 Y136.351 E9.44428
G1 X119.129 Y126.227 E10.08644
G1 X120.323 Y125.028 E10.17136
G1 X120.323 Y125.028 F7800
G1 X120.565 Y125.269
G1 F1800
G1 X120.578 Y125.257 E10.17225
G1 X122.308 Y124.024 E10.27887
G1 X125.017 Y122.418 E10.43692
G1 X127.568 Y121.211 E10.57855
G1 X130.527 Y120.135 E10.73656
G1 X133.578 Y119.353 E10.89463
G1 X135.454 Y119.028 E10.99018
G1 X138.261 Y118.751 E11.13174
G1 X141.411 Y118.735 E11.28983
G1 X143.309 Y118.875 E11.38534
G1 X146.422 Y119.353 E11.5434
G1 X149.158 Y120.039 E11.68496
G1 X152.129 Y121.086 E11.84305
G1 X153.869 Y121.857 E11.93856
G1 X156.639 Y123.357 E12.09665
G1 X159.248 Y125.121 E12.2547
G1 X160.598 Y126.438 E12.34935
G1 X168.423 Y136.561 E12.99147
G1 X169.328 Y138.128 E13.08228
G1 X170.023 Y139.865 E13.17617
G1 X170.617 Y141.666 E13.27134
G1 X171.469 Y145.319 E13.45959
G1 X171.826 Y148.065 E13.59856
G1 X171.945 Y150.611 E13.72647
G1 X171.915 Y152.179 E13.80518
G1 X171.623 Y155.302 E13.96259
G1 X171.018 Y158.409 E14.12145
G1 X170.392 Y160.591 E14.23537
G1 X169.577 Y162.843 E14.35556
G1 X169.114 Y163.9 E14.41347
G1 X167.669 Y166.728 E14.57285
G1 X165.886 Y169.487 E14.73771
G1 X163.853 Y172.011 E14.90036
G1 X161.589 Y174.312 E15.06236
G1 X159.163 Y176.326 E15.2206
G1 X156.346 Y178.255 E15.39194
G1 X153.511 Y179.716 E15.552
G1 X150.338 Y181.014 E15.72405
G1 X147.825 Y181.735 E15.85526
G1 X146.072 Y182.122 E15.94535
G1 X144.12 Y182.432 E16.04454
G1 X141.864 Y182.642 E16.15825
G1 X138.596 Y182.674 E16.32227
G1 X135.103 Y182.317 E16.49848
G1 X132.899 Y181.943 E16.61067
G1 X131.963 Y181.71 E16.65908
G1 X128.851 Y180.692 E16.8234
G1 X126.489 Y179.716 E16.95166
G1 X123.692 Y178.236 E17.11047
G1 X121.101 Y176.522 E17.26638
G1 X118.667 Y174.544 E17.42378
G1 X116.439 Y172.338 E17.58113
G1 X114.243 Y169.67 E17.75455
G1 X112.368 Y166.786 E17.92719
G1 X111.051 Y164.28 E18.06927
G1 X109.977 Y161.685 E18.21022
G1 X109.12 Y158.943 E18.35439
G1 X108.364 Y155.274 E18.54239
G1 X108.146 Y153.072 E18.65344
G1 X108.055 Y150.939 E18.76058
G1 X108.085 Y149.371 E18.83929
G1 X108.425 Y145.934 E19.01262
G1 X109.044 Y142.913 E19.16738
G1 X109.67 Y140.775 E19.27918
G1 X110.753 Y137.943 E19.43134
G1 X111.577 Y136.561 E19.51209
G1 X119.402 Y126.438 E20.15421
G1 X120.523 Y125.312 E20.23395
G1 X120.523 Y125.312 F7800
G1 X120.766 Y125.553
G1 F1800
G1 X120.79 Y125.529 E20.23565
G1 X122.493 Y124.316 E20.34058
G1 X125.172 Y122.726 E20.49692
G1 X127.707 Y121.527 E20.63765
G1 X130.635 Y120.462 E20.79401
G1 X133.654 Y119.69 E20.9504
G1 X135.496 Y119.37 E21.04423
G1 X138.287 Y119.095 E21.18498
G1 X141.402 Y119.08 E21.34131
G1 X144.504 Y119.37 E21.49767
G1 X146.346 Y119.69 E21.5915
G1 X149.066 Y120.372 E21.73223
G1 X152.005 Y121.407 E21.88861
G1 X153.714 Y122.165 E21.98244
G1 X156.454 Y123.648 E22.1388
G1 X159.036 Y125.393 E22.2952
G1 X160.325 Y126.649 E22.38552
G1 X168.15 Y136.772 E23.02764
G1 X169.013 Y138.267 E23.11427
G1 X169.701 Y139.989 E23.20733
G1 X170.285 Y141.758 E23.30082
G1 X171.129 Y145.378 E23.48737
G1 X171.482 Y148.09 E23.62462
G1 X171.6 Y150.62 E23.75173
G1 X171.57 Y152.171 E23.82958
G1 X171.281 Y155.26 E23.98528
G1 X170.681 Y158.335 E24.14251
G1 X170.066 Y160.477 E24.25435
G1 X168.803 Y163.752 E24.43051
G1 X167.369 Y166.558 E24.58866
G1 X165.604 Y169.288 E24.75181
G1 X163.592 Y171.786 E24.91278
G1 X161.351 Y174.062 E25.07308
G1 X158.951 Y176.054 E25.22961
G1 X156.185 Y177.95 E25.39791
G1 X153.371 Y179.4 E25.55678
G1 X150.214 Y180.693 E25.72799
G1 X147.749 Y181.399 E25.85667
G1 X146.013 Y181.782 E25.94589
G1 X144.078 Y182.09 E26.04422
G1 X141.853 Y182.298 E26.15637
G1 X138.605 Y182.329 E26.31938
G1 X135.145 Y181.975 E26.49393
G1 X132.07 Y181.382 E26.6511
G1 X128.959 Y180.364 E26.81537
G1 X126.629 Y179.4 E26.94192
G1 X123.862 Y177.937 E27.099
G1 X121.299 Y176.24 E27.25327
G1 X118.893 Y174.283 E27.40892
G1 X116.689 Y172.1 E27.5646
G1 X114.525 Y169.472 E27.73545
G1 X112.662 Y166.606 E27.907
G1 X111.367 Y164.14 E28.04679
G1 X110.299 Y161.561 E28.18688
G1 X109.453 Y158.851 E28.32936
G1 X108.704 Y155.216 E28.51562
G1 X108.491 Y153.057 E28.6245
G1 X108.4 Y150.931 E28.73129
G1 X108.43 Y149.38 E28.80914
G1 X108.765 Y145.993 E28.97995
G1 X109.38 Y142.99 E29.13379
G1 X109.995 Y140.89 E29.24361
G1 X111.069 Y138.083 E29.39444
G1 X111.85 Y136.772 E29.47102
G1 X119.675 Y126.649 E30.11314
G1 X120.723 Y125.595 E30.18773
G1 E28.18773 F2400
G92 E0
G1 X120.723 Y125.595 F7800
G1 X127 Y172.422
G1 E2 F2400
;TYPE:Support material interface
;WIDTH:0.35
G1 F1800
G1 X124.954 Y171.053 E2.09847
G1 X123.038 Y169.48 E2.19763
G1 X121.286 Y167.726 E2.29679
G1 X120.271 Y166.535 E2.35938
G1 X118.996 Y164.799 E2.44554
G1 E.44554 F2400
G92 E0
G1 X118.996 Y164.799 F7800
G1 X116.636 Y160.361
G1 E2 F2400
G1 F1800
G1 X117.168 Y161.57 E2.05283
G1 X118.073 Y163.293 E2.13068
G1 X127.469 Y172.688 E2.66217
G1 X129.201 Y173.6 E2.74047
G1 X130.406 Y174.131 E2.79314
G1 X130.406 Y174.131 F7800
G1 X130.932 Y174.334
G1 F1800
G1 X116.434 Y159.835 E3.6133
G1 X115.565 Y157.148 E3.72626
G1 X133.576 Y175.16 E4.74514
G1 X134.044 Y175.352 E4.76537
G1 X135.911 Y175.677 E4.84117
G1 X115.079 Y154.844 E6.01963
G1 X114.829 Y152.776 E6.10295
G1 X137.982 Y175.929 E7.41268
G1 X139.885 Y176.014 E7.48888
G1 X114.745 Y150.874 E8.91101
G1 X114.804 Y149.115 E8.98141
G1 X141.645 Y175.956 E10.49977
G1 X143.3 Y175.793 E10.56629
G1 X114.969 Y147.461 E12.16896
G1 X115.221 Y145.896 E12.23237
G1 X144.867 Y175.541 E13.90937
G1 X146.353 Y175.209 E13.97028
G1 X115.562 Y144.419 E15.71205
G1 X115.974 Y143.013 E15.77065
G1 X147.777 Y174.815 E17.56967
G1 X149.101 Y174.321 E17.6262
G1 X116.451 Y141.671 E19.47316
G1 X116.87 Y140.653 E19.51719
G1 X117.251 Y140.653 E19.53243
G1 X150.383 Y173.785 E21.40666
G1 X151.609 Y173.193 E21.46112
G1 X119.069 Y140.653 E23.30186
G1 X120.887 Y140.653 E23.37458
G1 X152.781 Y172.547 E25.17878
G1 X153.218 Y172.341 E25.1981
G1 X153.908 Y171.855 E25.23186
G1 X122.705 Y140.653 E26.99694
G1 X124.523 Y140.653 E27.06966
G1 X136.134 Y152.264 E27.72648
G1 X136.541 Y153.056 E27.7621
G1 X137.089 Y153.725 E27.79669
G1 X137.72 Y154.236 E27.82917
G1 X138.514 Y154.644 E27.86488
G1 X154.974 Y171.104 E28.796
G1 X155.998 Y170.31 E28.84783
G1 X140.569 Y154.881 E29.72063
G1 X141.228 Y154.734 E29.74764
G1 X141.943 Y154.436 E29.77862
G1 X156.975 Y169.468 E30.62896
G1 X157.904 Y168.579 E30.68039
G1 X142.979 Y153.654 E31.52468
G1 X143.43 Y153.1 E31.55325
G1 X143.727 Y152.584 E31.57706
G1 X158.786 Y167.643 E32.42893
G1 X159.622 Y166.661 E32.48052
G1 X144.124 Y151.163 E33.35722
G1 X144.12 Y150.343 E33.39002
G1 X143.934 Y149.477 E33.42545
G1 E31.42545 F2400
G92 E0
G1 X143.934 Y149.477 F7800
G1 X135.986 Y151.802
G1 E2 F2400
G1 F1800
G1 X135.864 Y151.005 E2.03225
G1 X135.897 Y150.208 E2.06416
G1 X126.341 Y140.653 E2.6047
G1 X128.16 Y140.653 E2.67746
G1 X136.343 Y148.836 E3.14036
G1 X136.688 Y148.295 E3.16603
G1 X137.126 Y147.801 E3.19244
G1 X129.978 Y140.653 E3.59679
G1 X131.796 Y140.653 E3.66951
G1 X138.197 Y147.054 E4.03161
G1 X138.823 Y146.811 E4.05847
G1 X139.619 Y146.658 E4.09089
G1 X133.614 Y140.653 E4.43058
G1 X135.432 Y140.653 E4.5033
G1 X141.864 Y147.084 E4.86712
G1 X142.447 Y147.441 E4.89446
G1 X142.911 Y147.836 E4.91883
G1 X143.343 Y148.337 E4.94529
G1 X143.708 Y148.929 E4.97311
G1 X160.416 Y165.636 E5.91823
G1 X161.157 Y164.559 E5.97052
G1 X137.25 Y140.653 E7.32288
G1 X139.068 Y140.653 E7.3956
G1 X161.848 Y163.432 E8.6842
G1 X162.488 Y162.254 E8.73783
G1 X140.887 Y140.653 E9.95977
G1 X142.705 Y140.653 E10.03249
G1 X163.075 Y161.023 E11.18479
G1 X163.605 Y159.735 E11.2405
G1 X144.523 Y140.653 E12.31994
G1 X146.341 Y140.653 E12.39266
G1 X164.075 Y158.387 E13.39585
G1 X164.483 Y156.977 E13.45456
G1 X148.159 Y140.653 E14.37798
G1 X149.977 Y140.653 E14.4507
G1 X164.81 Y155.486 E15.28978
G1 X165.054 Y153.912 E15.35349
G1 X151.795 Y140.653 E16.10353
G1 X153.614 Y140.653 E16.17629
G1 X165.21 Y152.249 E16.83226
G1 X165.25 Y150.471 E16.9034
G1 X155.432 Y140.653 E17.45879
G1 X157.25 Y140.653 E17.53151
G1 X165.154 Y148.557 E17.97863
G1 X164.877 Y146.462 E18.06316
G1 X159.068 Y140.653 E18.39177
G1 X160.886 Y140.653 E18.46449
G1 X164.356 Y144.122 E18.66075
G1 X163.441 Y141.389 E18.77603
G1 X162.704 Y140.653 E18.81769
G1 X163.13 Y140.653 E18.83473
G1 X163.212 Y140.837 E18.84279
G1 E16.84279 F2400
G92 E0
G1 X163.212 Y140.837 F7800
G1 X127.669 Y129.63
G1 E2 F2400
;TYPE:Perimeter
;WIDTH:0.42
G1 F1800
G1 X128.451 Y129.187 E2.04511
G1 X129.541 Y128.638 E2.10636
G1 X130.624 Y128.158 E2.16581
G1 X131.746 Y127.725 E2.22617
G1 X132.888 Y127.348 E2.28652
G1 X134.047 Y127.027 E2.34688
G1 X135.22 Y126.763 E2.40722
G1 X136.405 Y126.557 E2.46758
G1 X137.599 Y126.41 E2.52795
G1 X138.797 Y126.322 E2.58823
G1 X140.034 Y126.293 E2.65033
G1 X141.202 Y126.322 E2.70897
G1 X142.401 Y126.41 E2.7693
G1 X143.595 Y126.557 E2.82967
G1 X144.78 Y126.763 E2.89003
G1 X145.953 Y127.027 E2.95037
G1 X147.112 Y127.348 E3.01073
G1 X148.254 Y127.725 E3.07108
G1 X149.376 Y128.158 E3.13144
G1 X150.475 Y128.646 E3.19179
G1 X151.549 Y129.187 E3.25214
G1 X152.331 Y129.63 E3.29725
G1 X127.729 Y129.63 E4.53192
G1 X127.729 Y129.63 F7800
G1 X126.452 Y129.975
G1 F1800
G1 X127.227 Y129.484 E4.57796
G1 X128.288 Y128.882 E4.63918
G1 X129.394 Y128.327 E4.70128
G1 X130.492 Y127.839 E4.76158
G1 X131.63 Y127.4 E4.82279
G1 X132.788 Y127.017 E4.884
G1 X133.963 Y126.692 E4.94518
G1 X135.153 Y126.425 E5.00639
G1 X136.355 Y126.216 E5.06762
G1 X137.565 Y126.067 E5.1288
G1 X138.781 Y125.977 E5.18999
G1 X140.034 Y125.948 E5.25289
G1 X141.219 Y125.977 E5.31238
G1 X142.435 Y126.067 E5.37357
G1 X143.645 Y126.216 E5.43475
G1 X144.847 Y126.425 E5.49598
G1 X146.037 Y126.692 E5.55719
G1 X147.212 Y127.017 E5.61837
G1 X148.37 Y127.4 E5.67958
G1 X149.508 Y127.839 E5.74079
G1 X150.622 Y128.334 E5.80197
G1 X151.712 Y128.882 E5.8632
G1 X152.773 Y129.484 E5.92442
G1 X153.548 Y129.975 E5.97046
G1 X126.512 Y129.975 E7.32728
G1 X126.512 Y129.975 F7800
G1 X125.349 Y130.32
;TYPE:External perimeter
G1 F1800
G1 X126.006 Y129.849 E7.36785
G1 X127.05 Y129.188 E7.42986
G1 X128.126 Y128.578 E7.49193
G1 X129.246 Y128.015 E7.55484
G1 X130.36 Y127.521 E7.616
G1 X131.514 Y127.075 E7.67809
G1 X132.688 Y126.687 E7.74014
G1 X133.879 Y126.357 E7.80216
G1 X135.086 Y126.086 E7.86424
G1 X136.304 Y125.875 E7.92628
G1 X137.531 Y125.723 E7.98833
G1 X138.764 Y125.632 E8.05038
G1 X140.034 Y125.603 E8.11413
G1 X141.236 Y125.632 E8.17447
G1 X142.469 Y125.723 E8.23652
G1 X143.696 Y125.875 E8.29857
G1 X144.914 Y126.086 E8.36061
G1 X146.121 Y126.357 E8.42269
G1 X147.312 Y126.687 E8.48471
G1 X148.486 Y127.075 E8.54676
G1 X149.64 Y127.521 E8.60885
G1 X150.77 Y128.022 E8.67088
G1 X151.874 Y128.578 E8.73291
G1 X152.95 Y129.188 E8.79498
G1 X153.994 Y129.849 E8.85699
G1 X154.651 Y130.32 E8.89756
G1 X125.409 Y130.32 E10.36509
G1 X125.71 Y130.056 F7800
G1 E8.36509 F2400
G92 E0
G1 X150.044 Y128.568 F7800
G1 E2 F2400
;TYPE:Solid infill
;WIDTH:0.423508
G1 F1800
G1 X150.848 Y129.371 E2.05761
G1 X150.355 Y129.371 E2.0826
G1 X149.464 Y128.48 E2.14648
G1 X148.644 Y128.153 E2.19123
G1 X149.862 Y129.371 E2.27856
G1 X149.369 Y129.371 E2.30355
G1 X147.868 Y127.87 E2.41116
G1 X147.132 Y127.627 E2.45045
G1 X148.877 Y129.371 E2.57552
G1 X148.384 Y129.371 E2.60051
G1 X146.445 Y127.432 E2.73953
G1 X145.771 Y127.251 E2.77491
G1 X147.891 Y129.371 E2.9269
G1 X147.399 Y129.371 E2.95184
G1 X145.136 Y127.108 E3.11409
G1 X144.514 Y126.98 E3.14628
G1 X146.906 Y129.371 E3.31774
G1 X146.413 Y129.371 E3.34273
G1 X143.918 Y126.876 E3.52161
G1 X143.335 Y126.786 E3.55152
G1 X145.92 Y129.371 E3.73685
G1 X145.428 Y129.371 E3.76179
G1 X142.773 Y126.717 E3.95211
G1 X142.22 Y126.656 E3.98032
G1 X144.935 Y129.371 E4.17497
G1 X144.442 Y129.371 E4.19996
G1 X141.688 Y126.617 E4.39741
G1 X141.158 Y126.579 E4.42435
G1 X143.95 Y129.371 E4.62452
G1 X143.457 Y129.371 E4.64951
G1 X140.653 Y126.567 E4.85054
G1 X140.147 Y126.554 E4.8762
G1 X142.964 Y129.371 E5.07817
G1 X142.472 Y129.371 E5.10311
G1 X139.662 Y126.561 E5.30457
G1 X139.18 Y126.572 E5.32901
G1 X141.979 Y129.371 E5.52969
G1 X141.486 Y129.371 E5.55468
G1 X138.703 Y126.588 E5.75421
G1 X138.244 Y126.622 E5.77754
G1 X140.993 Y129.371 E5.97463
G1 X140.501 Y129.371 E5.99957
G1 X137.785 Y126.656 E6.19426
G1 X137.339 Y126.703 E6.217
G1 X140.008 Y129.371 E6.40832
G1 X139.515 Y129.371 E6.43331
G1 X136.901 Y126.757 E6.62072
G1 X136.462 Y126.811 E6.64314
G1 X139.023 Y129.371 E6.82672
G1 X138.53 Y129.371 E6.85171
G1 X136.042 Y126.883 E7.03009
G1 X135.622 Y126.956 E7.0517
G1 X138.037 Y129.371 E7.22484
G1 X137.544 Y129.371 E7.24983
G1 X135.205 Y127.032 E7.41753
G1 X134.803 Y127.122 E7.43841
G1 X137.052 Y129.371 E7.59965
G1 X136.559 Y129.371 E7.62464
G1 X134.4 Y127.212 E7.77943
G1 X134.003 Y127.307 E7.80012
G1 X136.066 Y129.371 E7.94806
G1 X135.574 Y129.371 E7.973
G1 X133.617 Y127.414 E8.11331
G1 X133.231 Y127.521 E8.13362
G1 X135.081 Y129.371 E8.26626
G1 X134.588 Y129.371 E8.29125
G1 X132.85 Y127.633 E8.41586
