; generated by PrusaSlicer 2.7.2+win64 on 2024-03-30 at 19:13:19 UTC

; 

; external perimeters extrusion width = 0.45mm
; perimeters extrusion width = 0.45mm
; infill extrusion width = 0.45mm
; solid infill extrusion width = 0.45mm
; top infill extrusion width = 0.40mm
; support material extrusion width = 0.35mm
; first layer extrusion width = 0.42mm

;TYPE:Custom
M107
M191 S50     ; set chamber temperature and wait for it to be reached
;M109 S120   ; set temp and wait for it to be reached
M104 S150    ; Start heating the extruder.
M140 S70 ; heat bed
M190 S70 ; wait for the bed to heat up
G28          ; home all axes

G29 ; Z-Probe the bed (requires Z-Probe!) - auto bed level

M109 S215 ; Heat up the extruder

G1 Y288 Z0.3 F9000  ; move forward off front of bed
G1 X10 Z10          ; move left to clear heater
G1 Z0.4 F300        ; position nozzle 
G92 E0              ; zero extruder
G1 E25 F225         ; purge nozzle
G92 E0              ; zero extruder

G1 Y265 Z0.2 E1.0 F600 ; slow wipe
G1 Y260 Z0.25          ; lift
G92 E0 
G1 E-1.0
G21 ; set units to millimeters
G90 ; use absolute coordinates
M82 ; use absolute distances for extrusion
G92 E0
; Filament gcode
M107
;LAYER_CHANGE
;Z:0.35
;HEIGHT:0.35
G1 E-2 F2400
G1 Z.35 F7800
G1 X117.189 Y127.661
G1 E0 F2400
;TYPE:Skirt/Brim
;WIDTH:0.42
G1 F1800
G1 X119.558 Y125.536 E.15971
G1 X121.838 Y123.845 E.30217
G1 X124.559 Y122.195 E.46187
G1 X126.289 Y121.324 E.55907
G1 X128.911 Y120.237 E.70152
G1 X130.75 Y119.63 E.79871
G1 X133.503 Y118.94 E.94115
G1 X135.412 Y118.609 E1.03838
G1 X138.236 Y118.331 E1.18079
G1 X141.419 Y118.314 E1.34053
G1 X143.351 Y118.456 E1.43775
G1 X146.158 Y118.873 E1.58017
G1 X148.048 Y119.297 E1.67738
G1 X151.089 Y120.237 E1.83712
G1 X153.711 Y121.324 E1.97957
G1 X155.441 Y122.195 E2.07677
G1 X157.875 Y123.654 E2.21919
G1 X159.459 Y124.769 E2.3164
G1 X161.909 Y126.801 E2.47614
G1 X163.915 Y128.808 E2.61855
G1 X165.18 Y130.275 E2.71576
G1 X166.871 Y132.555 E2.85822
G1 X167.907 Y134.191 E2.9554
G1 X168.766 Y135.743 E3.04442
G1 X169.459 Y138.003 E3.16305
G1 X169.506 Y139.307 E3.22853
G1 X168.03 Y165.135 E4.52685
G1 X167.5 Y167.439 E4.6455
G1 X166.802 Y168.721 E4.71876
G1 X165.833 Y170.085 E4.80273
G1 X164.041 Y172.268 E4.94447
G1 X162.733 Y173.642 E5.03967
G1 X161.079 Y175.219 E5.15436
G1 X158.627 Y177.129 E5.31034
G1 X156.425 Y178.524 E5.44116
G1 X153.195 Y180.177 E5.62325
G1 X151.592 Y180.843 E5.71037
G1 X149.539 Y181.561 E5.81952
G1 X147.867 Y182.025 E5.9066
G1 X146.029 Y182.432 E6.00108
G1 X144.12 Y182.733 E6.09807
G1 X141.742 Y182.955 E6.21793
G1 X139.663 Y182.998 E6.32229
G1 X137.007 Y182.863 E6.45576
G1 X135.433 Y182.678 E6.5353
G1 X131.663 Y181.902 E6.72847
G1 X128.308 Y180.805 E6.90562
G1 X124.626 Y179.107 E7.10911
G1 X121.935 Y177.52 E7.2659
G1 X119.649 Y175.781 E7.41005
G1 X118.187 Y174.52 E7.50694
G1 X115.928 Y172.233 E7.66827
G1 X114.167 Y170.085 E7.80767
G1 X113.248 Y168.794 E7.8872
G1 X112.231 Y166.66 E8.00584
G1 X111.976 Y165.146 E8.08289
G1 X110.494 Y139.309 E9.38167
G1 X110.757 Y136.96 E9.50029
G1 X111.234 Y135.743 E9.56589
G1 X112.27 Y133.895 E9.67221
G1 X113.847 Y131.535 E9.81466
G1 X115.853 Y129.064 E9.97439
G1 X117.147 Y127.705 E10.06856
G1 X117.147 Y127.705 F7800
G1 X117.397 Y127.942
G1 F1800
G1 X117.426 Y127.911 E10.07069
G1 X119.517 Y126.016 E10.21231
G1 X122.036 Y124.127 E10.37033
G1 X123.644 Y123.109 E10.46584
G1 X126.132 Y121.779 E10.60742
G1 X127.872 Y121.008 E10.70293
G1 X130.842 Y119.962 E10.86096
G1 X133.579 Y119.277 E11.00256
G1 X135.454 Y118.951 E11.09807
G1 X138.262 Y118.675 E11.23967
G1 X140.198 Y118.629 E11.33686
G1 X143.309 Y118.799 E11.49322
G1 X146.099 Y119.213 E11.63477
G1 X147.956 Y119.63 E11.73029
G1 X150.656 Y120.449 E11.87189
G1 X152.431 Y121.134 E11.96737
G1 X154.981 Y122.34 E12.10893
G1 X156.637 Y123.278 E12.20444
G1 X158.983 Y124.845 E12.34602
G1 X160.483 Y126.016 E12.44152
G1 X162.574 Y127.911 E12.58314
G1 X163.886 Y129.289 E12.67863
G1 X165.871 Y131.734 E12.83668
G1 X167.438 Y134.08 E12.97826
G1 X168.458 Y135.898 E13.08288
G1 X169.124 Y138.105 E13.19857
G1 X169.162 Y139.288 E13.25797
G1 X167.685 Y165.115 E14.55624
G1 X167.159 Y167.359 E14.67191
G1 X166.518 Y168.526 E14.73873
G1 X165.561 Y169.872 E14.82161
G1 X163.78 Y172.042 E14.9625
G1 X162.495 Y173.393 E15.05607
G1 X160.841 Y174.969 E15.17073
G1 X158.443 Y176.837 E15.32328
G1 X156.24 Y178.232 E15.45414
G1 X155.076 Y178.878 E15.52095
G1 X152.073 Y180.288 E15.68744
G1 X149.43 Y181.234 E15.82832
G1 X147.79 Y181.688 E15.91372
G1 X145.971 Y182.093 E16.00724
G1 X144.077 Y182.39 E16.10345
G1 X141.718 Y182.611 E16.22236
G1 X139.836 Y182.657 E16.31684
G1 X137.032 Y182.519 E16.45773
G1 X135.475 Y182.335 E16.53641
G1 X131.755 Y181.57 E16.72701
G1 X128.432 Y180.483 E16.90247
G1 X124.796 Y178.807 E17.1034
G1 X122.141 Y177.243 E17.25804
G1 X119.861 Y175.509 E17.4018
G1 X118.669 Y174.491 E17.48047
G1 X116.22 Y172.042 E17.65428
G1 X115.172 Y170.811 E17.73541
G1 X113.53 Y168.595 E17.87383
G1 X112.547 Y166.51 E17.98951
G1 X112.321 Y165.126 E18.05989
G1 X110.839 Y139.289 E19.35867
G1 X111.105 Y137 E19.47432
G1 X111.542 Y135.898 E19.53381
G1 X112.562 Y134.08 E19.63843
G1 X114.129 Y131.734 E19.78001
G1 X116.114 Y129.289 E19.93806
G1 X117.355 Y127.986 E20.02837
G1 X117.355 Y127.986 F7800
G1 X117.625 Y128.253
G1 F1800
G1 X118.567 Y127.301 E20.09558
G1 X119.983 Y126.08 E20.18941
G1 X122.235 Y124.409 E20.33014
G1 X123.814 Y123.409 E20.42394
G1 X126.287 Y122.087 E20.56467
G1 X127.996 Y121.33 E20.65848
G1 X130.934 Y120.295 E20.81481
G1 X133.654 Y119.613 E20.95554
G1 X135.496 Y119.294 E21.04936
G1 X138.287 Y119.019 E21.19011
G1 X140.19 Y118.974 E21.28564
G1 X143.266 Y119.141 E21.44024
G1 X146.04 Y119.552 E21.58098
G1 X147.864 Y119.962 E21.6748
G1 X150.547 Y120.776 E21.81551
G1 X152.292 Y121.449 E21.90937
G1 X154.826 Y122.648 E22.05006
G1 X156.453 Y123.569 E22.14389
G1 X158.784 Y125.127 E22.2846
G1 X160.258 Y126.277 E22.37842
G1 X162.336 Y128.161 E22.51919
G1 X163.625 Y129.515 E22.61301
G1 X165.589 Y131.933 E22.76935
G1 X167.147 Y134.264 E22.91006
G1 X168.15 Y136.053 E23.01299
G1 X168.817 Y139.268 E23.17777
G1 X167.341 Y165.096 E24.47609
G1 X166.819 Y167.278 E24.58869
G1 X166.233 Y168.33 E24.64912
G1 X165.289 Y169.66 E24.73097
G1 X163.519 Y171.817 E24.871
G1 X160.603 Y174.719 E25.07746
G1 X158.258 Y176.546 E25.22665
G1 X156.056 Y177.941 E25.35747
G1 X154.913 Y178.574 E25.42304
G1 X151.949 Y179.966 E25.58738
G1 X149.322 Y180.906 E25.7274
G1 X147.714 Y181.352 E25.81115
G1 X145.912 Y181.753 E25.9038
G1 X144.035 Y182.048 E25.99916
G1 X141.693 Y182.267 E26.11721
G1 X139.844 Y182.312 E26.21003
G1 X137.058 Y182.175 E26.35002
G1 X135.517 Y181.993 E26.42789
G1 X131.847 Y181.238 E26.61593
G1 X128.556 Y180.161 E26.78971
G1 X124.966 Y178.507 E26.98808
G1 X122.347 Y176.967 E27.14056
G1 X120.073 Y175.237 E27.28395
G1 X118.894 Y174.23 E27.36176
G1 X116.481 Y171.817 E27.53302
G1 X115.444 Y170.599 E27.6133
G1 X113.812 Y168.396 E27.75089
G1 X112.864 Y166.362 E27.86351
G1 X112.665 Y165.106 E27.92733
G1 X111.183 Y139.269 E29.22611
G1 X111.85 Y136.053 E29.39094
G1 X112.853 Y134.264 E29.49387
G1 X114.596 Y131.682 E29.65021
G1 X116.375 Y129.515 E29.79092
G1 X117.583 Y128.295 E29.87708
G1 E27.87708 F2400
G92 E0
G1 X117.583 Y128.295 F7800
G1 X119.371 Y164.734
G1 E2 F2400
;TYPE:Support material interface
;WIDTH:0.35
G1 F1800
G1 X118.993 Y164.734 E2.01512
G1 X120.476 Y166.734 E2.11471
G1 X122.14 Y168.571 E2.21385
G1 X123.977 Y170.236 E2.31302
G1 X126.134 Y171.876 E2.42141
G1 X126.594 Y172.137 E2.44257
G1 X126.594 Y172.137 F7800
G1 X128.094 Y172.987
G1 F1800
G1 X127.34 Y172.559 E2.47725
G1 X119.514 Y164.734 E2.91993
G1 X121.332 Y164.734 E2.99265
G1 X130.84 Y174.241 E3.53048
G1 X133.539 Y175.123 E3.64406
G1 X123.15 Y164.734 E4.23175
G1 X124.968 Y164.734 E4.30447
G1 X135.854 Y175.619 E4.92025
G1 X137.93 Y175.877 E5.00393
G1 X126.787 Y164.734 E5.63427
G1 X128.605 Y164.734 E5.70699
G1 X139.836 Y175.965 E6.34231
G1 X140 Y175.969 E6.34887
G1 X141.602 Y175.913 E6.41299
G1 X130.423 Y164.734 E7.04537
G1 X132.241 Y164.734 E7.11809
G1 X143.258 Y175.751 E7.74131
G1 X144.827 Y175.501 E7.80486
G1 X134.059 Y164.734 E8.41396
G1 X135.877 Y164.734 E8.48668
G1 X146.308 Y175.165 E9.07675
G1 X147.716 Y174.754 E9.13542
G1 X137.695 Y164.734 E9.70227
G1 X139.514 Y164.734 E9.77503
G1 X149.06 Y174.28 E10.31503
G1 X150.344 Y173.746 E10.37065
G1 X141.332 Y164.734 E10.88045
G1 X143.15 Y164.734 E10.95317
G1 X151.571 Y173.155 E11.42953
G1 X152.755 Y172.521 E11.48325
G1 X144.968 Y164.734 E11.92375
G1 X146.786 Y164.734 E11.99647
G1 X153.868 Y171.816 E12.39709
G1 X154.956 Y171.086 E12.4495
G1 X148.604 Y164.734 E12.80882
G1 X150.422 Y164.734 E12.88154
G1 X155.968 Y170.279 E13.19524
G1 X156.228 Y170.124 E13.20735
G1 X156.947 Y169.44 E13.24705
G1 X152.241 Y164.734 E13.51326
G1 X154.059 Y164.734 E13.58598
G1 X157.877 Y168.552 E13.80196
G1 X158.761 Y167.618 E13.8534
G1 X155.877 Y164.734 E14.01654
G1 X157.695 Y164.734 E14.08926
G1 X159.599 Y166.638 E14.19697
G1 X160.39 Y165.61 E14.24885
G1 X159.513 Y164.734 E14.29843
G1 X161.006 Y164.734 E14.35815
G1 X160.472 Y165.494 E14.3953
G1 E12.3953 F2400
G92 E0
G1 X160.472 Y165.494 F7800
G1 X160.941 Y138.006
G1 E2 F2400
;TYPE:Perimeter
;WIDTH:0.42
G1 F1800
G1 X119.059 Y138.006 E4.10188
G1 X119.629 Y137.105 E4.15539
G1 X120.327 Y136.115 E4.21618
G1 X121.061 Y135.174 E4.27607
G1 X121.847 Y134.263 E4.33645
G1 X122.676 Y133.392 E4.3968
G1 X123.547 Y132.563 E4.45715
G1 X124.457 Y131.777 E4.5175
G1 X125.405 Y131.038 E4.57782
G1 X126.389 Y130.345 E4.63822
G1 X127.405 Y129.702 E4.69856
G1 X128.451 Y129.109 E4.7589
G1 X129.525 Y128.568 E4.81925
G1 X130.624 Y128.081 E4.87958
G1 X131.775 Y127.639 E4.94146
G1 X132.888 Y127.271 E5.00029
G1 X134.047 Y126.95 E5.06065
G1 X135.22 Y126.687 E5.12098
G1 X136.405 Y126.481 E5.18134
G1 X137.599 Y126.334 E5.24171
G1 X138.797 Y126.245 E5.302
G1 X140.034 Y126.217 E5.3641
G1 X141.202 Y126.245 E5.42273
G1 X142.401 Y126.334 E5.48307
G1 X143.595 Y126.481 E5.54344
G1 X144.78 Y126.687 E5.6038
G1 X145.953 Y126.95 E5.66413
G1 X147.112 Y127.271 E5.72449
G1 X148.254 Y127.648 E5.78484
G1 X149.376 Y128.081 E5.8452
G1 X150.475 Y128.568 E5.90553
G1 X151.549 Y129.109 E5.96588
G1 X152.595 Y129.702 E6.02622
G1 X153.611 Y130.345 E6.08656
G1 X154.595 Y131.038 E6.14696
G1 X155.543 Y131.777 E6.20728
G1 X156.453 Y132.563 E6.26763
G1 X157.324 Y133.392 E6.32798
G1 X158.153 Y134.263 E6.38833
G1 X158.945 Y135.182 E6.44921
G1 X159.679 Y136.122 E6.50906
G1 X160.371 Y137.105 E6.56939
G1 X160.909 Y137.956 E6.61992
G1 X160.909 Y137.956 F7800
G1 X161.537 Y138.351
G1 F1800
G1 X118.463 Y138.351 E8.78163
G1 X118.691 Y137.942 E8.80513
G1 X119.342 Y136.914 E8.8662
G1 X120.049 Y135.91 E8.92783
G1 X120.795 Y134.955 E8.98865
G1 X121.591 Y134.032 E9.04982
G1 X122.432 Y133.148 E9.11105
G1 X123.315 Y132.307 E9.17225
G1 X124.239 Y131.511 E9.23346
G1 X125.2 Y130.761 E9.29464
G1 X126.197 Y130.058 E9.35586
G1 X127.227 Y129.406 E9.41704
G1 X128.288 Y128.805 E9.47824
G1 X129.377 Y128.256 E9.53944
G1 X130.492 Y127.762 E9.60064
G1 X131.659 Y127.314 E9.66337
G1 X132.788 Y126.941 E9.72304
G1 X133.963 Y126.615 E9.78424
G1 X135.153 Y126.348 E9.84545
G1 X136.354 Y126.14 E9.90662
G1 X137.565 Y125.99 E9.96786
G1 X138.781 Y125.901 E10.02905
G1 X140.034 Y125.872 E10.09195
G1 X141.219 Y125.901 E10.15144
G1 X142.435 Y125.99 E10.21263
G1 X143.646 Y126.14 E10.27387
G1 X144.847 Y126.348 E10.33504
G1 X146.037 Y126.615 E10.39625
G1 X147.212 Y126.941 E10.45745
G1 X148.37 Y127.323 E10.51865
G1 X149.508 Y127.762 E10.57986
G1 X150.623 Y128.256 E10.64106
G1 X151.712 Y128.805 E10.70226
G1 X152.773 Y129.406 E10.76346
G1 X153.803 Y130.058 E10.82464
G1 X154.8 Y130.761 E10.88586
G1 X155.761 Y131.511 E10.94704
G1 X156.685 Y132.307 E11.00825
G1 X157.568 Y133.148 E11.06945
G1 X158.409 Y134.031 E11.13065
G1 X159.212 Y134.963 E11.19239
G1 X159.956 Y135.916 E11.25307
G1 X160.658 Y136.914 E11.31431
G1 X161.313 Y137.949 E11.37578
G1 X161.508 Y138.299 E11.39589
G1 X161.508 Y138.299 F7800
G1 X162.125 Y138.696
;TYPE:External perimeter
G1 F1800
G1 X117.875 Y138.696 E13.61661
G1 X118.394 Y137.766 E13.67006
G1 X119.055 Y136.722 E13.73207
G1 X119.772 Y135.704 E13.79456
G1 X120.528 Y134.736 E13.8562
G1 X121.336 Y133.8 E13.91826
G1 X122.188 Y132.904 E13.98031
G1 X123.083 Y132.052 E14.04232
G1 X124.02 Y131.244 E14.10441
G1 X124.994 Y130.483 E14.16644
G1 X126.005 Y129.771 E14.2285
G1 X127.05 Y129.11 E14.29056
G1 X128.126 Y128.5 E14.35263
G1 X129.23 Y127.945 E14.41464
G1 X130.36 Y127.443 E14.47669
G1 X131.543 Y126.989 E14.54028
G1 X132.688 Y126.611 E14.60079
G1 X133.879 Y126.281 E14.66281
G1 X135.086 Y126.01 E14.72489
G1 X136.304 Y125.798 E14.78694
G1 X137.531 Y125.647 E14.84898
G1 X138.764 Y125.556 E14.91103
G1 X140.034 Y125.527 E14.97478
G1 X141.236 Y125.556 E15.03512
G1 X142.469 Y125.647 E15.09717
G1 X143.696 Y125.798 E15.15921
G1 X144.914 Y126.01 E15.22126
G1 X146.121 Y126.281 E15.28334
G1 X147.312 Y126.611 E15.34536
G1 X148.486 Y126.998 E15.4074
G1 X149.64 Y127.443 E15.46947
G1 X150.77 Y127.945 E15.53152
G1 X151.874 Y128.5 E15.59353
G1 X152.95 Y129.11 E15.6556
G1 X153.995 Y129.771 E15.71766
G1 X155.006 Y130.483 E15.77972
G1 X155.98 Y131.244 E15.84175
G1 X156.917 Y132.052 E15.90384
G1 X157.812 Y132.904 E15.96585
G1 X158.664 Y133.8 E16.0279
G1 X159.479 Y134.745 E16.09053
G1 X160.233 Y135.711 E16.15203
G1 X160.945 Y136.722 E16.21409
G1 X161.614 Y137.781 E16.27695
G1 X162.096 Y138.644 E16.32656
G1 X161.7 Y138.7 F7800
G1 E14.32656 F2400
G92 E0
G1 X155.231 Y131.665 F7800
G1 E2 F2400
;TYPE:Solid infill
;WIDTH:0.420655
G1 F1800
G1 X157.15 Y133.585 E2.13649
G1 X157.961 Y134.437 E2.19563
G1 X158.745 Y135.346 E2.25599
G1 X159.471 Y136.276 E2.31531
G1 X159.751 Y136.675 E2.33982
G1 X154.04 Y130.964 E2.74592
G1 X153.468 Y130.56 E2.78113
G1 X152.597 Y130.009 E2.83295
G1 X160.336 Y137.748 E3.38326
G1 X159.847 Y137.748 E3.40785
G1 X151.449 Y129.349 E4.00505
G1 X150.462 Y128.851 E4.06064
G1 X159.358 Y137.748 E4.69326
G1 X158.87 Y137.748 E4.7178
G1 X149.581 Y128.459 E5.37833
G1 X148.75 Y128.117 E5.42351
G1 X158.381 Y137.748 E6.10835
G1 X157.892 Y137.748 E6.13294
G1 X147.972 Y127.827 E6.83837
G1 X147.242 Y127.586 E6.87702
G1 X157.404 Y137.748 E7.59962
G1 X156.915 Y137.748 E7.62421
G1 X146.551 Y127.384 E8.36118
G1 X145.877 Y127.198 E8.39634
G1 X156.426 Y137.748 E9.1465
G1 X155.938 Y137.748 E9.17104
G1 X145.247 Y127.057 E9.93126
G1 X144.623 Y126.922 E9.96336
G1 X155.449 Y137.748 E10.73318
G1 X154.96 Y137.748 E10.75777
G1 X144.032 Y126.819 E11.53488
G1 X143.447 Y126.723 E11.56469
G1 X154.472 Y137.748 E12.34866
G1 X153.983 Y137.748 E12.37325
G1 X142.89 Y126.655 E13.16205
G1 X142.335 Y126.588 E13.19016
G1 X153.494 Y137.748 E13.98369
G1 X153.006 Y137.748 E14.00823
G1 X141.807 Y126.549 E14.80457
G1 X141.28 Y126.51 E14.83114
G1 X152.517 Y137.748 E15.63022
G1 X152.028 Y137.748 E15.65481
G1 X140.774 Y126.494 E16.45506
G1 X140.273 Y126.481 E16.48026
G1 X151.54 Y137.748 E17.28144
G1 X151.051 Y137.748 E17.30603
G1 X139.789 Y126.486 E18.10685
G1 X139.309 Y126.495 E18.13099
G1 X150.562 Y137.748 E18.93117
G1 X150.073 Y137.748 E18.95576
G1 X138.829 Y126.503 E19.75534
G1 X138.373 Y126.536 E19.77833
G1 X149.585 Y137.748 E20.5756
G1 X149.096 Y137.748 E20.60019
G1 X137.918 Y126.57 E21.39504
G1 X137.471 Y126.611 E21.41761
G1 X148.607 Y137.748 E22.20951
G1 X148.119 Y137.748 E22.23405
G1 X137.038 Y126.667 E23.022
G1 X136.605 Y126.722 E23.04395
G1 X147.63 Y137.748 E23.82795
G1 X147.141 Y137.748 E23.85254
G1 X136.177 Y126.783 E24.63221
G1 X135.761 Y126.855 E24.65344
G1 X146.653 Y137.748 E25.42799
G1 X146.164 Y137.748 E25.45258
G1 X135.344 Y126.928 E26.22197
G1 X134.942 Y127.014 E26.24264
G1 X145.675 Y137.748 E27.00588
G1 X145.187 Y137.748 E27.03042
G1 X134.543 Y127.104 E27.7873
G1 X134.144 Y127.193 E27.80786
G1 X144.698 Y137.748 E28.55837
G1 X144.209 Y137.748 E28.58296
G1 X133.76 Y127.298 E29.32601
G1 X133.377 Y127.404 E29.34599
G1 X143.721 Y137.748 E30.08153
G1 X143.232 Y137.748 E30.10612
G1 X132.994 Y127.51 E30.83413
G1 X132.626 Y127.63 E30.85359
G1 X142.743 Y137.748 E31.57303
G1 X142.255 Y137.748 E31.59757
G1 X132.258 Y127.751 E32.30844
G1 X131.891 Y127.873 E32.32789
