; generated by PrusaSlicer 2.7.2+win64 on 2024-03-30 at 19:11:38 UTC

; 

; external perimeters extrusion width = 0.45mm
; perimeters extrusion width = 0.45mm
; infill extrusion width = 0.45mm
; solid infill extrusion width = 0.45mm
; top infill extrusion width = 0.40mm
; support material extrusion width = 0.35mm
; first layer extrusion width = 0.42mm

;TYPE:Custom
M107
M191 S50     ; set chamber temperature and wait for it to be reached
;M109 S120   ; set temp and wait for it to be reached
M104 S150    ; Start heating the extruder.
M140 S70 ; heat bed
M190 S70 ; wait for the bed to heat up
G28          ; home all axes

G29 ; Z-Probe the bed (requires Z-Probe!) - auto bed level

M109 S215 ; Heat up the extruder

G1 Y288 Z0.3 F9000  ; move forward off front of bed
G1 X10 Z10          ; move left to clear heater
G1 Z0.4 F300        ; position nozzle 
G92 E0              ; zero extruder
G1 E25 F225         ; purge nozzle
G92 E0              ; zero extruder

G1 Y265 Z0.2 E1.0 F600 ; slow wipe
G1 Y260 Z0.25          ; lift
G92 E0 
G1 E-1.0
G21 ; set units to millimeters
G90 ; use absolute coordinates
M82 ; use absolute distances for extrusion
G92 E0
; Filament gcode
M107
;LAYER_CHANGE
;Z:0.35
;HEIGHT:0.35
G1 E-2 F2400
G1 Z.35 F7800
G1 X110.281 Y115.826
G1 E0 F2400
;TYPE:Skirt/Brim
;WIDTH:0.42
G1 F1800
G1 X110.464 Y115.652 E.01267
G1 X112.372 Y113.995 E.13949
G1 X114.358 Y112.434 E.26626
G1 X116.419 Y110.972 E.39307
G1 X118.55 Y109.613 E.51991
G1 X120.744 Y108.36 E.64671
G1 X123.31 Y107.068 E.79089
G1 X125.623 Y106.052 E.91768
G1 X127.984 Y105.15 E1.04452
G1 X130.055 Y104.466 E1.15398
G1 X132.489 Y103.784 E1.28084
G1 X134.952 Y103.222 E1.40762
G1 X137.44 Y102.781 E1.53443
G1 X140.291 Y102.43 E1.67859
G1 X142.812 Y102.252 E1.80542
G1 X145.398 Y102.2 E1.93523
G1 X147.864 Y102.269 E2.05904
G1 X150.04 Y102.43 E2.16854
G1 X152.549 Y102.731 E2.29536
G1 X155.04 Y103.155 E2.42217
G1 X157.507 Y103.7 E2.54896
G1 X159.945 Y104.366 E2.6758
G1 X162.347 Y105.15 E2.80261
G1 X164.707 Y106.052 E2.9294
G1 X167.333 Y107.216 E3.07355
G1 X169.586 Y108.36 E3.20036
G1 X171.781 Y109.613 E3.3272
G1 X173.911 Y110.972 E3.454
G1 X175.972 Y112.434 E3.58081
G1 X177.959 Y113.995 E3.70762
G1 X179.611 Y115.42 E3.81711
G1 X181.447 Y117.156 E3.94392
G1 X183.196 Y118.981 E4.07078
G1 X184.852 Y120.889 E4.19757
G1 X186.966 Y123.645 E4.37189
G1 X188.098 Y126.246 E4.51425
G1 X195.447 Y161.126 E6.30317
G1 X195.428 Y164.118 E6.45333
G1 X194.925 Y166.32 E6.56669
G1 X194.219 Y168.807 E6.69643
G1 X192.663 Y173.166 E6.92871
G1 X191.65 Y175.473 E7.05516
G1 X190.531 Y177.714 E7.18087
G1 X188.975 Y180.43 E7.33796
G1 X188.02 Y181.937 E7.4275
G1 X186.505 Y184.123 E7.56098
G1 X184.961 Y186.115 E7.68746
G1 X183.322 Y188.029 E7.81392
G1 X181.604 Y189.845 E7.93938
G1 X179.229 Y192.082 E8.10312
G1 X175.704 Y194.946 E8.33106
G1 X171.864 Y197.547 E8.56382
G1 X168.484 Y199.437 E8.75817
G1 X163.258 Y201.756 E9.0451
G1 X159.903 Y202.856 E9.22229
G1 X156.114 Y203.87 E9.41914
G1 X152.869 Y204.435 E9.58444
G1 X150.119 Y204.773 E9.72349
G1 X147.833 Y204.942 E9.83853
G1 X144.993 Y205.016 E9.98111
G1 X140.305 Y204.786 E10.21666
G1 X135.319 Y204.064 E10.4695
G1 X130.427 Y202.856 E10.72238
G1 X127.687 Y201.949 E10.86723
G1 X125.359 Y201.042 E10.99262
G1 X123.098 Y200.033 E11.11688
G1 X120.811 Y198.876 E11.24551
G1 X118.623 Y197.626 E11.37197
G1 X116.507 Y196.276 E11.49794
G1 X114.663 Y194.975 E11.6112
G1 X112.729 Y193.475 E11.73403
G1 X110.815 Y191.835 E11.86052
G1 X108.985 Y190.104 E11.98694
G1 X107.241 Y188.284 E12.11344
G1 X105.313 Y186.042 E12.26184
G1 X102.382 Y182.058 E12.51006
G1 X101.041 Y179.925 E12.6365
G1 X99.806 Y177.728 E12.76298
G1 X98.681 Y175.473 E12.88945
G1 X97.667 Y173.166 E13.01592
G1 X96.79 Y170.873 E13.13913
G1 X95.761 Y167.59 E13.31179
G1 X95.019 Y164.636 E13.46464
G1 X94.991 Y161.686 E13.6127
G1 X102.224 Y126.288 E15.42589
G1 X103.364 Y123.645 E15.57034
G1 X105.478 Y120.889 E15.74466
G1 X107.135 Y118.981 E15.87148
G1 X108.884 Y117.156 E15.99834
G1 X110.237 Y115.868 E16.09209
G1 X110.237 Y115.868 F7800
G1 X110.475 Y116.117
G1 F1800
G1 X110.702 Y115.902 E16.10778
G1 X112.597 Y114.256 E16.23375
G1 X114.571 Y112.706 E16.35971
G1 X116.618 Y111.254 E16.48566
G1 X118.734 Y109.904 E16.61163
G1 X120.914 Y108.66 E16.7376
G1 X123.449 Y107.384 E16.88003
G1 X125.747 Y106.374 E17.006
G1 X128.141 Y105.462 E17.13457
G1 X130.478 Y104.698 E17.25796
G1 X132.58 Y104.116 E17.36742
G1 X135.028 Y103.558 E17.49343
G1 X137.499 Y103.121 E17.61936
G1 X140.316 Y102.774 E17.7618
G1 X142.82 Y102.597 E17.88778
G1 X145.39 Y102.545 E18.01678
G1 X147.838 Y102.613 E18.13968
G1 X150.014 Y102.774 E18.24918
G1 X152.506 Y103.073 E18.37514
G1 X154.981 Y103.494 E18.50113
G1 X157.432 Y104.036 E18.62711
G1 X159.853 Y104.698 E18.75307
G1 X162.239 Y105.478 E18.87905
G1 X164.583 Y106.374 E19.00499
G1 X167.178 Y107.524 E19.14744
G1 X169.416 Y108.66 E19.2734
G1 X171.596 Y109.904 E19.39937
G1 X173.712 Y111.254 E19.52534
G1 X175.76 Y112.706 E19.65133
G1 X177.734 Y114.256 E19.77729
G1 X179.386 Y115.681 E19.88678
G1 X181.209 Y117.406 E20.01274
G1 X182.946 Y119.219 E20.13875
G1 X184.591 Y121.114 E20.26469
G1 X186.684 Y123.844 E20.43733
G1 X187.761 Y126.317 E20.5727
G1 X195.11 Y161.198 E22.36167
G1 X195.091 Y164.042 E22.5044
G1 X194.592 Y166.228 E22.61693
G1 X193.888 Y168.712 E22.7465
G1 X192.341 Y173.041 E22.97721
G1 X191.334 Y175.333 E23.10285
G1 X190.223 Y177.559 E23.22771
G1 X188.678 Y180.255 E23.38365
G1 X187.735 Y181.742 E23.47202
G1 X186.223 Y183.924 E23.60525
G1 X184.689 Y185.903 E23.73091
G1 X183.06 Y187.803 E23.85651
G1 X181.354 Y189.607 E23.98112
G1 X179.003 Y191.821 E24.14319
G1 X175.504 Y194.665 E24.36948
G1 X171.693 Y197.247 E24.6005
G1 X168.338 Y199.125 E24.79346
G1 X163.149 Y201.429 E25.07839
G1 X159.811 Y202.523 E25.25468
G1 X156.055 Y203.53 E25.44984
G1 X152.81 Y204.096 E25.61515
G1 X150.079 Y204.43 E25.75323
G1 X147.822 Y204.597 E25.86681
G1 X145.001 Y204.672 E26.00843
G1 X140.33 Y204.442 E26.24313
G1 X135.378 Y203.724 E26.49425
G1 X130.519 Y202.523 E26.74544
G1 X127.811 Y201.628 E26.88857
G1 X125.499 Y200.727 E27.0131
G1 X123.251 Y199.724 E27.13664
G1 X120.981 Y198.575 E27.26432
G1 X118.808 Y197.335 E27.38988
G1 X116.706 Y195.994 E27.51501
G1 X114.863 Y194.693 E27.62823
G1 X112.941 Y193.203 E27.75028
G1 X111.041 Y191.574 E27.87588
G1 X109.222 Y189.854 E28.00152
G1 X107.491 Y188.047 E28.1271
G1 X105.62 Y185.875 E28.27097
G1 X102.673 Y181.873 E28.52039
G1 X101.341 Y179.755 E28.64596
G1 X100.114 Y177.573 E28.77159
G1 X98.996 Y175.333 E28.89723
G1 X97.989 Y173.041 E29.02287
G1 X97.117 Y170.762 E29.14533
G1 X96.09 Y167.488 E29.31753
G1 X95.356 Y164.56 E29.46902
G1 X95.329 Y161.755 E29.6098
G1 X102.561 Y126.357 E31.42298
G1 X103.646 Y123.844 E31.56035
G1 X105.739 Y121.114 E31.73299
G1 X107.385 Y119.219 E31.85896
G1 X109.121 Y117.406 E31.98493
G1 X110.431 Y116.159 E32.0757
G1 X110.431 Y116.159 F7800
G1 X110.669 Y116.409
G1 F1800
G1 X110.939 Y116.152 E32.09441
G1 X112.822 Y114.517 E32.21956
G1 X114.783 Y112.977 E32.34469
G1 X116.817 Y111.536 E32.46979
G1 X118.919 Y110.195 E32.59492
G1 X121.084 Y108.96 E32.72001
G1 X123.589 Y107.699 E32.86076
G1 X125.871 Y106.695 E32.98588
G1 X128.2 Y105.805 E33.11101
G1 X130.272 Y105.121 E33.22051
G1 X132.672 Y104.449 E33.34559
G1 X135.103 Y103.895 E33.47072
G1 X137.866 Y103.415 E33.61146
G1 X140.342 Y103.118 E33.73661
G1 X142.828 Y102.942 E33.86168
G1 X145.381 Y102.89 E33.98983
G1 X147.813 Y102.957 E34.11193
G1 X149.989 Y103.118 E34.22143
G1 X152.464 Y103.415 E34.34653
G1 X154.922 Y103.834 E34.47167
G1 X157.356 Y104.373 E34.59678
G1 X159.761 Y105.031 E34.72191
G1 X162.13 Y105.805 E34.84699
G1 X164.459 Y106.695 E34.97212
G1 X167.023 Y107.832 E35.11288
G1 X169.246 Y108.96 E35.23798
G1 X171.412 Y110.195 E35.36311
G1 X173.514 Y111.536 E35.48824
G1 X175.548 Y112.977 E35.61334
G1 X177.508 Y114.517 E35.73843
G1 X179.16 Y115.942 E35.84792
G1 X180.971 Y117.656 E35.97306
G1 X182.696 Y119.456 E36.09818
G1 X184.33 Y121.339 E36.2233
G1 X186.402 Y124.043 E36.39426
G1 X187.423 Y126.388 E36.52262
G1 X194.773 Y161.269 E38.3116
G1 X194.755 Y163.967 E38.447
G1 X194.26 Y166.136 E38.55865
G1 X193.556 Y168.616 E38.68803
G1 X192.96 Y170.423 E38.78352
G1 X191.9 Y173.205 E38.93293
G1 X191.019 Y175.193 E39.04206
G1 X189.915 Y177.404 E39.16608
G1 X187.451 Y181.548 E39.40804
G1 X185.941 Y183.726 E39.54104
G1 X184.417 Y185.691 E39.66584
G1 X182.799 Y187.578 E39.79059
G1 X181.104 Y189.37 E39.91438
G1 X178.778 Y191.56 E40.07471
G1 X175.305 Y194.384 E40.29935
G1 X171.523 Y196.947 E40.52863
G1 X168.192 Y198.813 E40.72024
G1 X163.041 Y201.102 E41.00312
G1 X159.719 Y202.191 E41.17857
G1 X155.996 Y203.19 E41.37202
G1 X152.751 Y203.756 E41.53733
G1 X150.039 Y204.088 E41.67445
G1 X147.811 Y204.252 E41.78657
G1 X145.01 Y204.327 E41.92719
G1 X140.356 Y204.098 E42.16104
G1 X135.437 Y203.384 E42.41049
G1 X130.611 Y202.191 E42.65998
G1 X127.935 Y201.306 E42.80143
G1 X125.638 Y200.412 E42.92513
G1 X123.405 Y199.415 E43.04786
G1 X121.426 Y198.422 E43.15898
G1 X119.259 Y197.203 E43.28376
G1 X115.934 Y195.029 E43.48313
G1 X112.913 Y192.733 E43.67356
G1 X111.035 Y191.104 E43.79833
G1 X109.24 Y189.384 E43.92309
G1 X107.531 Y187.578 E44.04787
G1 X105.913 Y185.691 E44.17262
G1 X103.138 Y181.948 E44.40646
G1 X101.801 Y179.851 E44.53127
G1 X100.569 Y177.692 E44.65602
G1 X99.311 Y175.193 E44.79643
G1 X98.311 Y172.917 E44.92119
G1 X97.443 Y170.652 E45.04292
G1 X96.42 Y167.387 E45.21463
G1 X95.692 Y164.485 E45.36478
G1 X95.666 Y161.825 E45.49828
G1 X102.899 Y126.426 E47.31152
G1 X103.928 Y124.043 E47.44179
G1 X106 Y121.339 E47.61275
G1 X107.635 Y119.456 E47.7379
G1 X109.359 Y117.656 E47.86298
G1 X110.626 Y116.45 E47.95077
G1 E45.95077 F2400
G92 E0
G1 X110.626 Y116.45 F7800
G1 X110.894 Y181.76
G1 E2 F2400
;TYPE:Support material interface
;WIDTH:0.35
G1 F1800
G1 X112.336 Y183.434 E2.08838
G1 X113.835 Y185.009 E2.17535
G1 X115.41 Y186.509 E2.26235
G1 X117.057 Y187.929 E2.34934
G1 X118.731 Y189.235 E2.43427
G1 E.43427 F2400
G92 E0
G1 X118.731 Y189.235 F7800
G1 X123.514 Y192.321
G1 E2 F2400
G1 F1800
G1 X120.556 Y190.524 E2.13844
G1 X119.424 Y189.727 E2.19382
G1 X109.119 Y179.421 E2.77679
G1 X108.325 Y178.294 E2.83193
G1 X106.524 Y175.332 E2.97059
G1 E.97059 F2400
G92 E0
G1 X106.524 Y175.332 F7800
G1 X104.697 Y171.687
G1 E2 F2400
G1 F1800
G1 X106.102 Y174.586 E2.12886
G1 X124.259 Y192.744 E3.156
G1 X127.154 Y194.143 E3.28461
G1 E1.28461 F2400
G92 E0
G1 X127.154 Y194.143 F7800
G1 X130.219 Y195.386
G1 E2 F2400
G1 F1800
G1 X127.734 Y194.4 E2.10694
G1 X104.44 Y171.106 E3.42465
G1 X103.455 Y168.622 E3.53154
G1 X103.455 Y168.622 F7800
G1 X103.411 Y168.492
G1 F1800
G1 X103.296 Y168.144 E3.5462
G1 X130.697 Y195.545 E5.09623
G1 X133.33 Y196.36 E5.20648
G1 X102.481 Y165.511 E6.95156
G1 X101.883 Y163.095 E7.05112
G1 X135.747 Y196.959 E8.96676
G1 X137.995 Y197.388 E9.0583
G1 X103.183 Y162.577 E11.02754
G1 X105.001 Y162.577 E11.10026
G1 X140.107 Y197.682 E13.08613
G1 X142.108 Y197.865 E13.1665
G1 X106.819 Y162.577 E15.16272
G1 X108.638 Y162.577 E15.23548
G1 X144.016 Y197.956 E17.23679
G1 X145.846 Y197.967 E17.30999
G1 X110.456 Y162.577 E19.31195
G1 X112.274 Y162.577 E19.38467
G1 X147.608 Y197.911 E21.38346
G1 X149.301 Y197.786 E21.45136
G1 X114.092 Y162.577 E23.44308
G1 X115.91 Y162.577 E23.5158
G1 X150.929 Y197.595 E25.49675
G1 X152.51 Y197.358 E25.5607
G1 X117.728 Y162.577 E27.52824
G1 X119.546 Y162.577 E27.60096
G1 X154.048 Y197.079 E29.55269
G1 X155.549 Y196.762 E29.61405
G1 X121.365 Y162.577 E31.54782
G1 X123.183 Y162.577 E31.62054
G1 X156.973 Y196.368 E33.53202
G1 X158.383 Y195.959 E33.59074
G1 X125.001 Y162.577 E35.47911
G1 X126.819 Y162.577 E35.55183
G1 X159.749 Y195.507 E37.41463
G1 X161.104 Y195.044 E37.47191
G1 X128.637 Y162.577 E39.30852
G1 X130.455 Y162.577 E39.38124
G1 X162.376 Y194.498 E41.18696
G1 X163.636 Y193.939 E41.2421
G1 X132.273 Y162.577 E43.01623
G1 X134.092 Y162.577 E43.08899
G1 X164.866 Y193.351 E44.82983
G1 X166.075 Y192.742 E44.88398
G1 X135.91 Y162.577 E46.59037
G1 X137.728 Y162.577 E46.66309
G1 X167.235 Y192.084 E48.33226
G1 X168.396 Y191.427 E48.38562
G1 X139.546 Y162.577 E50.01762
G1 X141.364 Y162.577 E50.09034
G1 X169.491 Y190.703 E51.68142
G1 X170.569 Y189.964 E51.7337
G1 X143.182 Y162.577 E53.28294
G1 X145 Y162.577 E53.35566
G1 X171.633 Y189.209 E54.86222
G1 X172.654 Y188.412 E54.91403
G1 X146.818 Y162.577 E56.37551
G1 X148.637 Y162.577 E56.44827
G1 X173.658 Y187.598 E57.86367
G1 X174.634 Y186.756 E57.91523
G1 X150.455 Y162.577 E59.283
G1 X152.273 Y162.577 E59.35572
G1 X175.578 Y185.882 E60.67405
G1 X176.509 Y184.995 E60.72549
G1 X154.091 Y162.577 E61.99364
G1 X155.909 Y162.577 E62.06636
G1 X177.396 Y184.063 E63.28182
G1 X178.268 Y183.117 E63.33328
G1 X157.727 Y162.577 E64.49523
G1 X159.545 Y162.577 E64.56795
G1 X179.11 Y182.141 E65.67469
G1 X179.923 Y181.136 E65.7264
G1 X161.364 Y162.577 E66.77626
G1 X163.182 Y162.577 E66.84898
G1 X180.72 Y180.115 E67.84108
G1 X181.473 Y179.05 E67.89325
G1 X165 Y162.577 E68.8251
G1 X166.818 Y162.577 E68.89782
G1 X182.211 Y177.97 E69.76858
G1 X182.916 Y176.857 E69.82128
G1 X168.636 Y162.577 E70.62908
G1 X170.454 Y162.577 E70.7018
G1 X183.59 Y175.713 E71.44488
G1 X184.247 Y174.552 E71.49824
G1 X172.272 Y162.577 E72.17565
G1 X174.091 Y162.577 E72.24841
G1 X184.856 Y173.342 E72.85737
G1 X185.444 Y172.113 E72.91187
G1 X175.909 Y162.577 E73.45128
G1 X177.727 Y162.577 E73.524
G1 X186.003 Y170.853 E73.99216
G1 X186.518 Y169.55 E74.0482
G1 X179.545 Y162.577 E74.44265
G1 X181.363 Y162.577 E74.51537
G1 X187.009 Y168.222 E74.83473
G1 X187.46 Y166.856 E74.89227
G1 X183.181 Y162.577 E75.13433
G1 X184.999 Y162.577 E75.20705
G1 X187.868 Y165.445 E75.36932
G1 X188.244 Y164.003 E75.42893
G1 X186.818 Y162.577 E75.5096
G1 X188.564 Y162.577 E75.57944
G1 X188.275 Y163.864 E75.6322
G1 E73.6322 F2400
G92 E0
G1 X188.275 Y163.864 F7800
G1 X110.922 Y126.796
G1 E2 F2400
;TYPE:Perimeter
;WIDTH:0.42
G1 F1800
G1 X111.501 Y126.054 E2.04723
G1 X112.897 Y124.436 E2.15448
G1 X114.371 Y122.888 E2.26175
G1 X115.919 Y121.414 E2.36902
G1 X117.537 Y120.018 E2.47627
G1 X119.248 Y118.684 E2.58515
G1 X120.97 Y117.471 E2.69086
G1 X122.776 Y116.328 E2.79812
G1 X124.636 Y115.274 E2.90541
G1 X126.545 Y114.313 E3.01267
G1 X128.499 Y113.447 E3.11993
G1 X130.494 Y112.677 E3.22725
G1 X132.523 Y112.007 E3.33449
G1 X134.584 Y111.437 E3.44181
G1 X136.669 Y110.968 E3.54906
G1 X138.775 Y110.603 E3.65633
G1 X140.897 Y110.341 E3.76363
G1 X143.028 Y110.184 E3.87087
G1 X145.225 Y110.133 E3.98116
G1 X147.302 Y110.184 E4.08543
G1 X149.434 Y110.341 E4.19272
G1 X151.555 Y110.603 E4.29997
G1 X153.661 Y110.968 E4.40724
G1 X155.747 Y111.437 E4.51454
G1 X157.807 Y112.007 E4.62181
G1 X159.837 Y112.677 E4.72909
G1 X161.831 Y113.447 E4.83636
G1 X163.785 Y114.313 E4.94362
G1 X165.695 Y115.274 E5.05092
G1 X167.554 Y116.328 E5.15817
G1 X169.36 Y117.471 E5.26543
G1 X171.108 Y118.702 E5.37273
G1 X172.793 Y120.017 E5.48
G1 X174.412 Y121.414 E5.58732
G1 X175.96 Y122.888 E5.69459
G1 X177.434 Y124.436 E5.80186
G1 X178.83 Y126.054 E5.90911
G1 X179.409 Y126.796 E5.95634
G1 X110.982 Y126.796 E9.39041
G1 X110.982 Y126.796 F7800
G1 X110.215 Y127.141
G1 F1800
G1 X111.234 Y125.836 E9.4735
G1 X112.641 Y124.204 E9.58164
G1 X114.127 Y122.644 E9.68976
G1 X115.687 Y121.158 E9.79788
G1 X117.318 Y119.751 E9.90598
G1 X119.043 Y118.407 E10.01572
G1 X120.779 Y117.184 E10.12229
G1 X122.599 Y116.032 E10.23039
G1 X124.473 Y114.97 E10.33849
G1 X126.398 Y114.001 E10.44665
G1 X128.367 Y113.128 E10.55474
G1 X130.377 Y112.353 E10.66285
G1 X132.423 Y111.677 E10.77099
G1 X134.5 Y111.102 E10.87915
G1 X136.602 Y110.63 E10.98727
G1 X138.725 Y110.262 E11.0954
G1 X140.863 Y109.998 E11.20351
G1 X143.011 Y109.839 E11.3116
G1 X145.225 Y109.788 E11.42274
G1 X147.319 Y109.839 E11.52786
G1 X149.468 Y109.998 E11.636
G1 X151.606 Y110.262 E11.74411
G1 X153.729 Y110.63 E11.85224
G1 X155.831 Y111.102 E11.96036
G1 X157.907 Y111.677 E12.06847
G1 X159.953 Y112.353 E12.17661
G1 X161.963 Y113.128 E12.28472
G1 X163.933 Y114.001 E12.39286
G1 X165.857 Y114.97 E12.50097
G1 X167.732 Y116.032 E12.60911
G1 X169.552 Y117.184 E12.71721
G1 X171.313 Y118.425 E12.82533
