; generated by PrusaSlicer 2.7.2+win64 on 2024-03-31 at 03:08:26 UTC

; 

; external perimeters extrusion width = 0.45mm
; perimeters extrusion width = 0.45mm
; infill extrusion width = 0.45mm
; solid infill extrusion width = 0.45mm
; top infill extrusion width = 0.40mm
; support material extrusion width = 0.35mm
; first layer extrusion width = 0.42mm

; external perimeters extrusion width = 0.45mm
; perimeters extrusion width = 0.45mm
; infill extrusion width = 0.45mm
; solid infill extrusion width = 0.45mm
; top infill extrusion width = 0.40mm
; support material extrusion width = 0.35mm
; first layer extrusion width = 0.42mm

;TYPE:Custom
M107
M191 S50     ; set chamber temperature and wait for it to be reached
;M109 S120   ; set temp and wait for it to be reached
M104 S150    ; Start heating the extruder.
M140 S70 ; heat bed
M190 S70 ; wait for the bed to heat up
G28          ; home all axes

G29 ; Z-Probe the bed (requires Z-Probe!) - auto bed level

M109 S215 ; Heat up the extruder

G1 Y288 Z0.3 F9000  ; move forward off front of bed
G1 X10 Z10          ; move left to clear heater
G1 Z0.4 F300        ; position nozzle 
G92 E0              ; zero extruder
G1 E25 F225         ; purge nozzle
G92 E0              ; zero extruder

G1 Y265 Z0.2 E1.0 F600 ; slow wipe
G1 Y260 Z0.25          ; lift
G92 E0 
G1 E-1.0
G21 ; set units to millimeters
G90 ; use absolute coordinates
M82 ; use absolute distances for extrusion
G92 E0
; Filament gcode
M107
;LAYER_CHANGE
;Z:0.35
;HEIGHT:0.35
G1 E-2 F2400
G1 Z.35 F7800
G1 X65.288 Y103.99
G1 E0 F2400
;TYPE:Skirt/Brim
;WIDTH:0.42
G1 F1800
G1 X66.33 Y103.336 E.06174
G1 X68.501 Y102.116 E.18672
G1 X72.489 Y100.222 E.40829
G1 X75.092 Y99.195 E.54872
G1 X77.482 Y98.396 E.67519
G1 X80.641 Y97.542 E.83942
G1 X83.95 Y96.872 E1.00886
G1 X87.597 Y96.379 E1.19355
G1 X89.59 Y96.225 E1.29387
G1 X92.55 Y96.133 E1.44249
G1 X187.623 Y96.135 E6.21382
G1 X192.31 Y96.365 E6.44932
G1 X195.824 Y96.832 E6.62722
G1 X197.635 Y97.155 E6.71954
G1 X200.977 Y97.963 E6.89209
G1 X204.126 Y98.927 E7.05736
G1 X207.937 Y100.366 E7.2618
G1 X211.499 Y102.116 E7.46097
G1 X213.992 Y103.528 E7.60476
G1 X216.116 Y104.884 E7.73123
G1 X217.974 Y106.196 E7.84538
G1 X219.886 Y107.68 E7.96685
G1 X221.8 Y109.319 E8.09331
G1 X223.875 Y111.295 E8.23711
G1 X225.374 Y112.87 E8.34623
G1 X227.027 Y114.773 E8.47273
G1 X229.092 Y117.468 E8.64312
G1 X231.397 Y120.934 E8.85202
G1 X232.809 Y123.427 E8.99581
G1 X233.934 Y125.681 E9.12224
G1 X234.816 Y127.67 E9.23143
G1 X235.871 Y130.416 E9.37906
G1 X236.184 Y133.395 E9.52939
G1 X231.903 Y172.147 E11.48603
G1 X230.854 Y175.138 E11.6451
G1 X228.904 Y178.002 E11.81899
G1 X227.356 Y179.999 E11.9458
G1 X225.712 Y181.918 E12.07262
G1 X223.732 Y183.998 E12.21674
G1 X222.152 Y185.502 E12.32621
G1 X220.244 Y187.159 E12.45303
G1 X218.257 Y188.721 E12.57987
G1 X216.196 Y190.183 E12.70668
G1 X213.769 Y191.719 E12.85082
G1 X211.567 Y192.958 E12.97762
G1 X209.262 Y194.105 E13.10683
G1 X206.992 Y195.102 E13.23126
G1 X204.957 Y195.888 E13.34074
G1 X202.56 Y196.688 E13.46756
G1 X199.792 Y197.454 E13.6117
G1 X197.325 Y198 E13.7385
G1 X194.833 Y198.423 E13.86535
G1 X192.324 Y198.724 E13.99217
G1 X190.149 Y198.885 E14.10162
G1 X187.45 Y198.958 E14.23712
G1 X92.55 Y198.958 E18.99976
G1 X89.851 Y198.885 E19.13526
G1 X87.332 Y198.691 E19.26205
G1 X84.767 Y198.363 E19.39183
G1 X82.337 Y197.932 E19.51569
G1 X80.208 Y197.454 E19.6252
G1 X77.771 Y196.789 E19.75197
G1 X75.369 Y196.004 E19.87879
G1 X73.008 Y195.102 E20.00563
G1 X70.382 Y193.939 E20.14976
G1 X68.129 Y192.795 E20.27657
G1 X65.935 Y191.542 E20.40337
G1 X63.804 Y190.183 E20.53021
G1 X61.743 Y188.721 E20.65702
G1 X59.756 Y187.159 E20.78386
G1 X58.104 Y185.734 E20.89335
G1 X56.268 Y183.998 E21.02016
G1 X54.52 Y182.174 E21.14695
G1 X52.644 Y179.999 E21.2911
G1 X51.096 Y178.002 E21.41791
G1 X49.146 Y175.138 E21.5918
G1 X48.097 Y172.147 E21.75087
G1 X43.816 Y133.395 E23.70751
G1 X44.129 Y130.416 E23.85784
G1 X45.184 Y127.67 E24.00547
G1 X46.213 Y125.37 E24.13192
G1 X47.354 Y123.122 E24.25844
G1 X49.697 Y119.215 E24.48707
G1 X51.211 Y117.031 E24.62044
G1 X52.754 Y115.039 E24.74689
G1 X54.394 Y113.126 E24.87335
G1 X56.113 Y111.307 E24.99895
G1 X59.465 Y108.228 E25.22737
G1 X62.014 Y106.206 E25.39065
G1 X64.171 Y104.692 E25.52291
G1 X65.237 Y104.022 E25.5861
G1 X65.237 Y104.022 F7800
G1 X65.42 Y104.314
G1 F1800
G1 X66.5 Y103.636 E25.6501
G1 X68.656 Y102.424 E25.77423
G1 X72.628 Y100.538 E25.9949
G1 X75.216 Y99.516 E26.13454
G1 X77.59 Y98.723 E26.26015
G1 X80.717 Y97.879 E26.4227
G1 X84.012 Y97.211 E26.59143
G1 X87.637 Y96.721 E26.77501
G1 X89.616 Y96.569 E26.87462
G1 X92.55 Y96.478 E27.02194
G1 X187.614 Y96.48 E31.79281
G1 X192.285 Y96.709 E32.02751
G1 X195.544 Y97.138 E32.19248
G1 X198.335 Y97.666 E32.33503
G1 X202.41 Y98.723 E32.54631
G1 X204.291 Y99.352 E32.64585
G1 X208.45 Y100.967 E32.86976
G1 X211.344 Y102.424 E33.03237
G1 X213.526 Y103.651 E33.158
G1 X217.076 Y105.982 E33.37113
G1 X219.928 Y108.16 E33.55122
G1 X221.818 Y109.801 E33.67684
G1 X223.393 Y111.3 E33.78596
G1 X225.125 Y113.108 E33.91161
G1 X226.766 Y114.998 E34.03723
G1 X228.817 Y117.677 E34.20656
G1 X231.106 Y121.118 E34.41397
G1 X232.501 Y123.582 E34.55607
G1 X233.479 Y125.524 E34.66519
G1 X234.5 Y127.809 E34.79079
G1 X235.544 Y130.524 E34.93677
G1 X235.841 Y133.357 E35.07973
G1 X231.56 Y172.109 E37.03637
G1 X230.563 Y174.953 E37.18761
G1 X228.622 Y177.803 E37.36066
G1 X227.084 Y179.787 E37.48664
G1 X225.451 Y181.693 E37.6126
G1 X223.494 Y183.748 E37.75502
G1 X221.914 Y185.253 E37.86453
G1 X220.018 Y186.898 E37.9905
G1 X218.045 Y188.449 E38.11645
G1 X215.997 Y189.901 E38.24244
G1 X213.599 Y191.419 E38.38487
G1 X211.411 Y192.649 E38.51084
G1 X209.166 Y193.771 E38.63679
G1 X207.171 Y194.655 E38.7463
G1 X204.523 Y195.676 E38.88873
G1 X202.137 Y196.456 E39.01471
G1 X199.716 Y197.118 E39.14067
G1 X197.266 Y197.66 E39.2666
G1 X194.791 Y198.081 E39.39259
G1 X192.626 Y198.348 E39.50207
G1 X190.123 Y198.541 E39.62806
G1 X187.45 Y198.613 E39.76226
G1 X92.55 Y198.613 E44.5249
G1 X89.877 Y198.541 E44.6591
G1 X87.374 Y198.348 E44.78509
G1 X84.826 Y198.023 E44.914
G1 X82.412 Y197.596 E45.03703
G1 X80.284 Y197.118 E45.14649
G1 X77.863 Y196.456 E45.27245
G1 X75.477 Y195.676 E45.39843
G1 X73.132 Y194.781 E45.5244
G1 X70.537 Y193.63 E45.66687
G1 X68.299 Y192.495 E45.7928
G1 X66.119 Y191.25 E45.91879
G1 X64.003 Y189.901 E46.04473
G1 X61.955 Y188.449 E46.17072
G1 X59.982 Y186.898 E46.29667
G1 X58.086 Y185.253 E46.42264
G1 X56.506 Y183.748 E46.53215
G1 X54.549 Y181.693 E46.67457
G1 X52.916 Y179.787 E46.80053
G1 X51.378 Y177.803 E46.92651
G1 X49.437 Y174.953 E47.09956
G1 X48.44 Y172.109 E47.2508
G1 X44.159 Y133.357 E49.20744
G1 X44.456 Y130.524 E49.3504
G1 X45.5 Y127.809 E49.49638
G1 X46.521 Y125.525 E49.62194
G1 X47.654 Y123.292 E49.74761
G1 X49.981 Y119.409 E49.9748
G1 X51.493 Y117.23 E50.1079
G1 X53.026 Y115.252 E50.23349
G1 X54.655 Y113.351 E50.35913
G1 X56.363 Y111.545 E50.48388
G1 X59.69 Y108.49 E50.71056
G1 X62.213 Y106.487 E50.87223
G1 X64.355 Y104.983 E51.00358
G1 X65.369 Y104.346 E51.06368
G1 X65.369 Y104.346 F7800
G1 X65.555 Y104.637
G1 F1800
G1 X66.484 Y104.046 E51.11894
G1 X68.536 Y102.879 E51.23741
G1 X71.333 Y101.492 E51.39409
G1 X72.998 Y100.756 E51.48545
G1 X75.34 Y99.838 E51.61169
G1 X77.996 Y98.961 E51.75206
G1 X80.792 Y98.215 E51.89729
G1 X84.964 Y97.396 E52.11066
G1 X87.677 Y97.064 E52.24783
G1 X89.905 Y96.899 E52.35995
G1 X92.55 Y96.823 E52.49275
G1 X187.606 Y96.825 E57.26322
G1 X192.26 Y97.053 E57.49707
G1 X195.497 Y97.479 E57.66092
G1 X198.259 Y98.002 E57.802
G1 X202.302 Y99.051 E58.01162
G1 X204.169 Y99.674 E58.1104
G1 X208.295 Y101.275 E58.33251
G1 X211.189 Y102.732 E58.49512
G1 X213.356 Y103.951 E58.6199
G1 X216.877 Y106.263 E58.83129
G1 X219.703 Y108.421 E59.00974
G1 X221.58 Y110.051 E59.1345
G1 X223.155 Y111.55 E59.24362
G1 X224.875 Y113.346 E59.36842
G1 X226.504 Y115.223 E59.49315
G1 X228.542 Y117.885 E59.6614
G1 X230.814 Y121.303 E59.86737
G1 X232.193 Y123.737 E60.00777
G1 X233.171 Y125.679 E60.11689
G1 X234.185 Y127.949 E60.24166
G1 X235.216 Y130.633 E60.38595
G1 X235.498 Y133.319 E60.52149
G1 X231.217 Y172.071 E62.47813
G1 X230.271 Y174.769 E62.62161
G1 X228.34 Y177.604 E62.79376
G1 X226.615 Y179.815 E62.9345
G1 X225.19 Y181.467 E63.04399
G1 X223.476 Y183.278 E63.16913
G1 X221.676 Y185.003 E63.29425
G1 X219.793 Y186.637 E63.41937
G1 X217.583 Y188.362 E63.56007
G1 X215.54 Y189.792 E63.68522
G1 X213.696 Y190.959 E63.79474
G1 X211.531 Y192.195 E63.91985
G1 X209.026 Y193.455 E64.06057
G1 X206.744 Y194.459 E64.18569
G1 X204.365 Y195.365 E64.31345
G1 X202.045 Y196.124 E64.43595
G1 X199.943 Y196.706 E64.54541
G1 X197.512 Y197.259 E64.67053
G1 X195.057 Y197.693 E64.79565
G1 X192.274 Y198.036 E64.93637
G1 X189.787 Y198.212 E65.06149
G1 X187.45 Y198.268 E65.17881
G1 X92.55 Y198.268 E69.94145
G1 X89.902 Y198.197 E70.07439
G1 X87.416 Y198.006 E70.19952
G1 X84.885 Y197.683 E70.32757
G1 X82.488 Y197.259 E70.44973
G1 X80.359 Y196.781 E70.55924
G1 X77.955 Y196.124 E70.68431
G1 X75.585 Y195.349 E70.80945
G1 X73.256 Y194.459 E70.93458
G1 X70.692 Y193.322 E71.07534
G1 X68.469 Y192.195 E71.20042
G1 X66.304 Y190.959 E71.32553
G1 X64.201 Y189.619 E71.45068
G1 X62.168 Y188.177 E71.57577
G1 X60.207 Y186.637 E71.7009
G1 X58.555 Y185.212 E71.81039
G1 X56.744 Y183.498 E71.93553
G1 X55.019 Y181.698 E72.06065
G1 X53.188 Y179.575 E72.20135
G1 X51.66 Y177.604 E72.32651
G1 X49.729 Y174.769 E72.49866
G1 X48.783 Y172.071 E72.64214
G1 X44.502 Y133.319 E74.59878
G1 X44.784 Y130.633 E74.73432
G1 X45.815 Y127.949 E74.87861
G1 X46.829 Y125.68 E75.00334
G1 X47.954 Y123.462 E75.12815
G1 X50.266 Y119.604 E75.35387
G1 X51.775 Y117.428 E75.48676
G1 X53.496 Y115.223 E75.62714
G1 X54.916 Y113.576 E75.73628
G1 X56.613 Y111.783 E75.86018
G1 X60.061 Y108.629 E76.0947
G1 X62.181 Y106.942 E76.23067
G1 X64.281 Y105.448 E76.36001
G1 X65.504 Y104.669 E76.43278
G1 E74.43278 F2400
G92 E0
G1 X65.504 Y104.669 F7800
G1 X221.736 Y119.414
G1 E2 F2400
;TYPE:Support material interface
;WIDTH:0.35
G1 F1800
G1 X220.28 Y117.721 E2.08932
G1 X218.78 Y116.145 E2.17635
G1 X217.205 Y114.646 E2.26332
G1 X215.558 Y113.225 E2.35033
G1 X213.9 Y111.931 E2.43446
G1 E.43446 F2400
G92 E0
G1 X213.9 Y111.931 F7800
G1 X209.109 Y108.837
G1 E2 F2400
G1 F1800
G1 X212.066 Y110.635 E2.13843
G1 X213.202 Y111.435 E2.19401
G1 X223.489 Y121.722 E2.77593
G1 X224.29 Y122.86 E2.8316
G1 X226.087 Y125.815 E2.96994
G1 E.96994 F2400
G92 E0
G1 X226.087 Y125.815 F7800
G1 X227.915 Y129.462
G1 E2 F2400
G1 F1800
G1 X226.509 Y126.56 E2.12899
G1 X208.363 Y108.414 E3.15548
G1 X205.382 Y106.928 E3.28871
G1 X205.382 Y106.928 F7800
G1 X204.882 Y106.752
G1 F1800
G1 X228.173 Y130.042 E4.60622
G1 X229.192 Y132.623 E4.71721
G1 X228.935 Y132.623 E4.72749
G1 X201.919 Y105.607 E6.25575
G1 X199.286 Y104.792 E6.366
G1 X227.117 Y132.623 E7.94036
G1 X225.299 Y132.623 E8.01308
G1 X196.869 Y104.193 E9.62132
G1 X194.621 Y103.764 E9.71286
G1 X223.481 Y132.623 E11.3454
G1 X221.663 Y132.623 E11.41812
G1 X192.509 Y103.469 E13.06732
G1 X190.508 Y103.286 E13.14769
G1 X219.844 Y132.623 E14.80721
G1 X218.026 Y132.623 E14.87993
G1 X188.599 Y103.196 E16.54457
G1 X187.45 Y103.168 E16.59054
G1 X186.77 Y103.184 E16.61775
G1 X216.208 Y132.623 E18.28304
G1 X214.39 Y132.623 E18.35576
G1 X185.008 Y103.241 E20.01786
G1 X183.315 Y103.366 E20.08576
G1 X212.572 Y132.623 E21.74079
G1 X210.754 Y132.623 E21.81351
G1 X181.687 Y103.556 E23.45779
G1 X180.106 Y103.793 E23.52174
G1 X208.936 Y132.623 E25.15261
G1 X207.117 Y132.623 E25.22537
G1 X178.567 Y104.073 E26.8404
G1 X177.083 Y104.406 E26.90124
G1 X205.299 Y132.623 E28.49741
G1 X203.481 Y132.623 E28.57013
G1 X175.642 Y104.784 E30.14494
G1 X174.233 Y105.193 E30.20363
G1 X201.663 Y132.623 E31.75531
G1 X199.845 Y132.623 E31.82803
G1 X172.867 Y105.644 E33.35416
G1 X171.541 Y106.137 E33.41075
G1 X198.027 Y132.623 E34.90902
G1 X196.209 Y132.623 E34.98174
G1 X170.239 Y106.654 E36.4508
G1 X168.98 Y107.212 E36.50588
G1 X194.391 Y132.623 E37.94334
G1 X192.572 Y132.623 E38.0161
G1 X167.751 Y107.802 E39.42019
G1 X166.543 Y108.411 E39.4743
G1 X190.754 Y132.623 E40.84391
G1 X188.936 Y132.623 E40.91663
G1 X165.382 Y109.069 E42.24905
G1 X164.24 Y109.745 E42.30213
G1 X187.118 Y132.623 E43.59631
G1 X185.3 Y132.623 E43.66903
G1 X163.127 Y110.45 E44.92332
G1 X162.048 Y111.189 E44.97563
G1 X183.482 Y132.623 E46.18812
G1 X181.664 Y132.623 E46.26084
G1 X160.984 Y111.944 E47.43065
G1 X159.963 Y112.74 E47.48244
G1 X179.845 Y132.623 E48.60716
G1 X178.027 Y132.623 E48.67988
G1 X158.96 Y113.555 E49.7585
G1 X157.983 Y114.397 E49.81009
G1 X176.209 Y132.623 E50.84111
G1 X174.391 Y132.623 E50.91383
G1 X157.039 Y115.271 E51.89541
G1 X156.108 Y116.158 E51.94685
G1 X172.573 Y132.623 E52.87825
G1 X170.755 Y132.623 E52.95097
G1 X155.221 Y117.089 E53.82971
G1 X154.349 Y118.035 E53.88117
G1 X168.937 Y132.623 E54.70639
G1 X167.118 Y132.623 E54.77915
G1 X153.507 Y119.011 E55.54913
G1 X152.694 Y120.016 E55.60084
G1 X165.3 Y132.623 E56.31397
G1 X163.482 Y132.623 E56.38669
G1 X151.897 Y121.037 E57.04206
G1 X151.143 Y122.102 E57.09426
G1 X161.664 Y132.623 E57.68942
G1 X159.846 Y132.623 E57.76214
G1 X150.406 Y123.183 E58.29615
G1 X149.701 Y124.296 E58.34885
G1 X158.028 Y132.623 E58.8199
G1 X156.21 Y132.623 E58.89262
G1 X149.026 Y125.439 E59.29901
G1 X148.369 Y126.6 E59.35237
G1 X154.391 Y132.623 E59.69305
G1 X152.573 Y132.623 E59.76577
G1 X147.76 Y127.81 E60.03803
G1 X147.172 Y129.039 E60.09253
G1 X150.755 Y132.623 E60.29524
G1 X148.937 Y132.623 E60.36796
G1 X146.613 Y130.299 E60.49943
G1 X146.098 Y131.602 E60.55547
G1 X147.119 Y132.623 E60.61323
G1 X145.708 Y132.623 E60.66967
G1 X146.047 Y131.735 E60.70769
G1 E58.70769 F2400
G92 E0
G1 X146.047 Y131.735 F7800
G1 X151.667 Y172.274
G1 E2 F2400
;TYPE:Perimeter
;WIDTH:0.42
G1 F1800
G1 X223.233 Y172.274 E5.5916
G1 X222.43 Y173.415 E5.66162
G1 X221.115 Y175.1 E5.76889
G1 X219.718 Y176.719 E5.87621
G1 X218.244 Y178.267 E5.98348
G1 X216.696 Y179.741 E6.09075
G1 X215.078 Y181.137 E6.198
G1 X213.365 Y182.472 E6.30699
G1 X211.645 Y183.683 E6.41256
G1 X209.839 Y184.827 E6.51985
G1 X207.979 Y185.88 E6.62712
G1 X206.07 Y186.841 E6.73438
G1 X204.116 Y187.707 E6.84164
G1 X202.072 Y188.493 E6.95154
G1 X200.092 Y189.147 E7.05619
G1 X198.032 Y189.717 E7.16346
G1 X195.89 Y190.196 E7.27361
G1 X193.84 Y190.551 E7.37802
G1 X191.719 Y190.813 E7.48527
G1 X189.587 Y190.97 E7.59256
G1 X187.45 Y191.023 E7.69984
G1 X185.313 Y190.97 E7.80712
G1 X183.181 Y190.813 E7.91441
G1 X181.06 Y190.551 E8.02166
G1 X178.954 Y190.186 E8.12893
G1 X176.868 Y189.718 E8.23622
G1 X174.808 Y189.147 E8.3435
G1 X172.778 Y188.477 E8.45078
G1 X170.784 Y187.708 E8.55803
G1 X168.83 Y186.841 E8.66531
G1 X166.921 Y185.88 E8.77257
G1 X165.061 Y184.827 E8.87984
G1 X163.255 Y183.683 E8.98713
G1 X161.507 Y182.452 E9.09443
G1 X159.822 Y181.137 E9.2017
G1 X158.204 Y179.741 E9.30895
G1 X156.641 Y178.251 E9.41732
G1 X155.182 Y176.719 E9.52349
G1 X153.785 Y175.1 E9.63081
G1 X152.47 Y173.415 E9.73808
G1 X151.702 Y172.323 E9.80508
G1 X151.702 Y172.323 F7800
G1 X151.002 Y171.929
G1 F1800
G1 X223.898 Y171.929 E13.46343
G1 X222.707 Y173.62 E13.56723
G1 X221.381 Y175.319 E13.67539
G1 X219.974 Y176.95 E13.78349
G1 X218.488 Y178.511 E13.89165
G1 X216.928 Y179.996 E13.99974
G1 X215.297 Y181.404 E14.10787
G1 X213.57 Y182.749 E14.21772
G1 X211.837 Y183.97 E14.32411
G1 X210.016 Y185.123 E14.43228
G1 X208.142 Y186.185 E14.54038
G1 X206.218 Y187.153 E14.64847
G1 X204.248 Y188.026 E14.75661
G1 X202.188 Y188.818 E14.86737
G1 X200.192 Y189.478 E14.97288
G1 X198.116 Y190.052 E15.08097
G1 X195.957 Y190.534 E15.19199
G1 X193.891 Y190.893 E15.29723
G1 X191.752 Y191.156 E15.40539
G1 X189.604 Y191.315 E15.51348
G1 X187.45 Y191.368 E15.62161
G1 X185.296 Y191.315 E15.72974
G1 X183.148 Y191.156 E15.83783
G1 X181.009 Y190.893 E15.94599
G1 X178.886 Y190.524 E16.05413
G1 X176.784 Y190.052 E16.16225
G1 X174.708 Y189.478 E16.27034
G1 X172.662 Y188.802 E16.37848
G1 X170.652 Y188.026 E16.48661
G1 X168.682 Y187.153 E16.59475
G1 X166.758 Y186.185 E16.70284
G1 X164.883 Y185.123 E16.81098
G1 X163.063 Y183.97 E16.9191
G1 X161.302 Y182.729 E17.02722
