; generated by PrusaSlicer 2.7.2+win64 on 2024-04-09 at 16:56:08 UTC

; 

; external perimeters extrusion width = 0.45mm
; perimeters extrusion width = 0.45mm
; infill extrusion width = 0.45mm
; solid infill extrusion width = 0.45mm
; top infill extrusion width = 0.40mm
; support material extrusion width = 0.35mm
; first layer extrusion width = 0.42mm

;TYPE:Custom
M107
M191 S50     ; set chamber temperature and wait for it to be reached
;M109 S120   ; set temp and wait for it to be reached
M104 S150    ; Start heating the extruder.
M140 S70 ; heat bed
M190 S70 ; wait for the bed to heat up
G28          ; home all axes

G29 ; Z-Probe the bed (requires Z-Probe!) - auto bed level

M109 S215 ; Heat up the extruder

G1 Y288 Z0.3 F9000  ; move forward off front of bed
G1 X10 Z10          ; move left to clear heater
G1 Z0.4 F300        ; position nozzle 
G92 E0              ; zero extruder
G1 E25 F225         ; purge nozzle
G92 E0              ; zero extruder

G1 Y265 Z0.2 E1.0 F600 ; slow wipe
G1 Y260 Z0.25          ; lift
G92 E0 
G1 E-1.0
G21 ; set units to millimeters
G90 ; use absolute coordinates
M82 ; use absolute distances for extrusion
G92 E0
; Filament gcode
M107
;LAYER_CHANGE
;Z:0.35
;HEIGHT:0.35
G1 E-2 F2400
G1 Z.35 F7800
G1 X109.819 Y117.118
G1 E0 F2400
;TYPE:Skirt/Brim
;WIDTH:0.42
G1 F1800
G1 X111.502 Y115.678 E.11116
G1 X113.253 Y114.321 E.22234
G1 X115.069 Y113.053 E.3335
G1 X116.945 Y111.875 E.44467
G1 X118.877 Y110.79 E.55587
G1 X120.859 Y109.802 E.66701
G1 X122.888 Y108.912 E.7782
G1 X124.958 Y108.123 E.88938
G1 X127.064 Y107.436 E1.00055
G1 X129.201 Y106.853 E1.11172
G1 X131.364 Y106.376 E1.22288
G1 X133.548 Y106.006 E1.33405
G1 X135.748 Y105.743 E1.44525
G1 X137.958 Y105.588 E1.55643
G1 X140.224 Y105.544 E1.67017
G1 X142.387 Y105.605 E1.77877
G1 X144.595 Y105.777 E1.88992
G1 X146.793 Y106.056 E2.00111
G1 X148.974 Y106.443 E2.11228
G1 X151.134 Y106.937 E2.22348
G1 X153.266 Y107.536 E2.33462
G1 X155.367 Y108.239 E2.44581
G1 X157.431 Y109.044 E2.55699
G1 X159.453 Y109.949 E2.66817
G1 X161.428 Y110.953 E2.77936
G1 X163.351 Y112.052 E2.89052
G1 X165.218 Y113.245 E3.00171
G1 X167.024 Y114.527 E3.11286
G1 X168.765 Y115.897 E3.22404
G1 X170.437 Y117.35 E3.33521
G1 X172.036 Y118.884 E3.44641
G1 X173.557 Y120.494 E3.55756
G1 X174.997 Y122.177 E3.66872
G1 X176.354 Y123.928 E3.7799
G1 X177.622 Y125.744 E3.89106
G1 X178.8 Y127.62 E4.00223
G1 X179.885 Y129.552 E4.11343
G1 X180.873 Y131.534 E4.22457
G1 X181.763 Y133.563 E4.33576
G1 X182.552 Y135.633 E4.44694
G1 X183.239 Y137.739 E4.55811
G1 X183.822 Y139.876 E4.66928
G1 X184.299 Y142.039 E4.78044
G1 X184.669 Y144.223 E4.89161
G1 X184.932 Y146.423 E5.00281
G1 X185.087 Y148.633 E5.11399
G1 X185.133 Y150.848 E5.22518
G1 X185.07 Y153.062 E5.33634
G1 X184.898 Y155.271 E5.44754
G1 X184.619 Y157.468 E5.55868
G1 X184.232 Y159.649 E5.66985
G1 X183.738 Y161.809 E5.78105
G1 X183.139 Y163.942 E5.89224
G1 X182.436 Y166.042 E6.00338
G1 X181.631 Y168.106 E6.11456
G1 X180.726 Y170.128 E6.22574
G1 X179.722 Y172.103 E6.33693
G1 X178.623 Y174.026 E6.44809
G1 X177.43 Y175.893 E6.55928
G1 X176.148 Y177.699 E6.67043
G1 X174.778 Y179.44 E6.78161
G1 X173.325 Y181.112 E6.89278
G1 X171.791 Y182.711 E7.00398
G1 X170.181 Y184.232 E7.11513
G1 X168.498 Y185.672 E7.22629
G1 X166.747 Y187.029 E7.33747
G1 X164.931 Y188.297 E7.44863
G1 X163.055 Y189.475 E7.5598
G1 X161.123 Y190.56 E7.671
G1 X159.141 Y191.548 E7.78214
G1 X157.112 Y192.438 E7.89333
G1 X155.042 Y193.227 E8.00451
G1 X152.936 Y193.914 E8.11568
G1 X150.799 Y194.497 E8.22685
G1 X148.636 Y194.974 E8.33801
G1 X146.452 Y195.344 E8.44918
G1 X144.252 Y195.607 E8.56038
G1 X142.042 Y195.762 E8.67156
G1 X139.827 Y195.808 E8.78275
G1 X137.613 Y195.745 E8.89391
G1 X135.404 Y195.573 E9.00511
G1 X133.207 Y195.294 E9.11625
G1 X131.026 Y194.907 E9.22742
G1 X128.866 Y194.413 E9.33862
G1 X126.733 Y193.814 E9.44981
G1 X124.633 Y193.111 E9.56095
G1 X122.569 Y192.306 E9.67213
G1 X120.547 Y191.401 E9.78331
G1 X118.572 Y190.397 E9.8945
G1 X116.649 Y189.298 E10.00566
G1 X114.782 Y188.105 E10.11685
G1 X112.976 Y186.823 E10.228
G1 X111.235 Y185.453 E10.33918
G1 X109.563 Y184 E10.45035
G1 X107.964 Y182.466 E10.56155
G1 X106.443 Y180.856 E10.6727
G1 X105.003 Y179.173 E10.78386
G1 X103.646 Y177.422 E10.89504
G1 X102.378 Y175.606 E11.0062
G1 X101.2 Y173.73 E11.11737
G1 X100.115 Y171.798 E11.22857
G1 X99.127 Y169.816 E11.33971
G1 X98.237 Y167.787 E11.4509
G1 X97.448 Y165.717 E11.56208
G1 X96.761 Y163.611 E11.67325
G1 X96.178 Y161.474 E11.78442
G1 X95.701 Y159.311 E11.89558
G1 X95.331 Y157.127 E12.00675
G1 X95.068 Y154.927 E12.11795
G1 X94.913 Y152.717 E12.22913
G1 X94.867 Y150.502 E12.34032
G1 X94.93 Y148.288 E12.45148
G1 X95.102 Y146.08 E12.56263
G1 X95.381 Y143.882 E12.67382
G1 X95.768 Y141.701 E12.78499
G1 X96.262 Y139.541 E12.89619
G1 X96.861 Y137.409 E13.00733
G1 X97.564 Y135.308 E13.11852
G1 X98.369 Y133.244 E13.2297
G1 X99.274 Y131.222 E13.34088
G1 X100.278 Y129.248 E13.45202
G1 X101.377 Y127.324 E13.56322
G1 X102.57 Y125.457 E13.67441
G1 X103.852 Y123.651 E13.78556
G1 X105.222 Y121.91 E13.89674
G1 X106.675 Y120.238 E14.00791
G1 X108.208 Y118.639 E14.11908
G1 X109.775 Y117.159 E14.22725
G1 X109.775 Y117.159 F7800
G1 X110.012 Y117.41
G1 F1800
G1 X110.044 Y117.379 E14.22949
G1 X111.714 Y115.949 E14.33983
G1 X113.452 Y114.603 E14.45015
G1 X115.254 Y113.344 E14.56047
G1 X117.115 Y112.175 E14.67076
G1 X119.032 Y111.098 E14.78111
G1 X120.999 Y110.117 E14.89142
G1 X123.012 Y109.234 E15.00174
G1 X125.066 Y108.45 E15.11208
G1 X127.156 Y107.768 E15.22241
G1 X129.277 Y107.19 E15.33274
G1 X131.423 Y106.716 E15.44303
G1 X133.591 Y106.348 E15.55339
G1 X135.773 Y106.087 E15.66368
G1 X137.966 Y105.933 E15.77401
G1 X140.216 Y105.889 E15.88695
G1 X142.362 Y105.949 E15.99469
G1 X144.553 Y106.119 E16.10498
G1 X146.734 Y106.396 E16.21531
G1 X148.899 Y106.78 E16.32566
G1 X151.042 Y107.269 E16.43597
G1 X153.158 Y107.863 E16.54627
G1 X155.243 Y108.561 E16.65662
G1 X157.291 Y109.359 E16.76693
G1 X159.298 Y110.258 E16.8773
G1 X161.258 Y111.253 E16.98761
G1 X163.166 Y112.344 E17.09791
G1 X165.019 Y113.526 E17.20821
G1 X166.812 Y114.799 E17.31857
G1 X168.54 Y116.158 E17.4289
G1 X170.199 Y117.6 E17.53921
G1 X171.786 Y119.121 E17.64953
G1 X173.296 Y120.719 E17.75987
G1 X174.726 Y122.389 E17.87021
G1 X176.072 Y124.127 E17.98053
G1 X177.331 Y125.929 E18.09085
G1 X178.5 Y127.79 E18.20114
G1 X179.577 Y129.707 E18.31149
G1 X180.558 Y131.674 E18.4218
G1 X181.441 Y133.687 E18.53212
G1 X182.225 Y135.741 E18.64246
G1 X182.907 Y137.831 E18.75279
G1 X183.485 Y139.952 E18.86312
G1 X183.959 Y142.098 E18.97341
G1 X184.327 Y144.266 E19.08377
G1 X184.588 Y146.448 E19.19406
G1 X184.742 Y148.641 E19.30439
G1 X184.788 Y150.839 E19.41472
G1 X184.726 Y153.037 E19.52507
G1 X184.556 Y155.228 E19.63536
G1 X184.279 Y157.409 E19.74569
G1 X183.895 Y159.574 E19.85604
G1 X183.406 Y161.717 E19.96635
G1 X182.812 Y163.833 E20.07665
G1 X182.114 Y165.918 E20.187
G1 X181.316 Y167.966 E20.29731
G1 X180.417 Y169.973 E20.40768
G1 X179.422 Y171.933 E20.51799
G1 X178.331 Y173.841 E20.62829
G1 X177.148 Y175.694 E20.73862
G1 X175.876 Y177.487 E20.84895
G1 X174.517 Y179.215 E20.95928
G1 X173.075 Y180.874 E21.06959
G1 X171.554 Y182.461 E21.17991
G1 X169.956 Y183.971 E21.29025
G1 X168.286 Y185.401 E21.40059
G1 X166.548 Y186.747 E21.51091
G1 X164.746 Y188.006 E21.62123
G1 X162.885 Y189.175 E21.73152
G1 X160.968 Y190.252 E21.84187
G1 X159.001 Y191.233 E21.95218
G1 X156.988 Y192.116 E22.0625
G1 X154.934 Y192.9 E22.17284
G1 X152.844 Y193.582 E22.28317
G1 X150.723 Y194.16 E22.3935
G1 X148.577 Y194.634 E22.50379
G1 X146.409 Y195.002 E22.61415
G1 X144.227 Y195.263 E22.72444
G1 X142.034 Y195.417 E22.83477
G1 X139.836 Y195.463 E22.9451
G1 X137.638 Y195.401 E23.05545
G1 X135.447 Y195.231 E23.16574
G1 X133.266 Y194.954 E23.27607
G1 X131.101 Y194.57 E23.38642
G1 X128.958 Y194.081 E23.49673
G1 X126.842 Y193.487 E23.60703
G1 X124.757 Y192.789 E23.71738
G1 X122.709 Y191.991 E23.82769
G1 X120.702 Y191.092 E23.93806
G1 X118.742 Y190.097 E24.04837
G1 X116.834 Y189.006 E24.15867
G1 X114.981 Y187.823 E24.269
G1 X113.188 Y186.551 E24.37933
G1 X111.46 Y185.192 E24.48966
G1 X109.801 Y183.75 E24.59997
G1 X108.214 Y182.229 E24.71029
G1 X106.704 Y180.631 E24.82063
G1 X105.274 Y178.961 E24.93097
G1 X103.928 Y177.223 E25.04129
G1 X102.669 Y175.421 E25.15161
G1 X101.5 Y173.56 E25.2619
G1 X100.423 Y171.643 E25.37225
G1 X99.442 Y169.676 E25.48256
G1 X98.559 Y167.663 E25.59288
G1 X97.775 Y165.609 E25.70322
G1 X97.093 Y163.519 E25.81355
G1 X96.515 Y161.398 E25.92388
G1 X96.041 Y159.252 E26.03417
G1 X95.673 Y157.084 E26.14453
G1 X95.412 Y154.902 E26.25482
G1 X95.258 Y152.709 E26.36515
G1 X95.212 Y150.511 E26.47548
G1 X95.274 Y148.313 E26.58583
G1 X95.444 Y146.122 E26.69612
G1 X95.721 Y143.941 E26.80645
G1 X96.105 Y141.777 E26.91675
G1 X96.594 Y139.633 E27.02711
G1 X97.188 Y137.517 E27.13741
G1 X97.886 Y135.432 E27.24776
G1 X98.684 Y133.384 E27.35807
G1 X99.583 Y131.377 E27.46844
G1 X100.578 Y129.418 E27.57871
G1 X101.669 Y127.509 E27.68906
G1 X102.851 Y125.656 E27.79936
G1 X104.124 Y123.863 E27.90972
G1 X105.483 Y122.135 E28.02005
G1 X106.925 Y120.476 E28.13036
G1 X108.446 Y118.889 E28.24068
G1 X109.968 Y117.451 E28.34576
G1 X110.205 Y117.701 F7800
G1 F1800
G1 X110.269 Y117.64 E28.3502
G1 X111.926 Y116.221 E28.45968
G1 X113.65 Y114.885 E28.56914
G1 X115.438 Y113.636 E28.6786
G1 X117.285 Y112.475 E28.78809
G1 X119.187 Y111.406 E28.89759
G1 X121.139 Y110.432 E29.00707
G1 X123.136 Y109.555 E29.11653
G1 X125.174 Y108.778 E29.22599
G1 X127.248 Y108.101 E29.33548
G1 X129.352 Y107.526 E29.44494
G1 X131.482 Y107.056 E29.55441
G1 X133.633 Y106.69 E29.66391
G1 X135.799 Y106.431 E29.77339
G1 X137.975 Y106.278 E29.88286
G1 X140.207 Y106.233 E29.9949
G1 X142.336 Y106.293 E30.10179
G1 X144.511 Y106.461 E30.21127
G1 X146.675 Y106.736 E30.32075
G1 X148.823 Y107.116 E30.43022
G1 X150.95 Y107.602 E30.53972
G1 X153.05 Y108.191 E30.64918
G1 X155.119 Y108.882 E30.75865
G1 X157.151 Y109.675 E30.86812
G1 X159.143 Y110.566 E30.97764
G1 X161.088 Y111.553 E31.0871
G1 X162.982 Y112.635 E31.19657
G1 X164.821 Y113.808 E31.30604
G1 X166.6 Y115.071 E31.41553
G1 X168.315 Y116.419 E31.525
G1 X169.961 Y117.849 E31.63443
G1 X171.536 Y119.359 E31.74393
G1 X173.035 Y120.944 E31.85341
G1 X174.454 Y122.601 E31.96289
G1 X175.79 Y124.325 E32.07235
G1 X177.039 Y126.113 E32.18181
G1 X178.2 Y127.96 E32.2913
G1 X179.269 Y129.862 E32.4008
G1 X180.243 Y131.814 E32.51028
G1 X181.12 Y133.811 E32.61974
G1 X181.897 Y135.849 E32.7292
G1 X182.574 Y137.923 E32.83869
G1 X183.149 Y140.027 E32.94815
G1 X183.619 Y142.157 E33.05762
G1 X183.985 Y144.308 E33.16712
G1 X184.244 Y146.474 E33.2766
G1 X184.397 Y148.65 E33.38607
G1 X184.443 Y150.831 E33.49555
G1 X184.382 Y153.011 E33.605
G1 X184.214 Y155.186 E33.71448
G1 X183.939 Y157.35 E33.82396
G1 X183.559 Y159.498 E33.93343
G1 X183.073 Y161.625 E34.04293
G1 X182.484 Y163.725 E34.15239
G1 X181.793 Y165.794 E34.26186
G1 X181 Y167.826 E34.37133
G1 X180.109 Y169.818 E34.48085
G1 X179.122 Y171.763 E34.59031
G1 X178.04 Y173.657 E34.69978
G1 X176.866 Y175.496 E34.80928
G1 X175.604 Y177.275 E34.91874
G1 X174.256 Y178.99 E35.02821
G1 X172.826 Y180.636 E35.13764
G1 X171.316 Y182.211 E35.24714
G1 X169.731 Y183.71 E35.35662
G1 X168.074 Y185.129 E35.4661
G1 X166.35 Y186.465 E35.57556
G1 X164.562 Y187.714 E35.68502
G1 X162.715 Y188.875 E35.79451
G1 X160.813 Y189.944 E35.90401
G1 X158.861 Y190.918 E36.01349
G1 X156.864 Y191.795 E36.12295
G1 X154.826 Y192.572 E36.23241
G1 X152.752 Y193.249 E36.3419
G1 X150.648 Y193.824 E36.45136
G1 X148.518 Y194.294 E36.56083
G1 X146.367 Y194.66 E36.67033
G1 X144.201 Y194.919 E36.77981
G1 X142.025 Y195.072 E36.88928
G1 X139.844 Y195.118 E36.99876
G1 X137.664 Y195.057 E37.10821
G1 X135.489 Y194.889 E37.21769
G1 X133.325 Y194.614 E37.32717
G1 X131.177 Y194.234 E37.43664
G1 X129.05 Y193.748 E37.54614
G1 X126.95 Y193.159 E37.6556
G1 X124.881 Y192.468 E37.76507
G1 X122.849 Y191.675 E37.87454
G1 X120.857 Y190.784 E37.98406
G1 X118.912 Y189.797 E38.09352
G1 X117.018 Y188.715 E38.20299
G1 X115.179 Y187.541 E38.31249
G1 X113.4 Y186.279 E38.42195
G1 X111.685 Y184.931 E38.53142
G1 X110.039 Y183.501 E38.64085
G1 X108.464 Y181.991 E38.75035
G1 X106.965 Y180.406 E38.85983
G1 X105.546 Y178.749 E38.96931
G1 X104.21 Y177.025 E39.07877
G1 X102.961 Y175.237 E39.18823
G1 X101.8 Y173.39 E39.29772
G1 X100.731 Y171.488 E39.40722
G1 X99.757 Y169.536 E39.5167
G1 X98.88 Y167.539 E39.62616
G1 X98.103 Y165.501 E39.73562
G1 X97.426 Y163.427 E39.84511
G1 X96.851 Y161.323 E39.95457
G1 X96.381 Y159.193 E40.06404
G1 X96.015 Y157.042 E40.17354
G1 X95.756 Y154.876 E40.28302
G1 X95.603 Y152.7 E40.39249
G1 X95.557 Y150.519 E40.50197
G1 X95.618 Y148.339 E40.61142
G1 X95.786 Y146.164 E40.7209
G1 X96.061 Y144 E40.83038
G1 X96.441 Y141.852 E40.93985
G1 X96.927 Y139.725 E41.04935
G1 X97.516 Y137.625 E41.15881
G1 X98.207 Y135.556 E41.26828
G1 X99 Y133.524 E41.37775
G1 X99.891 Y131.532 E41.48727
G1 X100.878 Y129.588 E41.59669
G1 X101.96 Y127.693 E41.7062
G1 X103.133 Y125.854 E41.81567
G1 X104.396 Y124.075 E41.92516
G1 X105.744 Y122.36 E42.03463
G1 X107.174 Y120.714 E42.14406
G1 X108.684 Y119.139 E42.25356
G1 X110.161 Y117.743 E42.35555
G1 E40.35555 F2400
G92 E0
G1 X110.161 Y117.743 F7800
G1 X175.025 Y163.207
G1 E2 F2400
;TYPE:Perimeter
;WIDTH:0.42
G1 F1800
G1 X174.368 Y164.911 E2.09165
G1 X173.628 Y166.58 E2.18327
G1 X172.807 Y168.211 E2.27491
G1 X171.907 Y169.8 E2.36656
G1 X170.931 Y171.342 E2.45815
G1 X169.879 Y172.835 E2.54981
G1 X168.756 Y174.274 E2.64142
G1 X167.563 Y175.657 E2.73308
G1 X166.304 Y176.979 E2.8247
G1 X164.982 Y178.238 E2.91632
G1 X163.599 Y179.431 E3.00798
G1 X162.16 Y180.554 E3.09959
G1 X160.667 Y181.606 E3.19125
G1 X159.125 Y182.582 E3.28284
G1 X157.536 Y183.482 E3.37449
G1 X155.905 Y184.303 E3.46613
G1 X154.236 Y185.043 E3.55775
G1 X152.532 Y185.7 E3.6494
G1 X150.799 Y186.273 E3.741
G1 X149.039 Y186.76 E3.83265
G1 X147.257 Y187.16 E3.92431
G1 X145.458 Y187.472 E4.01594
G1 X143.646 Y187.696 E4.10757
G1 X141.825 Y187.83 E4.19921
G1 X140 Y187.875 E4.29083
G1 X138.175 Y187.83 E4.38245
G1 X136.354 Y187.696 E4.47409
G1 X134.542 Y187.472 E4.56572
G1 X132.743 Y187.16 E4.65735
G1 X130.961 Y186.76 E4.74901
G1 X129.201 Y186.273 E4.84066
G1 X127.468 Y185.7 E4.93226
G1 X125.764 Y185.043 E5.02391
G1 X124.095 Y184.303 E5.11553
G1 X122.464 Y183.482 E5.20717
G1 X120.875 Y182.582 E5.29882
G1 X119.333 Y181.606 E5.39041
G1 X117.84 Y180.554 E5.48207
G1 X116.401 Y179.431 E5.57368
G1 X115.018 Y178.238 E5.66534
G1 X113.696 Y176.979 E5.75696
G1 X112.437 Y175.657 E5.84858
G1 X111.244 Y174.274 E5.94024
G1 X110.121 Y172.835 E6.03185
G1 X109.069 Y171.342 E6.12351
G1 X108.093 Y169.8 E6.2151
G1 X107.193 Y168.211 E6.30675
G1 X106.372 Y166.58 E6.39839
G1 X105.632 Y164.911 E6.49001
G1 X104.975 Y163.207 E6.58166
G1 X104.402 Y161.474 E6.67326
G1 X103.915 Y159.714 E6.76491
G1 X103.515 Y157.932 E6.85657
G1 X103.203 Y156.133 E6.9482
G1 X102.979 Y154.321 E7.03983
G1 X102.845 Y152.5 E7.13147
G1 X102.8 Y150.675 E7.22309
G1 X102.845 Y148.85 E7.31471
G1 X102.979 Y147.029 E7.40635
G1 X103.203 Y145.217 E7.49798
G1 X103.515 Y143.418 E7.58961
G1 X103.915 Y141.636 E7.68127
G1 X104.402 Y139.876 E7.77292
G1 X104.975 Y138.143 E7.86452
G1 X105.632 Y136.439 E7.95617
G1 X106.372 Y134.77 E8.04779
G1 X107.193 Y133.139 E8.13943
G1 X108.093 Y131.55 E8.23108
G1 X109.069 Y130.008 E8.32267
G1 X110.121 Y128.515 E8.41433
G1 X111.244 Y127.076 E8.50594
G1 X112.437 Y125.693 E8.5976
G1 X113.696 Y124.371 E8.68922
G1 X115.018 Y123.112 E8.78084
G1 X116.401 Y121.919 E8.8725
G1 X117.84 Y120.796 E8.96411
G1 X119.333 Y119.744 E9.05577
G1 X120.875 Y118.768 E9.14736
G1 X122.464 Y117.868 E9.23901
G1 X124.095 Y117.047 E9.33065
G1 X125.764 Y116.307 E9.42227
G1 X127.468 Y115.65 E9.51392
G1 X129.201 Y115.077 E9.60552
G1 X130.961 Y114.59 E9.69717
G1 X132.743 Y114.19 E9.78883
G1 X134.542 Y113.878 E9.88046
G1 X136.354 Y113.654 E9.97209
G1 X138.174 Y113.52 E10.06368
G1 X140.051 Y113.476 E10.1579
G1 X141.825 Y113.52 E10.24696
G1 X143.646 Y113.654 E10.3386
G1 X145.458 Y113.878 E10.43023
G1 X147.257 Y114.19 E10.52186
