; generated by PrusaSlicer 2.7.2+win64 on 2024-04-05 at 18:59:32 UTC

; 

; external perimeters extrusion width = 0.45mm
; perimeters extrusion width = 0.45mm
; infill extrusion width = 0.45mm
; solid infill extrusion width = 0.45mm
; top infill extrusion width = 0.40mm
; support material extrusion width = 0.35mm
; first layer extrusion width = 0.42mm

;TYPE:Custom
M107
M191 S50     ; set chamber temperature and wait for it to be reached
;M109 S120   ; set temp and wait for it to be reached
M104 S150    ; Start heating the extruder.
M140 S70 ; heat bed
M190 S70 ; wait for the bed to heat up
G28          ; home all axes

G29 ; Z-Probe the bed (requires Z-Probe!) - auto bed level

M109 S215 ; Heat up the extruder

G1 Y288 Z0.3 F9000  ; move forward off front of bed
G1 X10 Z10          ; move left to clear heater
G1 Z0.4 F300        ; position nozzle 
G92 E0              ; zero extruder
G1 E25 F225         ; purge nozzle
G92 E0              ; zero extruder

G1 Y265 Z0.2 E1.0 F600 ; slow wipe
G1 Y260 Z0.25          ; lift
G92 E0 
G1 E-1.0
G21 ; set units to millimeters
G90 ; use absolute coordinates
M82 ; use absolute distances for extrusion
G92 E0
; Filament gcode
M107
;LAYER_CHANGE
;Z:0.35
;HEIGHT:0.35
G1 E-2 F2400
G1 Z.35 F7800
G1 X72.776 Y100.567
G1 E0 F2400
;TYPE:Skirt/Brim
;WIDTH:0.42
G1 F1800
G1 X74.963 Y99.67 E.11863
G1 X76.5 Y99.5 E.19624
G1 X203.5 Y99.5 E6.56985
G1 X205.83 Y99.897 E6.68847
G1 X207.897 Y101.044 E6.80711
G1 X209.468 Y102.81 E6.92573
G1 X210.365 Y104.997 E7.04436
G1 X210.535 Y106.535 E7.12202
G1 X210.535 Y189.085 E11.26487
G1 X210.138 Y191.415 E11.38349
G1 X208.991 Y193.482 E11.50213
G1 X207.224 Y195.053 E11.62079
G1 X205.037 Y195.949 E11.7394
G1 X203.5 Y196.119 E11.81701
G1 X76.5 Y196.119 E18.19062
G1 X74.17 Y195.722 E18.30924
G1 X72.103 Y194.575 E18.42788
G1 X70.532 Y192.809 E18.5465
G1 X69.635 Y190.622 E18.66513
G1 X69.465 Y189.085 E18.74274
G1 X69.465 Y106.535 E22.88559
G1 X69.862 Y104.204 E23.00426
G1 X71.009 Y102.137 E23.1229
G1 X72.731 Y100.606 E23.23854
G1 X72.731 Y100.606 F7800
G1 X72.969 Y100.886
G1 F1800
G1 X73.106 Y100.77 E23.24755
G1 X75.264 Y99.96 E23.36323
G1 X76.5 Y99.845 E23.42553
G1 X203.5 Y99.845 E29.79914
G1 X205.77 Y100.242 E29.91479
G1 X207.771 Y101.386 E30.03047
G1 X209.265 Y103.141 E30.14614
G1 X210.075 Y105.299 E30.26182
G1 X210.19 Y106.535 E30.32412
G1 X210.19 Y189.085 E34.46697
G1 X209.793 Y191.355 E34.58262
G1 X208.649 Y193.356 E34.6983
G1 X206.894 Y194.85 E34.81397
G1 X204.736 Y195.659 E34.92963
G1 X203.5 Y195.774 E34.99193
G1 X76.5 Y195.774 E41.36554
G1 X74.23 Y195.377 E41.48119
G1 X72.229 Y194.233 E41.59687
G1 X70.735 Y192.478 E41.71254
G1 X69.925 Y190.321 E41.82817
G1 X69.81 Y189.085 E41.89047
G1 X69.81 Y106.535 E46.03332
G1 X70.207 Y104.264 E46.14902
G1 X71.351 Y102.263 E46.2647
G1 X72.923 Y100.925 E46.3683
G1 X72.923 Y100.925 F7800
G1 X73.153 Y101.208
G1 F1800
G1 X73.435 Y100.979 E46.38653
G1 X76.5 Y100.19 E46.54536
G1 X203.5 Y100.19 E52.91897
G1 X205.709 Y100.587 E53.03161
G1 X207.641 Y101.727 E53.14419
G1 X209.056 Y103.47 E53.25686
G1 X209.845 Y106.535 E53.41569
G1 X209.845 Y189.085 E57.55854
G1 X209.448 Y191.293 E57.67113
G1 X208.307 Y193.226 E57.78378
G1 X206.565 Y194.64 E57.89638
G1 X203.5 Y195.429 E58.05521
G1 X76.5 Y195.429 E64.42882
G1 X74.291 Y195.033 E64.54145
G1 X72.359 Y193.892 E64.65406
G1 X70.944 Y192.149 E64.76673
G1 X70.155 Y189.085 E64.92552
G1 X70.155 Y106.535 E69.06837
G1 X70.552 Y104.326 E69.18101
G1 X71.693 Y102.393 E69.29366
G1 X73.106 Y101.246 E69.385
G1 E67.385 F2400
G92 E0
G1 X73.106 Y101.246 F7800
G1 X77.4 Y188.185
G1 E2 F2400
;TYPE:Perimeter
;WIDTH:0.42
G1 F1800
G1 X77.4 Y107.434 E6.05256
G1 X202.6 Y107.434 E12.33583
G1 X202.6 Y147.81 E14.36213
G1 X202.6 Y188.185 E16.38838
G1 X77.46 Y188.185 E22.66864
G1 X77.46 Y188.185 F7800
G1 X77.055 Y188.53
G1 F1800
G1 X77.055 Y107.089 E26.75583
G1 X202.945 Y107.089 E33.07373
G1 X202.945 Y147.81 E35.11735
G1 X202.945 Y188.53 E37.16092
G1 X77.115 Y188.53 E43.47581
G1 X77.115 Y188.53 F7800
G1 X76.71 Y188.875
;TYPE:External perimeter
G1 F1800
G1 X76.71 Y106.745 E47.59757
G1 X203.29 Y106.745 E53.9501
G1 X203.29 Y147.81 E56.01098
G1 X203.29 Y188.875 E58.07186
G1 X76.77 Y188.875 E64.42138
G1 X76.711 Y188.479 F7800
G1 E62.42138 F2400
G92 E0
G1 X202.497 Y108.236 F7800
G1 E2 F2400
;TYPE:Solid infill
;WIDTH:0.420444
G1 F1800
G1 X201.954 Y107.693 E2.03859
G1 X201.465 Y107.693 E2.06316
G1 X202.342 Y108.569 E2.12545
G1 X202.342 Y109.058 E2.15002
G1 X200.977 Y107.693 E2.24702
G1 X200.489 Y107.693 E2.27154
G1 X202.342 Y109.546 E2.40322
G1 X202.342 Y110.034 E2.42774
G1 X200 Y107.693 E2.59414
G1 X199.512 Y107.693 E2.61866
G1 X202.342 Y110.523 E2.81977
G1 X202.342 Y111.011 E2.84429
G1 X199.024 Y107.693 E3.08008
G1 X198.535 Y107.693 E3.10465
G1 X202.342 Y111.499 E3.37516
G1 X202.342 Y111.988 E3.39973
G1 X198.047 Y107.693 E3.70495
G1 X197.558 Y107.693 E3.72952
G1 X202.342 Y112.476 E4.06946
G1 X202.342 Y112.965 E4.09403
G1 X197.07 Y107.693 E4.46868
G1 X196.582 Y107.693 E4.4932
G1 X202.342 Y113.453 E4.90253
G1 X202.342 Y113.941 E4.92705
G1 X196.093 Y107.693 E5.3711
G1 X195.605 Y107.693 E5.39562
G1 X202.342 Y114.43 E5.87438
G1 X202.342 Y114.918 E5.8989
G1 X195.117 Y107.693 E6.41234
G1 X194.628 Y107.693 E6.43691
G1 X202.342 Y115.406 E6.98507
G1 X202.342 Y115.895 E7.00964
G1 X194.14 Y107.693 E7.59251
G1 X193.651 Y107.693 E7.61708
G1 X202.342 Y116.383 E8.23467
G1 X202.342 Y116.871 E8.25919
G1 X193.163 Y107.693 E8.91146
G1 X192.675 Y107.693 E8.93598
G1 X202.342 Y117.36 E9.62296
G1 X202.342 Y117.848 E9.64748
G1 X192.186 Y107.693 E10.36918
G1 X191.698 Y107.693 E10.3937
G1 X202.342 Y118.337 E11.15011
G1 X202.342 Y118.825 E11.17463
G1 X191.21 Y107.693 E11.96572
G1 X190.721 Y107.693 E11.99029
G1 X202.342 Y119.313 E12.8161
G1 X202.342 Y119.802 E12.84067
G1 X190.233 Y107.693 E13.70119
G1 X189.744 Y107.693 E13.72576
G1 X202.342 Y120.29 E14.621
G1 X202.342 Y120.778 E14.64552
G1 X189.256 Y107.693 E15.57544
G1 X188.768 Y107.693 E15.59996
G1 X202.342 Y121.267 E16.56459
G1 X202.342 Y121.755 E16.58911
G1 X188.279 Y107.693 E17.58846
G1 X187.791 Y107.693 E17.61298
G1 X202.342 Y122.244 E18.64705
G1 X202.342 Y122.732 E18.67157
G1 X187.303 Y107.693 E19.74032
G1 X186.814 Y107.693 E19.76489
G1 X202.342 Y123.22 E20.86835
G1 X202.342 Y123.709 E20.89292
G1 X186.326 Y107.693 E22.0311
G1 X185.837 Y107.693 E22.05567
G1 X202.342 Y124.197 E23.22856
G1 X202.342 Y124.685 E23.25308
G1 X185.349 Y107.693 E24.46065
G1 X184.861 Y107.693 E24.48517
G1 X202.342 Y125.174 E25.72746
G1 X202.342 Y125.662 E25.75198
G1 X184.372 Y107.693 E27.02898
G1 X183.884 Y107.693 E27.0535
G1 X202.342 Y126.151 E28.36522
G1 X202.342 Y126.639 E28.38974
G1 X183.396 Y107.693 E29.73614
G1 X182.907 Y107.693 E29.76071
G1 X202.342 Y127.127 E31.14182
G1 X202.342 Y127.616 E31.16639
G1 X182.419 Y107.693 E32.58222
G1 X181.93 Y107.693 E32.60679
G1 X202.342 Y128.104 E34.05733
G1 X202.342 Y128.592 E34.08185
G1 X181.442 Y107.693 E35.56707
G1 X180.954 Y107.693 E35.59159
G1 X202.342 Y129.081 E37.11153
G1 X202.342 Y129.569 E37.13605
G1 X180.465 Y107.693 E38.6907
G1 X179.977 Y107.693 E38.71522
G1 X202.342 Y130.058 E40.30459
G1 X202.342 Y130.546 E40.32911
G1 X179.489 Y107.693 E41.95316
G1 X179 Y107.693 E41.97773
G1 X202.342 Y131.034 E43.63649
G1 X202.342 Y131.523 E43.66106
G1 X178.512 Y107.693 E45.35454
G1 X178.023 Y107.693 E45.37911
G1 X202.342 Y132.011 E47.1073
G1 X202.342 Y132.499 E47.13182
G1 X177.535 Y107.693 E48.89469
G1 X177.047 Y107.693 E48.91921
G1 X202.342 Y132.988 E50.7168
G1 X202.342 Y133.476 E50.74132
G1 X176.558 Y107.693 E52.57362
G1 X176.07 Y107.693 E52.59814
G1 X202.342 Y133.965 E54.46516
G1 X202.342 Y134.453 E54.48968
G1 X175.582 Y107.693 E56.39138
G1 X175.093 Y107.693 E56.41595
G1 X202.342 Y134.941 E58.35236
G1 X202.342 Y135.43 E58.37693
G1 X174.605 Y107.693 E60.34806
G1 X174.116 Y107.693 E60.37263
G1 X202.342 Y135.918 E62.37847
G1 X202.342 Y136.406 E62.40299
G1 X173.628 Y107.693 E64.44351
G1 X173.14 Y107.693 E64.46803
G1 X202.342 Y136.895 E66.54327
G1 X202.342 Y137.383 E66.56779
G1 X172.651 Y107.693 E68.67774
G1 X172.163 Y107.693 E68.70226
G1 X202.342 Y137.872 E70.84693
G1 X202.342 Y138.36 E70.87145
G1 X171.675 Y107.693 E73.0508
G1 X171.186 Y107.693 E73.07537
G1 X202.342 Y138.848 E75.28943
G1 X202.342 Y139.337 E75.314
G1 X170.698 Y107.693 E77.56278
G1 X170.209 Y107.693 E77.58735
G1 X202.342 Y139.825 E79.87084
G1 X202.342 Y140.313 E79.89536
G1 X169.721 Y107.693 E82.21353
G1 X169.233 Y107.693 E82.23805
G1 X202.342 Y140.802 E84.59094
G1 X202.342 Y141.29 E84.61546
G1 X168.744 Y107.693 E87.00306
G1 X168.256 Y107.693 E87.02758
G1 X202.342 Y141.779 E89.4499
G1 X202.342 Y142.267 E89.47442
G1 X167.768 Y107.693 E91.93142
G1 X167.279 Y107.693 E91.95599
G1 X202.342 Y142.755 E94.4477
G1 X202.342 Y143.244 E94.47227
G1 X166.791 Y107.693 E96.9987
G1 X166.302 Y107.693 E97.02327
G1 X202.342 Y143.732 E99.58441
G1 X202.342 Y144.22 E99.60893
G1 X165.814 Y107.693 E102.20475
G1 X165.326 Y107.693 E102.22927
G1 X202.342 Y144.709 E104.85981
G1 X202.342 Y145.197 E104.88433
G1 X164.837 Y107.693 E107.54958
G1 X164.349 Y107.693 E107.5741
G1 X202.342 Y145.686 E110.27407
G1 X202.342 Y146.174 E110.29859
G1 X163.861 Y107.693 E113.03324
G1 X163.372 Y107.693 E113.05781
G1 X202.342 Y146.662 E115.82717
G1 X202.342 Y147.151 E115.85174
G1 X162.884 Y107.693 E118.65582
G1 X162.395 Y107.693 E118.68039
G1 X202.342 Y147.639 E121.51918
G1 X202.342 Y148.127 E121.5437
G1 X161.907 Y107.693 E124.41717
G1 X161.419 Y107.693 E124.44169
G1 X202.342 Y148.616 E127.34988
G1 X202.342 Y149.104 E127.3744
G1 X160.93 Y107.693 E130.3173
G1 X160.442 Y107.693 E130.34182
G1 X202.342 Y149.593 E133.31944
G1 X202.342 Y150.081 E133.34396
G1 X159.954 Y107.693 E136.35626
G1 X159.465 Y107.693 E136.38083
G1 X202.342 Y150.569 E139.42784
G1 X202.342 Y151.058 E139.45241
G1 X158.977 Y107.693 E142.53414
G1 X158.488 Y107.693 E142.55871
G1 X202.342 Y151.546 E145.67515
G1 X202.342 Y152.034 E145.69967
G1 X158 Y107.693 E148.85079
G1 X157.512 Y107.693 E148.87531
G1 X202.342 Y152.523 E152.06115
G1 X202.342 Y153.011 E152.08567
G1 X157.023 Y107.693 E155.30622
G1 X156.535 Y107.693 E155.33074
G1 X202.342 Y153.5 E158.58601
G1 X202.342 Y153.988 E158.61053
G1 X156.047 Y107.693 E161.90048
G1 X155.558 Y107.693 E161.92505
G1 X202.342 Y154.476 E165.24971
G1 X202.342 Y154.965 E165.27428
G1 X155.07 Y107.693 E168.63366
G1 X154.581 Y107.693 E168.65823
G1 X202.342 Y155.453 E172.05233
G1 X202.342 Y155.941 E172.07685
G1 X154.093 Y107.693 E175.50562
G1 X153.605 Y107.693 E175.53014
G1 X202.342 Y156.43 E178.99363
G1 X202.342 Y156.918 E179.01815
G1 X153.116 Y107.693 E182.51636
G1 X152.628 Y107.693 E182.54088
G1 X202.342 Y157.407 E186.0738
G1 X202.342 Y157.895 E186.09832
G1 X152.14 Y107.693 E189.66592
G1 X151.651 Y107.693 E189.69049
G1 X202.342 Y158.383 E193.29281
G1 X202.342 Y158.872 E193.31738
G1 X151.163 Y107.693 E196.95441
G1 X150.674 Y107.693 E196.97898
G1 X202.342 Y159.36 E200.65073
G1 X202.342 Y159.848 E200.67525
G1 X150.186 Y107.693 E204.38168
G1 X149.698 Y107.693 E204.4062
G1 X202.342 Y160.337 E208.14734
G1 X202.342 Y160.825 E208.17186
G1 X149.209 Y107.693 E211.94772
G1 X148.721 Y107.693 E211.97224
G1 X202.342 Y161.314 E215.78281
G1 X202.342 Y161.802 E215.80733
G1 X148.233 Y107.693 E219.65258
G1 X147.744 Y107.693 E219.67715
G1 X202.342 Y162.29 E223.55712
G1 X202.342 Y162.779 E223.58169
G1 X147.256 Y107.693 E227.49637
G1 X146.767 Y107.693 E227.52094
G1 X202.342 Y163.267 E231.47034
G1 X202.342 Y163.755 E231.49486
G1 X146.279 Y107.693 E235.47894
G1 X145.791 Y107.693 E235.50346
G1 X202.342 Y164.244 E239.52225
G1 X202.342 Y164.732 E239.54677
G1 X145.302 Y107.693 E243.60028
G1 X144.814 Y107.693 E243.6248
G1 X202.342 Y165.221 E247.71302
G1 X202.342 Y165.709 E247.73754
G1 X144.326 Y107.693 E251.86044
G1 X143.837 Y107.693 E251.88501
G1 X202.342 Y166.197 E256.04263
G1 X202.342 Y166.686 E256.0672
G1 X143.349 Y107.693 E260.25953
G1 X142.86 Y107.693 E260.2841
G1 X202.342 Y167.174 E264.51115
G1 X202.342 Y167.662 E264.53567
G1 X142.372 Y107.693 E268.7974
G1 X141.884 Y107.693 E268.82192
G1 X202.342 Y168.151 E273.11836
G1 X202.342 Y168.639 E273.14288
G1 X141.395 Y107.693 E277.47404
G1 X140.907 Y107.693 E277.49856
G1 X202.342 Y169.128 E281.86443
G1 X202.342 Y169.616 E281.88895
G1 X140.419 Y107.693 E286.2895
G1 X139.93 Y107.693 E286.31407
G1 X202.342 Y170.104 E290.74934
G1 X202.342 Y170.593 E290.77391
G1 X139.442 Y107.693 E295.24389
G1 X138.953 Y107.693 E295.26846
G1 X202.342 Y171.081 E299.77316
G1 X202.342 Y171.569 E299.79768
G1 X138.465 Y107.693 E304.33706
G1 X137.977 Y107.693 E304.36158
G1 X202.342 Y172.058 E308.93567
G1 X202.342 Y172.546 E308.96019
G1 X137.488 Y107.693 E313.569
G1 X137 Y107.693 E313.59352
G1 X202.342 Y173.035 E318.23704
G1 X202.342 Y173.523 E318.26156
G1 X136.512 Y107.693 E322.93976
G1 X136.023 Y107.693 E322.96433
G1 X202.342 Y174.011 E327.67725
G1 X202.342 Y174.5 E327.70182
G1 X135.535 Y107.693 E332.44945
G1 X135.046 Y107.693 E332.47402
G1 X202.342 Y174.988 E337.25637
G1 X202.342 Y175.476 E337.28089
G1 X134.558 Y107.693 E342.09792
G1 X134.07 Y107.693 E342.12244
G1 X202.342 Y175.965 E346.97418
G1 X202.342 Y176.453 E346.9987
G1 X133.581 Y107.693 E351.88516
G1 X133.093 Y107.693 E351.90968
G1 X202.342 Y176.942 E356.83085
G1 X202.342 Y177.43 E356.85537
G1 X132.605 Y107.693 E361.81122
G1 X132.116 Y107.693 E361.83579
G1 X202.342 Y177.918 E366.82636
G1 X202.342 Y178.407 E366.85093
G1 X131.628 Y107.693 E371.87621
G1 X131.139 Y107.693 E371.90078
G1 X202.342 Y178.895 E376.96078
G1 X202.342 Y179.383 E376.9853
G1 X130.651 Y107.693 E382.07998
G1 X130.163 Y107.693 E382.1045
G1 X202.342 Y179.872 E387.23389
G1 X202.342 Y180.36 E387.25841
G1 X129.674 Y107.693 E392.42252
G1 X129.186 Y107.693 E392.44704
G1 X202.342 Y180.849 E397.64586
G1 X202.342 Y181.337 E397.67038
G1 X128.698 Y107.693 E402.90388
G1 X128.209 Y107.693 E402.92845
G1 X202.342 Y181.825 E408.19667
G1 X202.342 Y182.314 E408.22124
G1 X127.721 Y107.693 E413.52417
G1 X127.232 Y107.693 E413.54874
G1 X202.342 Y182.802 E418.88639
G1 X202.342 Y183.29 E418.91091
G1 X126.744 Y107.693 E424.28324
G1 X126.256 Y107.693 E424.30776
G1 X202.342 Y183.779 E429.7148
G1 X202.342 Y184.267 E429.73932
G1 X125.767 Y107.693 E435.18108
G1 X125.279 Y107.693 E435.2056
G1 X202.342 Y184.756 E440.68207
G1 X202.342 Y185.244 E440.70659
G1 X124.791 Y107.693 E446.21774
G1 X124.302 Y107.693 E446.24231
G1 X202.342 Y185.732 E451.78818
G1 X202.342 Y186.221 E451.81275
G1 X123.814 Y107.693 E457.39333
G1 X123.325 Y107.693 E457.4179
G1 X202.342 Y186.709 E463.0332
G1 X202.342 Y187.197 E463.05772
G1 X122.837 Y107.693 E468.7077
G1 X122.349 Y107.693 E468.73222
G1 X202.342 Y187.686 E474.41691
G1 X202.342 Y187.926 E474.42897
G1 X202.093 Y187.926 E474.44148
G1 X121.86 Y107.693 E480.14323
G1 X121.372 Y107.693 E480.16775
G1 X201.605 Y187.926 E485.8695
G1 X201.117 Y187.926 E485.89402
G1 X120.884 Y107.693 E491.59577
G1 X120.395 Y107.693 E491.62034
G1 X200.628 Y187.926 E497.32209
G1 X200.14 Y187.926 E497.34661
G1 X119.907 Y107.693 E503.04836
G1 X119.419 Y107.693 E503.07288
G1 X199.652 Y187.926 E508.77463
G1 X199.163 Y187.926 E508.7992
G1 X118.93 Y107.693 E514.50095
G1 X118.442 Y107.693 E514.52547
G1 X198.675 Y187.926 E520.22722
G1 X198.186 Y187.926 E520.25179
G1 X117.953 Y107.693 E525.95354
G1 X117.465 Y107.693 E525.97806
G1 X197.698 Y187.926 E531.67981
G1 X197.21 Y187.926 E531.70433
G1 X116.977 Y107.693 E537.40608
G1 X116.488 Y107.693 E537.43065
G1 X196.721 Y187.926 E543.1324
G1 X196.233 Y187.926 E543.15692
G1 X116 Y107.693 E548.85867
G1 X115.512 Y107.693 E548.88319
G1 X195.745 Y187.926 E554.58494
G1 X195.256 Y187.926 E554.60951
G1 X115.023 Y107.693 E560.31126
G1 X114.535 Y107.693 E560.33578
G1 X194.768 Y187.926 E566.03753
G1 X194.279 Y187.926 E566.0621
G1 X114.046 Y107.693 E571.76385
G1 X113.558 Y107.693 E571.78837
G1 X193.791 Y187.926 E577.49012
G1 X193.303 Y187.926 E577.51464
G1 X113.07 Y107.693 E583.21639
G1 X112.581 Y107.693 E583.24096
G1 X192.814 Y187.926 E588.94271
G1 X192.326 Y187.926 E588.96723
G1 X112.093 Y107.693 E594.66898
G1 X111.605 Y107.693 E594.6935
G1 X191.838 Y187.926 E600.39525
G1 X191.349 Y187.926 E600.41982
G1 X111.116 Y107.693 E606.12157
