; generated by PrusaSlicer 2.7.2+win64 on 2024-04-11 at 13:13:39 UTC

; 

; external perimeters extrusion width = 0.45mm
; perimeters extrusion width = 0.45mm
; infill extrusion width = 0.45mm
; solid infill extrusion width = 0.45mm
; top infill extrusion width = 0.40mm
; support material extrusion width = 0.35mm
; first layer extrusion width = 0.42mm

;TYPE:Custom
M107
M191 S50     ; set chamber temperature and wait for it to be reached
;M109 S120   ; set temp and wait for it to be reached
M104 S150    ; Start heating the extruder.
M140 S70 ; heat bed
M190 S70 ; wait for the bed to heat up
G28          ; home all axes

G29 ; Z-Probe the bed (requires Z-Probe!) - auto bed level

M109 S215 ; Heat up the extruder

G1 Y288 Z0.3 F9000  ; move forward off front of bed
G1 X10 Z10          ; move left to clear heater
G1 Z0.4 F300        ; position nozzle 
G92 E0              ; zero extruder
G1 E25 F225         ; purge nozzle
G92 E0              ; zero extruder

G1 Y265 Z0.2 E1.0 F600 ; slow wipe
G1 Y260 Z0.25          ; lift
G92 E0 
G1 E-1.0
G21 ; set units to millimeters
G90 ; use absolute coordinates
M82 ; use absolute distances for extrusion
G92 E0
; Filament gcode
M107
;LAYER_CHANGE
;Z:0.35
;HEIGHT:0.35
G1 E-2 F2400
G1 Z.35 F7800
G1 X129.689 Y133.989
G1 E0 F2400
;TYPE:Skirt/Brim
;WIDTH:0.42
G1 F1800
G1 X131.65 Y132.669 E.11863
G1 X134.178 Y132.057 E.24916
G1 X144.198 Y131.538 E.7527
G1 X146.545 Y131.815 E.8713
G1 X148.669 Y132.853 E.98994
G1 X150.463 Y134.736 E1.12046
G1 X155.922 Y143.154 E1.62398
G1 X156.857 Y145.326 E1.74265
G1 X157.019 Y147.684 E1.86127
G1 X156.285 Y150.18 E1.99184
G1 X151.724 Y159.116 E2.49534
G1 X150.311 Y161.011 E2.61397
G1 X148.35 Y162.331 E2.7326
G1 X145.822 Y162.943 E2.86313
G1 X135.802 Y163.462 E3.36667
G1 X133.455 Y163.185 E3.48527
G1 X131.331 Y162.147 E3.60391
G1 X129.537 Y160.264 E3.73443
G1 X124.078 Y151.846 E4.23795
G1 X123.143 Y149.674 E4.35662
G1 X122.981 Y147.316 E4.47524
G1 X123.715 Y144.82 E4.60581
G1 X128.276 Y135.884 E5.10931
G1 X129.653 Y134.037 E5.22493
G1 X129.653 Y134.037 F7800
G1 X129.932 Y134.247
G1 F1800
G1 X129.969 Y134.199 E5.22797
G1 X131.897 Y132.937 E5.34361
G1 X134.196 Y132.401 E5.46208
G1 X144.215 Y131.883 E5.96556
G1 X146.503 Y132.162 E6.08124
G1 X148.56 Y133.201 E6.19689
G1 X150.174 Y134.924 E6.31537
G1 X155.633 Y143.342 E6.81889
G1 X156.535 Y145.463 E6.93456
G1 X156.663 Y147.764 E7.05022
G1 X155.978 Y150.023 E7.16869
G1 X151.417 Y158.959 E7.67219
G1 X150.031 Y160.801 E7.78788
G1 X148.103 Y162.063 E7.90352
G1 X145.804 Y162.599 E8.02199
G1 X135.785 Y163.117 E8.52547
G1 X133.497 Y162.838 E8.64115
G1 X131.44 Y161.799 E8.7568
G1 X129.826 Y160.076 E8.87528
G1 X124.367 Y151.658 E9.3788
G1 X123.465 Y149.537 E9.49447
G1 X123.337 Y147.236 E9.61013
G1 X124.022 Y144.977 E9.7286
G1 X128.583 Y136.041 E10.2321
G1 X129.896 Y134.295 E10.34174
G1 X129.896 Y134.295 F7800
G1 X130.175 Y134.507
G1 F1800
G1 X130.248 Y134.411 E10.34779
G1 X132.142 Y133.208 E10.46039
G1 X134.214 Y132.745 E10.56694
G1 X144.233 Y132.227 E11.07042
G1 X146.46 Y132.509 E11.18308
G1 X148.448 Y133.549 E11.29568
G1 X149.885 Y135.112 E11.40223
G1 X155.343 Y143.53 E11.90572
G1 X156.212 Y145.599 E12.01834
G1 X156.306 Y147.841 E12.13096
G1 X155.671 Y149.866 E12.23747
G1 X151.11 Y158.802 E12.74097
G1 X149.752 Y160.589 E12.85361
G1 X147.858 Y161.792 E12.96621
G1 X145.786 Y162.255 E13.07276
G1 X135.767 Y162.773 E13.57624
G1 X133.54 Y162.491 E13.6889
G1 X131.552 Y161.451 E13.8015
G1 X130.115 Y159.888 E13.90805
G1 X124.657 Y151.47 E14.41154
G1 X123.788 Y149.401 E14.52416
G1 X123.694 Y147.159 E14.63678
G1 X124.329 Y145.134 E14.74329
G1 X128.89 Y136.197 E15.24683
G1 X130.138 Y134.554 E15.35038
G1 E13.35038 F2400
G92 E0
G1 X130.138 Y134.554 F7800
G1 X148.982 Y147.035
G1 E2 F2400
;TYPE:Perimeter
;WIDTH:0.42
G1 F1800
G1 X148.491 Y147.997 E2.0542
G1 X144.893 Y155.046 E2.45138
G1 X135.911 Y155.511 E2.90275
G1 X131.018 Y147.965 E3.3541
G1 X135.107 Y139.954 E3.80548
G1 X144.089 Y139.489 E4.25685
G1 X148.949 Y146.985 E4.70519
G1 X148.949 Y146.985 F7800
G1 X149.38 Y147.015
G1 F1800
G1 X148.798 Y148.154 E4.76938
G1 X145.11 Y155.381 E5.17657
G1 X135.73 Y155.866 E5.64794
G1 X130.62 Y147.985 E6.11932
G1 X134.89 Y139.619 E6.5907
G1 X144.27 Y139.134 E7.06207
G1 X149.347 Y146.965 E7.53044
G1 X149.347 Y146.965 F7800
G1 X149.777 Y146.994
;TYPE:External perimeter
G1 F1800
G1 X149.105 Y148.311 E7.60464
G1 X145.327 Y155.715 E8.02179
G1 X135.549 Y156.22 E8.51316
G1 X130.223 Y148.006 E9.00446
G1 X134.673 Y139.285 E9.49582
G1 X144.451 Y138.78 E9.98719
G1 X149.745 Y146.944 E10.47551
G1 X149.607 Y147.319 F7800
G1 E8.47551 F2400
G92 E0
G1 X144.892 Y148.256 F7800
G1 E2 F2400
;TYPE:Perimeter
G1 F1800
G1 X144.698 Y149.091 E2.04302
G1 X144.297 Y149.977 E2.09183
G1 X143.732 Y150.768 E2.14061
G1 X143.022 Y151.433 E2.18943
G1 X142.197 Y151.947 E2.23821
G1 X141.287 Y152.291 E2.28703
G1 X140.328 Y152.45 E2.33582
G1 X139.356 Y152.418 E2.38463
G1 X138.409 Y152.198 E2.43342
G1 X137.7 Y151.881 E2.4724
G1 X137.378 Y151.711 E2.49067
G1 X136.732 Y151.232 E2.53103
G1 X136.067 Y150.522 E2.57985
G1 X135.553 Y149.697 E2.62863
G1 X135.209 Y148.787 E2.67745
G1 X135.05 Y147.828 E2.72624
G1 X135.042 Y147.659 E2.73473
G1 X135.082 Y146.856 E2.77508
G1 X135.302 Y145.909 E2.82387
G1 X135.702 Y145.023 E2.87266
G1 X136.268 Y144.232 E2.92147
G1 X136.978 Y143.567 E2.97029
G1 X137.803 Y143.053 E3.01907
G1 X138.713 Y142.71 E3.06788
G1 X139.672 Y142.55 E3.11667
G1 X140.644 Y142.582 E3.16548
G1 X141.591 Y142.802 E3.21427
G1 X142.3 Y143.119 E3.25325
G1 X142.622 Y143.289 E3.27152
G1 X143.268 Y143.768 E3.31188
G1 X143.933 Y144.478 E3.3607
G1 X144.447 Y145.303 E3.40948
G1 X144.791 Y146.213 E3.4583
G1 X144.95 Y147.172 E3.50709
G1 X144.918 Y148.144 E3.5559
G1 X144.906 Y148.198 E3.55868
G1 X144.906 Y148.198 F7800
G1 X144.56 Y148.185
G1 F1800
G1 X144.364 Y149.007 E3.60109
G1 X143.986 Y149.83 E3.64654
G1 X143.455 Y150.563 E3.69196
G1 X142.791 Y151.178 E3.73738
G1 X142.02 Y151.652 E3.7828
G1 X141.171 Y151.966 E3.82823
G1 X140.277 Y152.108 E3.87366
G1 X139.373 Y152.074 E3.91906
G1 X138.493 Y151.864 E3.96446
G1 X137.583 Y151.434 E4.01497
G1 X136.937 Y150.955 E4.05533
G1 X136.322 Y150.291 E4.10075
G1 X135.848 Y149.52 E4.14617
G1 X135.534 Y148.671 E4.1916
G1 X135.387 Y147.676 E4.24208
G1 X135.426 Y146.873 E4.28243
G1 X135.636 Y145.993 E4.32783
G1 X136.014 Y145.17 E4.37328
G1 X136.545 Y144.437 E4.4187
G1 X137.209 Y143.822 E4.46412
G1 X137.98 Y143.348 E4.50954
G1 X138.829 Y143.034 E4.55497
G1 X139.723 Y142.892 E4.6004
G1 X140.627 Y142.926 E4.6458
G1 X141.507 Y143.136 E4.6912
G1 X142.417 Y143.566 E4.74171
G1 X143.063 Y144.045 E4.78207
G1 X143.678 Y144.709 E4.82749
G1 X144.152 Y145.48 E4.87291
G1 X144.466 Y146.329 E4.91834
G1 X144.608 Y147.223 E4.96377
G1 X144.574 Y148.127 E5.00917
G1 X144.574 Y148.127 F7800
G1 X144.187 Y148.284
;TYPE:External perimeter
G1 F1800
G1 X144.029 Y148.924 E5.04225
G1 X143.674 Y149.682 E5.08426
G1 X143.178 Y150.357 E5.1263
G1 X142.559 Y150.922 E5.16836
G1 X141.842 Y151.356 E5.21042
G1 X141.055 Y151.641 E5.25243
G1 X140.227 Y151.767 E5.29446
G1 X139.39 Y151.729 E5.33651
G1 X138.576 Y151.529 E5.37858
G1 X137.789 Y151.157 E5.42227
G1 X137.143 Y150.678 E5.46263
G1 X136.578 Y150.059 E5.50469
G1 X136.144 Y149.342 E5.54675
G1 X135.859 Y148.555 E5.58876
G1 X135.731 Y147.693 E5.63249
G1 X135.771 Y146.89 E5.67284
G1 X135.971 Y146.076 E5.71491
G1 X136.326 Y145.318 E5.75692
G1 X136.822 Y144.643 E5.79896
G1 X137.441 Y144.078 E5.84102
G1 X138.158 Y143.644 E5.88308
G1 X138.945 Y143.359 E5.92509
G1 X139.773 Y143.233 E5.96712
G1 X140.61 Y143.271 E6.00917
G1 X141.424 Y143.471 E6.05124
G1 X142.211 Y143.843 E6.09493
G1 X142.857 Y144.322 E6.13529
G1 X143.422 Y144.941 E6.17735
G1 X143.856 Y145.658 E6.21941
G1 X144.141 Y146.445 E6.26142
G1 X144.267 Y147.273 E6.30345
G1 X144.229 Y148.11 E6.3455
G1 X144.201 Y148.226 E6.35149
G1 X144.105 Y148.614 F7800
G1 E4.35149 F2400
G92 E0
G1 X145.336 Y141.603 F7800
G1 E2 F2400
;TYPE:Solid infill
;WIDTH:0.420458
G1 F1800
G1 X143.511 Y139.778 E2.1297
G1 X143.047 Y139.802 E2.15305
G1 X145.711 Y142.466 E2.34237
G1 X146.612 Y143.856 E2.42561
G1 X142.582 Y139.826 E2.71201
G1 X142.118 Y139.85 E2.73536
G1 X147.513 Y145.245 E3.11877
G1 X148.413 Y146.634 E3.20194
G1 X141.653 Y139.874 E3.68236
G1 X141.189 Y139.898 E3.70571
G1 X148.568 Y147.277 E4.23012
G1 X148.403 Y147.601 E4.24839
G1 X140.725 Y139.922 E4.79408
G1 X140.26 Y139.946 E4.81748
G1 X148.238 Y147.924 E5.38446
G1 X148.073 Y148.247 E5.40269
G1 X139.796 Y139.97 E5.99092
G1 X139.332 Y139.994 E6.01427
G1 X142.053 Y142.716 E6.20768
G1 X141.658 Y142.552 E6.22917
G1 X141.315 Y142.466 E6.24694
G1 X138.867 Y140.018 E6.42091
G1 X138.403 Y140.042 E6.44426
G1 X140.688 Y142.327 E6.60665
G1 X140.175 Y142.302 E6.63246
G1 X137.938 Y140.066 E6.7914
G1 X137.474 Y140.09 E6.81475
G1 X139.677 Y142.293 E6.97131
G1 X139.251 Y142.355 E6.99294
G1 X137.01 Y140.114 E7.1522
G1 X136.545 Y140.138 E7.1756
G1 X138.825 Y142.418 E7.33763
G1 X138.452 Y142.533 E7.35724
G1 X136.081 Y140.162 E7.52574
G1 X135.617 Y140.186 E7.54909
G1 X138.09 Y142.66 E7.72488
G1 X137.739 Y142.798 E7.74383
G1 X135.228 Y140.286 E7.92232
G1 X135.063 Y140.609 E7.94055
G1 X137.429 Y142.975 E8.1087
G1 X137.124 Y143.158 E8.12657
G1 X134.898 Y140.932 E8.28477
G1 X134.732 Y141.256 E8.30306
G1 X136.831 Y143.354 E8.4522
G1 X136.573 Y143.584 E8.46957
G1 X134.567 Y141.579 E8.6121
G1 X134.402 Y141.902 E8.63033
G1 X136.317 Y143.817 E8.76642
G1 X136.074 Y144.062 E8.78376
G1 X134.237 Y142.226 E8.91428
G1 X134.072 Y142.549 E8.93251
G1 X135.868 Y144.345 E9.06015
G1 X135.664 Y144.629 E9.07772
G1 X133.907 Y142.873 E9.20255
G1 X133.742 Y143.196 E9.22078
G1 X135.466 Y144.92 E9.3433
G1 X135.312 Y145.254 E9.36178
G1 X133.577 Y143.519 E9.48508
G1 X133.412 Y143.843 E9.50335
G1 X135.158 Y145.589 E9.62743
G1 X135.068 Y145.785 E9.63827
G1 X135.027 Y145.946 E9.64662
G1 X133.247 Y144.166 E9.77312
G1 X133.082 Y144.489 E9.79135
G1 X134.929 Y146.336 E9.92261
G1 X134.839 Y146.735 E9.94316
G1 X132.917 Y144.813 E10.07975
G1 X132.752 Y145.136 E10.09798
G1 X134.808 Y147.192 E10.2441
G1 X134.788 Y147.661 E10.26769
G1 X132.587 Y145.459 E10.42415
G1 X132.422 Y145.783 E10.44242
G1 X134.848 Y148.208 E10.61479
G1 X134.946 Y148.795 E10.6447
G1 X132.257 Y146.106 E10.8358
G1 X132.092 Y146.429 E10.85403
G1 X135.541 Y149.879 E11.09918
G1 E9.09918 F2400
G92 E0
G1 X135.541 Y149.879 F7800
G1 X144.439 Y145.102
G1 E2 F2400
G1 F1800
G1 X147.908 Y148.571 E2.24653
G1 X147.743 Y148.894 E2.26476
G1 X145.054 Y146.205 E2.45586
G1 X145.152 Y146.792 E2.48577
G1 X147.578 Y149.217 E2.65814
G1 X147.413 Y149.541 E2.67641
G1 X145.212 Y147.34 E2.83283
G1 X145.192 Y147.808 E2.85637
G1 X147.248 Y149.864 E3.00249
G1 X147.083 Y150.187 E3.02072
G1 X145.161 Y148.266 E3.15728
G1 X145.072 Y148.665 E3.17782
G1 X146.918 Y150.511 E3.30901
G1 X146.753 Y150.834 E3.32724
G1 X144.974 Y149.055 E3.45367
G1 X144.848 Y149.418 E3.47298
G1 X146.588 Y151.157 E3.5966
G1 X146.423 Y151.481 E3.61487
G1 X144.691 Y149.749 E3.73796
G1 X144.534 Y150.081 E3.75642
G1 X146.258 Y151.804 E3.87891
G1 X146.093 Y152.128 E3.89718
G1 X144.336 Y150.371 E4.02205
G1 X144.132 Y150.655 E4.03962
G1 X145.928 Y152.451 E4.16726
G1 X145.763 Y152.774 E4.18549
G1 X143.926 Y150.938 E4.31601
G1 X143.683 Y151.183 E4.33335
G1 X145.598 Y153.098 E4.46944
G1 X145.433 Y153.421 E4.48767
G1 X143.427 Y151.416 E4.6302
G1 X143.169 Y151.646 E4.64757
G1 X145.267 Y153.744 E4.79667
G1 X145.102 Y154.068 E4.81494
G1 X142.876 Y151.842 E4.97314
G1 X142.571 Y152.025 E4.99101
G1 X144.937 Y154.391 E5.15916
G1 X144.772 Y154.714 E5.17739
G1 X142.26 Y152.203 E5.35588
G1 X141.91 Y152.34 E5.37477
G1 X144.383 Y154.814 E5.55056
G1 X143.919 Y154.838 E5.57391
G1 X141.548 Y152.467 E5.74241
G1 X141.175 Y152.582 E5.76202
G1 X143.455 Y154.862 E5.92405
G1 X142.99 Y154.886 E5.94745
G1 X140.749 Y152.645 E6.10671
G1 X140.323 Y152.707 E6.12834
G1 X142.526 Y154.91 E6.2849
G1 X142.061 Y154.934 E6.3083
G1 X139.825 Y152.698 E6.46721
G1 X139.312 Y152.673 E6.49302
G1 X141.597 Y154.958 E6.65541
G1 X141.133 Y154.982 E6.67876
G1 X138.685 Y152.534 E6.85273
G1 X138.342 Y152.448 E6.8705
G1 X137.947 Y152.284 E6.89199
G1 X140.668 Y155.006 E7.0854
G1 X140.204 Y155.03 E7.10875
G1 X131.927 Y146.753 E7.69698
G1 X131.762 Y147.076 E7.71521
G1 X139.74 Y155.054 E8.28219
G1 X139.275 Y155.078 E8.30559
G1 X131.597 Y147.4 E8.85125
G1 X131.432 Y147.723 E8.86948
G1 X138.811 Y155.102 E9.39389
G1 X138.346 Y155.126 E9.41729
G1 X131.587 Y148.366 E9.89767
G1 X132.488 Y149.756 E9.98091
G1 X137.882 Y155.15 E10.36425
G1 X137.418 Y155.174 E10.3876
G1 X133.388 Y151.145 E10.67397
G1 X134.289 Y152.534 E10.75717
G1 X136.953 Y155.198 E10.94649
G1 X136.489 Y155.222 E10.96984
G1 X134.664 Y153.397 E11.09954
;LAYER_CHANGE
;Z:0.65
;HEIGHT:0.3
G1 Z.65 F7800
;
;
G1 E9.09954 F2400
G1 Z.65 F7800
G1 X148.871 Y147.041
G1 E11.09954 F2400
;TYPE:Perimeter
;WIDTH:0.45
G1 F3600
G1 X148.404 Y147.956 E11.14895
G1 X144.833 Y154.953 E11.52678
G1 X135.962 Y155.412 E11.95402
G1 X131.129 Y147.959 E12.38125
G1 X135.167 Y140.047 E12.80848
G1 X144.038 Y139.588 E13.23572
G1 X148.838 Y146.991 E13.66007
G1 X148.838 Y146.991 F7800
G1 X149.315 Y147.018
G1 F3600
G1 X148.747 Y148.132 E13.72021
G1 X145.075 Y155.327 E14.10873
G1 X135.76 Y155.808 E14.55735
G1 X130.685 Y147.982 E15.00597
G1 X134.925 Y139.673 E15.45463
G1 X144.24 Y139.192 E15.90325
G1 X149.283 Y146.968 E16.34901
G1 X149.283 Y146.968 F7800
G1 X149.76 Y146.995
;TYPE:External perimeter
G1 F1800
G1 X149.091 Y148.307 E16.41984
G1 X145.317 Y155.7 E16.81907
G1 X135.557 Y156.205 E17.28912
G1 X130.24 Y148.005 E17.75916
G1 X134.683 Y139.3 E18.22922
G1 X144.443 Y138.795 E18.69927
G1 X149.728 Y146.945 E19.16646
G1 X149.59 Y147.32 F7800
G1 E17.16646 F2400
G92 E0
G1 X144.943 Y148.514 F7800
G1 E2 F2400
;TYPE:Perimeter
G1 F900
G1 X144.707 Y149.347 E2.04164
G1 X144.256 Y150.23 E2.08933
G1 X143.642 Y151.008 E2.137
G1 X142.887 Y151.651 E2.1847
G1 X142.022 Y152.135 E2.23237
G1 X141.079 Y152.44 E2.28004
G1 X140.095 Y152.556 E2.32769
G1 X139.106 Y152.477 E2.37541
G1 X138.153 Y152.207 E2.42305
G1 X137.27 Y151.756 E2.47074
G1 X136.492 Y151.142 E2.51841
G1 X135.849 Y150.387 E2.56611
G1 X135.365 Y149.522 E2.61378
G1 X135.06 Y148.579 E2.66145
G1 X135.023 Y148.394 E2.67052
G1 X134.944 Y147.595 E2.70914
G1 X135.023 Y146.606 E2.75686
G1 X135.293 Y145.653 E2.8045
G1 X135.744 Y144.77 E2.85219
G1 X136.358 Y143.992 E2.89986
G1 X137.113 Y143.349 E2.94756
G1 X137.978 Y142.865 E2.99523
G1 X138.921 Y142.56 E3.0429
G1 X139.903 Y142.444 E3.09046
G1 X140.893 Y142.523 E3.13823
G1 X141.847 Y142.793 E3.18592
G1 X142.73 Y143.244 E3.23361
G1 X143.508 Y143.858 E3.28128
G1 X144.151 Y144.613 E3.32898
G1 X144.635 Y145.478 E3.37665
G1 X144.94 Y146.421 E3.42432
G1 X145.047 Y147.322 E3.46796
G1 X145.056 Y147.594 E3.48105
G1 X144.977 Y148.394 E3.51971
G1 X144.959 Y148.457 E3.52286
G1 X144.959 Y148.457 F7800
G1 X144.575 Y148.418
G1 F900
G1 X144.338 Y149.235 E3.56377
G1 X143.916 Y150.048 E3.60783
G1 X143.344 Y150.763 E3.65187
G1 X142.643 Y151.353 E3.69594
G1 X141.84 Y151.795 E3.74003
G1 X140.967 Y152.071 E3.78407
G1 X140.057 Y152.172 E3.82811
G1 X139.144 Y152.093 E3.87219
G1 X138.265 Y151.838 E3.91621
G1 X137.452 Y151.416 E3.96027
G1 X136.737 Y150.844 E4.00431
G1 X136.147 Y150.143 E4.04838
G1 X135.705 Y149.34 E4.09247
G1 X135.407 Y148.356 E4.14192
G1 X135.328 Y147.557 E4.18054
G1 X135.407 Y146.644 E4.22462
G1 X135.662 Y145.765 E4.26864
G1 X136.084 Y144.952 E4.3127
G1 X136.656 Y144.237 E4.35674
G1 X137.357 Y143.647 E4.40081
G1 X138.16 Y143.205 E4.4449
G1 X139.033 Y142.929 E4.48894
G1 X139.941 Y142.828 E4.53288
G1 X140.856 Y142.907 E4.57705
G1 X141.735 Y143.162 E4.62107
G1 X142.548 Y143.584 E4.66513
G1 X143.263 Y144.156 E4.70917
G1 X143.853 Y144.857 E4.75324
G1 X144.295 Y145.66 E4.79733
G1 X144.571 Y146.533 E4.84137
G1 X144.664 Y147.36 E4.8814
G1 X144.593 Y148.356 E4.92943
G1 X144.592 Y148.36 E4.92963
G1 X144.592 Y148.36 F7800
G1 X144.211 Y148.292
;TYPE:External perimeter
G1 F900
G1 X144.209 Y148.318 E4.93088
G1 X143.969 Y149.124 E4.97133
G1 X143.576 Y149.867 E5.01176
G1 X143.046 Y150.519 E5.05217
G1 X142.398 Y151.055 E5.09262
G1 X141.658 Y151.454 E5.13306
