; generated by PrusaSlicer 2.7.2+win64 on 2024-04-11 at 13:52:38 UTC

; 

; external perimeters extrusion width = 0.45mm
; perimeters extrusion width = 0.45mm
; infill extrusion width = 0.45mm
; solid infill extrusion width = 0.45mm
; top infill extrusion width = 0.40mm
; support material extrusion width = 0.35mm
; first layer extrusion width = 0.42mm

;TYPE:Custom
M107
M191 S50     ; set chamber temperature and wait for it to be reached
;M109 S120   ; set temp and wait for it to be reached
M104 S150    ; Start heating the extruder.
M140 S70 ; heat bed
M190 S70 ; wait for the bed to heat up
G28          ; home all axes

G29 ; Z-Probe the bed (requires Z-Probe!) - auto bed level

M109 S215 ; Heat up the extruder

G1 Y288 Z0.3 F9000  ; move forward off front of bed
G1 X10 Z10          ; move left to clear heater
G1 Z0.4 F300        ; position nozzle 
G92 E0              ; zero extruder
G1 E25 F225         ; purge nozzle
G92 E0              ; zero extruder

G1 Y265 Z0.2 E1.0 F600 ; slow wipe
G1 Y260 Z0.25          ; lift
G92 E0 
G1 E-1.0
G21 ; set units to millimeters
G90 ; use absolute coordinates
M82 ; use absolute distances for extrusion
G92 E0
; Filament gcode
M107
;LAYER_CHANGE
;Z:0.35
;HEIGHT:0.35
G1 E-2 F2400
G1 Z.35 F7800
G1 X125.592 Y137.973
G1 E0 F2400
;TYPE:Skirt/Brim
;WIDTH:0.42
G1 F1800
G1 X127.576 Y136.266 E.13135
G1 X136.458 Y131.138 E.64606
G1 X138.675 Y130.316 E.76472
G1 X141.038 Y130.276 E.88333
G1 X143.478 Y131.129 E1.01305
G1 X152.385 Y136.243 E1.5285
G1 X154.208 Y137.748 E1.64714
G1 X155.43 Y139.772 E1.76579
G1 X155.917 Y142.327 E1.89632
G1 X155.941 Y152.626 E2.41319
G1 X155.55 Y154.957 E2.53181
G1 X154.408 Y157.027 E2.65046
G1 X152.424 Y158.734 E2.78181
G1 X143.517 Y163.877 E3.29798
G1 X141.301 Y164.698 E3.41658
G1 X138.937 Y164.738 E3.53524
G1 X136.483 Y163.877 E3.66576
G1 X127.601 Y158.748 E4.18049
G1 X125.781 Y157.239 E4.29914
G1 X124.564 Y155.213 E4.41775
G1 X124.083 Y152.673 E4.54749
G1 X124.059 Y142.374 E5.06436
G1 X124.45 Y140.043 E5.18298
G1 X125.563 Y138.026 E5.29859
G1 X125.563 Y138.026 F7800
G1 X125.875 Y138.203
G1 F1800
G1 X125.935 Y138.099 E5.30462
G1 X127.749 Y136.564 E5.42388
G1 X136.631 Y131.436 E5.93859
G1 X138.795 Y130.645 E6.05422
G1 X141.1 Y130.635 E6.1699
G1 X143.307 Y131.428 E6.28759
G1 X152.213 Y136.542 E6.80299
G1 X153.984 Y138.017 E6.91866
G1 X155.15 Y140.005 E7.03432
G1 X155.572 Y142.328 E7.15281
G1 X155.596 Y152.626 E7.66963
G1 X155.205 Y154.898 E7.78533
G1 X154.065 Y156.901 E7.90099
G1 X152.251 Y158.436 E8.02025
G1 X143.345 Y163.578 E8.53635
G1 X141.18 Y164.369 E8.65203
G1 X138.876 Y164.379 E8.76766
G1 X136.655 Y163.578 E8.88615
G1 X127.773 Y158.45 E9.40086
G1 X126.005 Y156.971 E9.51654
G1 X124.845 Y154.98 E9.63218
G1 X124.428 Y152.672 E9.74988
G1 X124.404 Y142.374 E10.2667
G1 X124.795 Y140.102 E10.3824
G1 X125.846 Y138.256 E10.48901
G1 X125.846 Y138.256 F7800
G1 X126.154 Y138.437
G1 F1800
G1 X126.277 Y138.228 E10.50118
G1 X127.921 Y136.863 E10.60842
G1 X136.803 Y131.735 E11.12313
G1 X138.914 Y130.974 E11.23575
G1 X141.158 Y130.996 E11.34837
G1 X143.135 Y131.727 E11.45415
G1 X152.042 Y136.841 E11.9696
G1 X153.759 Y138.285 E12.08219
G1 X154.867 Y140.237 E12.19483
G1 X155.227 Y142.329 E12.30136
G1 X155.251 Y152.627 E12.81818
G1 X154.86 Y154.837 E12.93081
G1 X153.723 Y156.772 E13.04344
G1 X152.079 Y158.137 E13.15068
G1 X143.172 Y163.279 E13.66683
G1 X141.061 Y164.04 E13.77945
G1 X138.817 Y164.018 E13.89207
G1 X136.828 Y163.279 E13.99856
G1 X127.945 Y158.151 E14.51331
G1 X126.231 Y156.703 E14.62592
G1 X125.128 Y154.749 E14.73853
G1 X124.773 Y152.671 E14.84433
G1 X124.749 Y142.373 E15.36115
G1 X125.14 Y140.163 E15.47378
G1 X126.124 Y138.488 E15.57127
G1 E13.57127 F2400
G92 E0
G1 X126.124 Y138.488 F7800
G1 X131.993 Y142.877
G1 E2 F2400
;TYPE:Perimeter
;WIDTH:0.42
G1 F1800
G1 X140 Y138.255 E2.46398
G1 X148.007 Y142.877 E2.92796
G1 X148.007 Y144.025 E2.98557
G1 X148.007 Y152.123 E3.39198
G1 X140 Y156.745 E3.85596
G1 X131.993 Y152.123 E4.31994
G1 X131.993 Y142.937 E4.78095
G1 X131.993 Y142.937 F7800
G1 X131.648 Y142.678
G1 F1800
G1 X140 Y137.856 E5.26494
G1 X148.352 Y142.678 E5.74893
G1 X148.352 Y144.025 E5.81653
G1 X148.352 Y152.322 E6.23292
G1 X140 Y157.144 E6.71691
G1 X131.648 Y152.322 E7.2009
G1 X131.648 Y142.738 E7.68188
G1 X131.648 Y142.738 F7800
G1 X131.304 Y142.479
;TYPE:External perimeter
G1 F1800
G1 X140 Y137.458 E8.18582
G1 X148.696 Y142.479 E8.68976
G1 X148.696 Y144.025 E8.76735
G1 X148.696 Y152.521 E9.19373
G1 X140 Y157.542 E9.69767
G1 X131.304 Y152.521 E10.20161
G1 X131.304 Y142.539 E10.70257
G1 X131.623 Y142.299 F7800
G1 E8.70257 F2400
G92 E0
G1 X141.231 Y142.705 F7800
G1 E2 F2400
;TYPE:Perimeter
G1 F1800
G1 X142.044 Y142.98 E2.04307
G1 X142.887 Y143.466 E2.0919
G1 X143.618 Y144.107 E2.14069
G1 X144.211 Y144.878 E2.1895
G1 X144.641 Y145.75 E2.23829
G1 X144.894 Y146.689 E2.2871
G1 X144.958 Y147.659 E2.33589
G1 X144.832 Y148.623 E2.38468
G1 X144.52 Y149.544 E2.43348
G1 X144.034 Y150.387 E2.48231
G1 X143.393 Y151.118 E2.5311
G1 X142.622 Y151.711 E2.57991
G1 X141.75 Y152.141 E2.6287
G1 X140.811 Y152.394 E2.67751
G1 X139.902 Y152.455 E2.72323
G1 X138.877 Y152.332 E2.77504
G1 X137.956 Y152.02 E2.82384
G1 X137.113 Y151.534 E2.87267
G1 X136.382 Y150.893 E2.92146
G1 X135.789 Y150.122 E2.97027
G1 X135.359 Y149.25 E3.01906
G1 X135.106 Y148.311 E3.06787
G1 X135.082 Y148.144 E3.07634
G1 X135.042 Y147.341 E3.11669
G1 X135.168 Y146.377 E3.16548
G1 X135.48 Y145.456 E3.21428
G1 X135.966 Y144.613 E3.26311
G1 X136.607 Y143.882 E3.3119
G1 X137.378 Y143.289 E3.36071
G1 X138.25 Y142.859 E3.4095
G1 X139.189 Y142.606 E3.45831
G1 X140.098 Y142.545 E3.50403
G1 X141.123 Y142.668 E3.55584
G1 X141.174 Y142.686 E3.55855
G1 X141.174 Y142.686 F7800
G1 X141.128 Y143.029
G1 F1800
G1 X141.928 Y143.305 E3.60102
G1 X142.709 Y143.762 E3.64643
G1 X143.387 Y144.362 E3.69187
G1 X143.934 Y145.083 E3.73729
G1 X144.33 Y145.897 E3.78272
G1 X144.559 Y146.772 E3.82811
G1 X144.613 Y147.676 E3.87356
G1 X144.49 Y148.573 E3.919
G1 X144.195 Y149.428 E3.96439
G1 X143.738 Y150.209 E4.0098
G1 X143.138 Y150.887 E4.05524
G1 X142.417 Y151.434 E4.10066
G1 X141.603 Y151.83 E4.14609
G1 X140.728 Y152.059 E4.19148
G1 X139.885 Y152.11 E4.23386
G1 X138.927 Y151.99 E4.28231
G1 X138.072 Y151.695 E4.3277
G1 X137.291 Y151.238 E4.37311
G1 X136.613 Y150.638 E4.41855
G1 X136.066 Y149.917 E4.46397
G1 X135.671 Y149.103 E4.50938
G1 X135.426 Y148.127 E4.55988
G1 X135.387 Y147.324 E4.60023
G1 X135.51 Y146.427 E4.64567
G1 X135.805 Y145.572 E4.69106
G1 X136.262 Y144.791 E4.73647
G1 X136.862 Y144.113 E4.78191
G1 X137.583 Y143.566 E4.82733
G1 X138.397 Y143.171 E4.87274
G1 X139.272 Y142.941 E4.91814
G1 X140.115 Y142.89 E4.96052
G1 X141.071 Y143.009 E5.00887
G1 X141.071 Y143.009 F7800
G1 X140.861 Y143.33
;TYPE:External perimeter
G1 F1800
G1 X141.022 Y143.351 E5.01702
G1 X141.812 Y143.63 E5.05907
G1 X142.532 Y144.058 E5.10111
G1 X143.155 Y144.618 E5.14315
G1 X143.657 Y145.289 E5.18521
G1 X144.018 Y146.044 E5.22721
G1 X144.224 Y146.856 E5.26925
G1 X144.269 Y147.693 E5.31132
G1 X144.149 Y148.522 E5.35336
G1 X143.87 Y149.312 E5.39541
G1 X143.442 Y150.032 E5.43745
G1 X142.882 Y150.655 E5.47949
G1 X142.211 Y151.157 E5.52155
G1 X141.456 Y151.518 E5.56355
G1 X140.644 Y151.724 E5.60559
G1 X139.868 Y151.766 E5.64459
G1 X138.978 Y151.649 E5.68964
G1 X138.188 Y151.37 E5.73169
G1 X137.468 Y150.942 E5.77373
G1 X136.845 Y150.382 E5.81577
G1 X136.343 Y149.711 E5.85783
G1 X135.982 Y148.956 E5.89983
G1 X135.771 Y148.11 E5.94359
G1 X135.731 Y147.307 E5.98394
G1 X135.851 Y146.478 E6.02598
G1 X136.13 Y145.688 E6.06803
G1 X136.558 Y144.968 E6.11007
G1 X137.118 Y144.345 E6.15211
G1 X137.789 Y143.843 E6.19417
G1 X138.544 Y143.482 E6.23617
G1 X139.356 Y143.276 E6.27821
G1 X140.132 Y143.234 E6.31721
G1 X140.801 Y143.322 E6.35107
G1 X141.19 Y143.416 F7800
G1 E4.35107 F2400
G92 E0
G1 X146.229 Y141.97 F7800
G1 E2 F2400
;TYPE:Solid infill
;WIDTH:0.421548
G1 F1800
G1 X147.748 Y143.49 E2.10833
G1 X147.748 Y143.98 E2.13303
G1 X145.493 Y141.725 E2.29379
G1 X144.334 Y141.056 E2.36125
G1 X147.748 Y144.469 E2.60461
G1 X147.748 Y144.959 E2.62931
G1 X143.175 Y140.386 E2.95533
G1 X142.016 Y139.717 E3.02279
G1 X147.748 Y145.449 E3.43144
G1 X147.748 Y145.939 E3.45614
G1 X140.857 Y139.048 E3.94741
G1 X140 Y138.553 E3.9973
G1 X139.919 Y138.6 E4.00202
G1 X147.748 Y146.429 E4.56017
G1 X147.748 Y146.919 E4.58487
G1 X139.608 Y138.779 E5.16519
G1 X139.298 Y138.959 E5.18326
G1 X147.748 Y147.409 E5.78568
G1 X147.748 Y147.899 E5.81038
G1 X138.987 Y139.138 E6.43497
G1 X138.677 Y139.317 E6.45302
G1 X142.076 Y142.717 E6.69538
G1 X141.321 Y142.452 E6.73572
G1 X138.366 Y139.497 E6.94639
G1 X138.055 Y139.676 E6.96448
G1 X140.727 Y142.348 E7.15497
G1 X140.361 Y142.294 E7.17362
G1 X140.178 Y142.289 E7.18285
G1 X137.745 Y139.855 E7.35634
G1 X137.434 Y140.035 E7.37445
G1 X139.705 Y142.305 E7.53632
G1 X139.247 Y142.337 E7.55946
G1 X137.123 Y140.214 E7.71085
G1 X136.813 Y140.393 E7.7289
G1 X138.845 Y142.426 E7.8738
G1 X138.453 Y142.524 E7.89417
G1 X136.502 Y140.573 E8.03326
G1 X136.192 Y140.752 E8.05131
G1 X138.089 Y142.649 E8.18655
G1 X137.757 Y142.807 E8.20509
G1 X135.881 Y140.931 E8.33883
G1 X135.57 Y141.111 E8.35694
G1 X137.425 Y142.966 E8.48919
G1 X137.33 Y143.012 E8.49451
G1 X137.129 Y143.159 E8.50706
G1 X135.26 Y141.29 E8.6403
G1 X134.949 Y141.469 E8.65839
G1 X136.846 Y143.366 E8.79363
G1 X136.564 Y143.574 E8.81129
G1 X134.639 Y141.649 E8.94853
G1 X134.328 Y141.828 E8.96662
G1 X136.321 Y143.821 E9.10871
G1 X136.086 Y144.076 E9.12619
G1 X134.017 Y142.007 E9.27369
G1 X133.707 Y142.187 E9.29176
G1 X135.853 Y144.333 E9.44475
G1 X135.657 Y144.626 E9.46252
G1 X133.396 Y142.366 E9.62368
G1 X133.086 Y142.545 E9.64173
G1 X135.473 Y144.933 E9.81194
G1 X135.295 Y145.245 E9.83005
G1 X132.775 Y142.725 E10.00971
G1 X132.464 Y142.904 E10.0278
G1 X135.156 Y145.595 E10.21968
G1 X135.027 Y145.956 E10.23901
G1 X132.252 Y143.182 E10.43681
G1 X132.252 Y143.671 E10.46146
G1 X134.914 Y146.333 E10.65124
G1 X134.855 Y146.764 E10.67317
G1 X132.252 Y144.161 E10.85874
G1 X132.252 Y144.651 E10.88344
G1 X134.796 Y147.195 E11.06481
G1 X134.782 Y147.295 E11.0699
G1 X134.804 Y147.694 E11.09004
G1 X132.252 Y145.141 E11.27201
G1 X132.252 Y145.631 E11.29671
G1 X134.834 Y148.213 E11.48079
G1 X134.838 Y148.293 E11.48483
G1 X134.974 Y148.843 E11.51339
G1 X132.252 Y146.121 E11.70745
G1 X132.252 Y146.611 E11.73215
G1 X135.564 Y149.923 E11.96827
G1 E9.96827 F2400
G92 E0
G1 X135.564 Y149.923 F7800
G1 X144.436 Y145.077
G1 E2 F2400
G1 F1800
G1 X147.748 Y148.389 E2.23612
G1 X147.748 Y148.879 E2.26082
G1 X145.027 Y146.158 E2.45481
G1 X145.169 Y146.79 E2.48746
G1 X147.748 Y149.369 E2.67132
G1 X147.748 Y149.859 E2.69602
G1 X145.199 Y147.31 E2.87774
G1 X145.218 Y147.705 E2.89768
G1 X145.204 Y147.805 E2.90277
G1 X147.748 Y150.349 E3.08414
G1 X147.748 Y150.839 E3.10884
G1 X145.145 Y148.236 E3.29441
G1 X145.086 Y148.667 E3.31634
G1 X147.748 Y151.329 E3.50612
G1 X147.748 Y151.819 E3.53082
G1 X144.966 Y149.036 E3.72919
G1 X144.841 Y149.402 E3.74869
G1 X147.536 Y152.096 E3.94079
G1 X147.225 Y152.275 E3.95888
G1 X144.705 Y149.755 E4.13854
G1 X144.527 Y150.067 E4.15665
G1 X146.914 Y152.455 E4.32686
G1 X146.604 Y152.634 E4.34491
G1 X144.343 Y150.374 E4.50607
G1 X144.147 Y150.667 E4.52384
G1 X146.293 Y152.813 E4.67683
G1 X145.983 Y152.993 E4.6949
G1 X143.914 Y150.924 E4.8424
G1 X143.679 Y151.179 E4.85988
G1 X145.672 Y153.172 E5.00197
G1 X145.361 Y153.351 E5.02006
G1 X143.436 Y151.426 E5.1573
G1 X143.154 Y151.634 E5.17496
G1 X145.051 Y153.531 E5.3102
G1 X144.74 Y153.71 E5.32829
G1 X142.871 Y151.841 E5.46153
G1 X142.67 Y151.988 E5.47408
G1 X142.574 Y152.034 E5.47945
G1 X144.43 Y153.889 E5.61173
G1 X144.119 Y154.069 E5.62984
G1 X142.243 Y152.193 E5.76358
G1 X141.911 Y152.351 E5.78212
G1 X143.808 Y154.248 E5.91736
G1 X143.498 Y154.427 E5.93541
G1 X141.547 Y152.476 E6.0745
G1 X141.155 Y152.574 E6.09487
G1 X143.187 Y154.607 E6.23977
G1 X142.876 Y154.786 E6.25786
G1 X140.753 Y152.663 E6.40921
G1 X140.295 Y152.695 E6.43235
G1 X142.566 Y154.965 E6.59422
G1 X142.255 Y155.145 E6.61233
G1 X139.826 Y152.715 E6.78553
G1 X139.272 Y152.652 E6.81364
G1 X141.945 Y155.324 E7.00417
G1 X141.634 Y155.503 E7.02226
G1 X138.678 Y152.548 E7.23296
G1 X137.924 Y152.283 E7.27325
G1 X141.323 Y155.683 E7.51561
G1 X141.013 Y155.862 E7.53366
G1 X132.252 Y147.101 E8.15825
G1 X132.252 Y147.591 E8.18295
G1 X140.702 Y156.041 E8.78537
G1 X140.392 Y156.221 E8.80344
G1 X132.252 Y148.081 E9.38376
G1 X132.252 Y148.571 E9.40846
G1 X140.081 Y156.4 E9.96661
G1 X140 Y156.447 E9.97133
G1 X139.143 Y155.952 E10.02122
G1 X132.252 Y149.061 E10.51249
G1 X132.252 Y149.551 E10.53719
G1 X137.984 Y155.283 E10.94584
G1 X136.825 Y154.613 E11.01333
G1 X132.252 Y150.041 E11.33931
G1 X132.252 Y150.531 E11.36401
G1 X135.666 Y153.944 E11.60737
G1 X134.506 Y153.275 E11.67488
G1 X132.252 Y151.021 E11.83557
G1 X132.252 Y151.51 E11.86022
G1 X133.771 Y153.03 E11.96855
;LAYER_CHANGE
;Z:0.65
;HEIGHT:0.3
G1 Z.65 F7800
;
;
G1 E9.96855 F2400
G1 Z.65 F7800
G1 X132.094 Y142.935
G1 E11.96855 F2400
;TYPE:Perimeter
;WIDTH:0.45
G1 F3600
G1 X140 Y138.371 E12.40761
G1 X147.906 Y142.935 E12.84667
G1 X147.906 Y144.03 E12.89934
G1 X147.906 Y152.065 E13.2858
G1 X140 Y156.629 E13.72486
G1 X132.094 Y152.065 E14.16392
G1 X132.094 Y142.995 E14.60016
G1 X132.094 Y142.995 F7800
G1 X131.708 Y142.713
G1 F3600
G1 X140 Y137.926 E15.06066
G1 X148.292 Y142.713 E15.52116
G1 X148.292 Y144.03 E15.5845
G1 X148.292 Y152.287 E15.98163
G1 X140 Y157.074 E16.44213
G1 X131.708 Y152.287 E16.90263
G1 X131.708 Y142.773 E17.36022
G1 X131.708 Y142.773 F7800
G1 X131.323 Y142.49
;TYPE:External perimeter
G1 F1800
G1 X140 Y137.48 E17.84212
G1 X148.677 Y142.49 E18.32402
G1 X148.677 Y144.03 E18.39809
G1 X148.677 Y152.51 E18.80595
G1 X140 Y157.52 E19.28785
G1 X131.323 Y152.51 E19.76975
G1 X131.323 Y142.55 E20.24879
G1 X131.643 Y142.31 F7800
G1 E18.24879 F2400
G92 E0
G1 X141.016 Y142.558 F7800
G1 E2 F2400
;TYPE:Perimeter
G1 F900
G1 X141.847 Y142.793 E2.04154
G1 X142.73 Y143.244 E2.08923
G1 X143.508 Y143.858 E2.1369
G1 X144.151 Y144.613 E2.1846
G1 X144.635 Y145.478 E2.23227
G1 X144.94 Y146.421 E2.27994
G1 X145.056 Y147.406 E2.32764
G1 X144.977 Y148.394 E2.37531
G1 X144.707 Y149.347 E2.42295
G1 X144.338 Y150.076 E2.46225
G1 X144.151 Y150.387 E2.4797
G1 X143.642 Y151.008 E2.51832
G1 X142.887 Y151.651 E2.56602
G1 X142.022 Y152.135 E2.61369
G1 X141.079 Y152.44 E2.66136
G1 X140.094 Y152.556 E2.70906
G1 X139.106 Y152.477 E2.75673
G1 X138.153 Y152.207 E2.80437
G1 X137.27 Y151.756 E2.85206
G1 X136.492 Y151.142 E2.89973
G1 X135.849 Y150.387 E2.94743
G1 X135.365 Y149.522 E2.9951
G1 X135.06 Y148.579 E3.04277
G1 X134.944 Y147.594 E3.09047
G1 X134.944 Y147.405 E3.09956
G1 X135.023 Y146.606 E3.13818
G1 X135.293 Y145.653 E3.18582
G1 X135.662 Y144.924 E3.22512
G1 X135.849 Y144.613 E3.24257
G1 X136.358 Y143.992 E3.28119
G1 X137.113 Y143.349 E3.32889
G1 X137.978 Y142.865 E3.37656
G1 X138.921 Y142.56 E3.42423
G1 X139.904 Y142.444 E3.47184
G1 X140.893 Y142.523 E3.51956
G1 X140.958 Y142.541 E3.5228
G1 X140.958 Y142.541 F7800
G1 X140.919 Y142.925
G1 F900
G1 X141.735 Y143.162 E3.56367
G1 X142.548 Y143.584 E3.60773
G1 X143.263 Y144.156 E3.65177
G1 X143.853 Y144.857 E3.69584
G1 X144.295 Y145.66 E3.73993
G1 X144.571 Y146.533 E3.78397
G1 X144.672 Y147.443 E3.82801
G1 X144.593 Y148.356 E3.87209
G1 X144.338 Y149.235 E3.91611
G1 X143.853 Y150.143 E3.96562
G1 X143.344 Y150.763 E4.0042
G1 X142.643 Y151.353 E4.04827
G1 X141.84 Y151.795 E4.09236
G1 X140.967 Y152.071 E4.1364
G1 X140.057 Y152.172 E4.18044
G1 X139.144 Y152.093 E4.22452
G1 X138.265 Y151.838 E4.26854
G1 X137.452 Y151.416 E4.3126
G1 X136.737 Y150.844 E4.35664
G1 X136.147 Y150.143 E4.40071
G1 X135.705 Y149.34 E4.4448
G1 X135.429 Y148.467 E4.48884
G1 X135.328 Y147.443 E4.53833
G1 X135.407 Y146.644 E4.57695
G1 X135.662 Y145.765 E4.62097
G1 X136.147 Y144.857 E4.67048
G1 X136.656 Y144.237 E4.70906
G1 X137.357 Y143.647 E4.75313
G1 X138.16 Y143.205 E4.79722
G1 X139.033 Y142.929 E4.84126
G1 X139.942 Y142.828 E4.88525
G1 X140.856 Y142.907 E4.92937
G1 X140.861 Y142.908 E4.92962
G1 X140.861 Y142.908 F7800
G1 X140.858 Y143.303
